P3
400 225
255
175 198 0
175 198 0
174 197 0
174 198 0
172 196 0
174 197 0
173 197 0
175 198 0
175 198 0
175 198 0
174 197 0
174 197 0
175 198 0
174 197 0
174 197 0
174 197 0
175 198 0
175 198 0
173 197 0
174 197 0
174 198 0
174 197 0
175 198 0
174 198 0
173 197 0
172 196 0
174 198 0
175 198 0
174 197 0
172 196 0
174 197 0
174 197 0
173 197 0
173 197 0
175 198 0
174 198 0
173 196 0
173 196 0
174 198 0
174 196 0
175 198 0
172 196 0
175 198 0
171 194 0
174 197 0
173 197 0
174 197 0
173 197 0
175 198 0
174 197 0
173 196 0
173 197 0
173 197 0
173 197 0
174 197 0
174 197 0
173 196 0
173 196 0
174 197 0
174 198 0
174 197 0
174 197 0
175 198 0
174 197 0
172 196 0
174 197 0
172 196 0
172 196 0
174 197 0
173 197 0
174 197 0
174 197 0
171 195 0
174 198 0
174 198 0
173 196 0
174 197 0
176 198 0
174 197 0
172 196 0
172 197 0
175 198 0
173 196 0
172 196 0
174 198 0
174 198 0
174 197 0
172 197 0
174 197 0
174 197 0
173 197 0
175 198 0
174 197 0
174 198 0
174 197 0
174 197 0
172 195 0
174 198 0
173 196 0
169 193 0
174 197 0
172 195 0
175 197 0
176 198 0
173 197 0
172 196 0
173 196 0
174 198 0
174 196 0
173 196 0
173 197 0
174 197 0
174 197 0
173 197 0
175 198 0
174 197 0
171 195 0
174 197 0
174 197 0
171 194 0
173 197 0
174 197 0
175 198 0
173 197 0
173 196 0
173 197 0
173 196 0
174 197 0
173 196 0
173 196 0
174 197 0
174 197 0
172 195 0
174 196 0
172 195 0
173 197 0
174 197 0
174 196 0
173 196 0
175 198 0
173 197 0
172 196 0
173 196 0
174 196 0
172 196 0
176 198 0
174 197 0
175 198 0
174 197 0
175 198 0
172 196 0
175 198 0
175 198 0
173 196 0
173 196 0
174 198 0
173 197 0
174 197 0
174 197 0
174 197 0
173 196 0
175 198 0
172 197 0
173 196 0
172 195 0
172 195 0
173 197 0
172 196 0
174 198 0
174 197 0
173 196 0
172 194 0
174 197 0
173 197 0
173 197 0
173 197 0
174 197 0
174 197 0
172 195 0
173 196 0
173 196 0
174 197 0
175 198 0
172 196 0
171 194 0
174 197 0
175 198 0
174 197 0
174 197 0
175 198 0
175 198 0
171 195 0
174 197 0
175 198 0
174 197 0
174 198 0
174 197 0
175 197 0
173 197 0
173 196 0
174 197 0
173 196 0
172 196 0
174 198 0
173 196 0
172 196 0
173 197 0
171 195 0
172 195 0
173 196 0
173 197 0
173 196 0
175 198 0
172 196 0
174 197 0
173 196 0
175 198 0
174 197 0
175 198 0
174 197 0
174 197 0
173 196 0
172 196 0
173 195 0
174 197 0
173 196 0
171 196 0
174 197 0
171 195 0
174 197 0
173 196 0
175 198 0
172 196 0
174 197 0
172 196 0
175 198 0
172 195 0
174 197 0
174 196 0
174 197 0
174 197 0
173 195 0
175 197 0
173 196 0
171 194 0
174 197 0
172 195 0
170 194 0
168 184 0
155 153 0
156 153 0
184 172 86
200 184 114
199 183 114
197 182 114
196 181 114
194 181 114
193 180 114
192 179 114
191 179 114
190 178 114
189 178 114
187 177 114
186 177 114
185 176 114
185 176 114
184 176 114
183 175 114
182 175 114
181 174 114
180 174 114
179 173 114
178 173 114
178 173 114
177 172 114
176 172 114
175 172 114
175 171 114
174 171 114
173 171 114
173 171 114
172 170 114
172 170 114
171 170 114
170 169 114
170 169 114
169 169 114
169 169 114
168 169 114
168 168 114
168 168 114
167 168 114
167 168 114
166 168 114
166 167 114
166 167 114
165 167 114
165 167 114
165 167 114
164 167 114
164 167 114
164 166 114
163 166 114
163 166 114
163 166 114
163 166 114
163 166 114
163 166 114
162 166 114
162 166 114
162 166 114
162 166 114
162 166 114
162 166 114
162 166 114
162 166 114
162 166 114
162 166 114
162 166 114
162 166 114
162 166 114
162 166 114
162 166 114
163 166 114
163 166 114
163 166 114
163 166 114
163 166 114
163 166 114
164 166 114
164 167 114
164 167 114
165 167 114
165 167 114
165 167 114
166 167 114
166 167 114
166 168 114
167 168 114
167 168 114
168 168 114
168 168 114
169 169 114
169 169 114
170 169 114
170 169 114
171 170 114
171 170 114
172 170 114
173 170 114
173 171 114
174 171 114
175 171 114
175 172 114
176 172 114
177 172 114
178 173 114
179 173 114
179 174 114
180 174 114
181 174 114
182 175 114
183 175 114
184 176 114
185 176 114
186 177 114
187 177 114
189 178 114
190 178 114
191 179 114
192 180 114
194 180 114
195 181 114
197 182 114
199 183 114
200 183 113
170 162 58
157 154 0
171 189 0
174 197 0
175 198 0
171 196 0
174 198 0
174 197 0
173 197 0
174 197 0
173 197 0
175 198 0
172 197 0
175 198 0
175 198 0
172 196 0
175 198 0
173 197 0
174 197 0
174 197 0
173 197 0
174 197 0
173 197 0
175 198 0
175 198 0
172 196 0
174 197 0
176 199 0
172 196 0
176 198 0
172 196 0
175 198 0
174 198 0
175 198 0
175 198 0
175 198 0
173 197 0
174 197 0
172 196 0
172 195 0
175 198 0
173 197 0
173 197 0
173 196 0
174 198 0
174 197 0
172 196 0
173 197 0
172 195 0
172 196 0
173 197 0
174 197 0
175 198 0
174 198 0
175 198 0
173 197 0
175 198 0
175 198 0
174 198 0
174 198 0
175 198 0
175 198 0
173 197 0
173 197 0
172 196 0
174 198 0
173 197 0
174 197 0
174 197 0
174 197 0
173 197 0
175 198 0
174 198 0
174 197 0
175 198 0
174 197 0
172 196 0
173 197 0
173 197 0
173 197 0
174 197 0
173 196 0
172 196 0
174 197 0
175 198 0
174 197 0
174 197 0
172 196 0
175 197 0
172 195 0
175 198 0
175 198 0
175 197 0
174 198 0
173 196 0
176 198 0
173 196 0
173 197 0
174 197 0
175 198 0
174 197 0
174 197 0
173 196 0
173 197 0
173 197 0
173 197 0
173 197 0
173 196 0
174 197 0
176 198 0
174 198 0
173 197 0
174 198 0
173 197 0
174 197 0
174 198 0
175 198 0
173 197 0
174 198 0
174 197 0
174 198 0
174 197 0
175 198 0
173 197 0
174 197 0
173 196 0
173 197 0
173 197 0
172 195 0
175 197 0
174 197 0
174 198 0
173 196 0
174 197 0
174 198 0
174 197 0
174 197 0
174 197 0
173 197 0
173 197 0
172 196 0
173 196 0
172 196 0
174 197 0
174 197 0
175 198 0
174 197 0
174 198 0
174 197 0
172 194 0
174 197 0
173 196 0
175 197 0
174 197 0
174 197 0
172 195 0
173 195 0
173 196 0
174 197 0
172 195 0
173 197 0
175 197 0
175 198 0
174 197 0
173 197 0
175 198 0
176 197 0
172 195 0
173 196 0
174 197 0
175 198 0
175 198 0
173 196 0
173 196 0
174 196 0
172 195 0
172 196 0
175 198 0
172 196 0
173 195 0
171 195 0
175 198 0
174 197 0
173 197 0
175 198 0
171 195 0
175 198 0
171 194 0
172 195 0
176 197 0
175 198 0
171 194 0
173 195 0
172 195 0
174 196 0
173 196 0
172 195 0
175 198 0
172 196 0
174 196 0
172 196 0
173 196 0
174 197 0
174 197 0
171 193 0
174 197 0
173 197 0
174 197 0
173 195 0
174 197 0
171 195 0
173 197 0
172 196 0
174 197 0
173 196 0
174 197 0
174 197 0
173 196 0
174 196 0
173 196 0
173 197 0
172 196 0
174 197 0
173 195 0
174 196 0
175 197 0
173 196 0
173 196 0
173 197 0
173 196 0
173 196 0
173 196 0
174 196 0
173 197 0
174 197 0
173 196 0
172 196 0
172 196 0
172 195 0
173 196 0
173 197 0
172 195 0
174 197 0
173 196 0
173 197 0
174 197 0
174 196 0
173 197 0
172 195 0
172 196 0
173 196 0
175 198 0
174 197 0
175 198 0
173 197 0
174 198 0
175 198 0
173 196 0
174 197 0
174 197 0
174 197 0
173 197 0
172 196 0
174 197 0
174 197 0
174 197 0
174 197 0
174 197 0
173 197 0
172 195 0
173 196 0
171 192 0
156 155 0
155 153 0
168 161 52
200 183 113
199 183 114
198 182 114
196 182 114
195 181 114
194 180 114
192 180 114
191 179 114
190 179 114
189 178 114
188 178 114
187 177 114
186 177 114
185 176 114
184 176 114
183 175 114
182 175 114
181 174 114
180 174 114
180 174 114
179 173 114
178 173 114
177 173 114
177 172 114
176 172 114
175 172 114
174 171 114
174 171 114
173 171 114
173 170 114
172 170 114
171 170 114
171 170 114
170 169 114
170 169 114
169 169 114
169 169 114
168 168 114
168 168 114
167 168 114
167 168 114
166 168 114
166 167 114
166 167 114
165 167 114
165 167 114
165 167 114
164 167 114
164 167 114
164 166 114
164 166 114
163 166 114
163 166 114
163 166 114
163 166 114
163 166 114
162 166 114
162 166 114
162 166 114
162 166 114
162 166 114
162 166 114
162 166 114
162 166 114
162 166 114
162 166 114
162 166 114
162 166 114
162 166 114
162 166 114
162 166 114
162 166 114
162 166 114
163 166 114
163 166 114
163 166 114
163 166 114
163 166 114
164 166 114
164 166 114
164 167 114
164 167 114
165 167 114
165 167 114
165 167 114
166 167 114
166 167 114
167 168 114
167 168 114
167 168 114
168 168 114
168 168 114
169 169 114
169 169 114
170 169 114
170 169 114
171 170 114
172 170 114
172 170 114
173 171 114
174 171 114
174 171 114
175 172 114
176 172 114
177 172 114
177 173 114
178 173 114
179 173 114
180 174 114
181 174 114
182 175 114
183 175 114
184 176 114
185 176 114
186 176 114
187 177 114
188 178 114
189 178 114
190 179 114
192 179 114
193 180 114
194 181 114
196 181 114
198 182 114
199 183 114
195 180 105
161 156 30
158 158 0
172 194 0
173 196 0
173 197 0
173 197 0
173 197 0
174 197 0
175 197 0
174 197 0
174 197 0
174 198 0
175 198 0
173 196 0
173 197 0
174 197 0
175 198 0
173 196 0
174 197 0
175 198 0
175 198 0
172 196 0
173 197 0
175 198 0
175 198 0
175 198 0
173 196 0
174 198 0
175 198 0
175 198 0
175 198 0
173 196 0
173 197 0
174 198 0
174 197 0
175 198 0
174 198 0
173 197 0
174 197 0
173 196 0
174 197 0
173 197 0
174 198 0
174 198 0
175 198 0
173 197 0
173 197 0
174 197 0
175 198 0
172 195 0
173 197 0
175 198 0
176 199 0
174 197 0
173 197 0
175 198 0
173 197 0
173 197 0
174 198 0
175 198 0
172 196 0
174 197 0
174 197 0
174 197 0
173 196 0
174 198 0
174 197 0
175 198 0
175 198 0
174 197 0
174 197 0
174 197 0
175 198 0
174 197 0
175 198 0
176 198 0
175 198 0
174 198 0
173 197 0
174 197 0
174 197 0
174 197 0
175 197 0
174 197 0
175 198 0
174 197 0
173 197 0
173 197 0
175 198 0
172 196 0
171 195 0
174 198 0
176 199 0
174 197 0
175 198 0
172 195 0
174 197 0
174 197 0
174 197 0
173 197 0
174 198 0
174 197 0
174 197 0
173 196 0
175 197 0
174 198 0
174 197 0
174 197 0
171 195 0
174 198 0
174 197 0
174 198 0
173 197 0
173 197 0
173 197 0
173 197 0
172 195 0
177 199 0
174 197 0
175 198 0
175 198 0
172 195 0
174 197 0
173 197 0
174 197 0
174 197 0
173 195 0
173 196 0
172 195 0
173 196 0
172 196 0
173 197 0
175 198 0
172 196 0
174 197 0
173 197 0
174 197 0
174 198 0
175 198 0
173 197 0
175 198 0
174 198 0
173 196 0
173 196 0
174 196 0
174 198 0
174 197 0
175 198 0
174 197 0
174 197 0
172 196 0
173 196 0
175 198 0
174 197 0
173 197 0
175 198 0
174 197 0
173 196 0
174 197 0
174 197 0
172 195 0
173 196 0
174 198 0
172 195 0
173 196 0
174 196 0
174 197 0
171 195 0
173 196 0
173 196 0
174 197 0
172 195 0
173 196 0
172 197 0
173 197 0
176 198 0
175 198 0
174 198 0
174 197 0
174 197 0
174 197 0
172 196 0
174 197 0
175 198 0
173 197 0
173 197 0
174 198 0
172 195 0
173 197 0
172 196 0
172 195 0
172 195 0
172 196 0
173 197 0
174 197 0
174 197 0
174 198 0
172 195 0
175 197 0
175 198 0
173 196 0
175 198 0
175 198 0
173 197 0
173 197 0
173 197 0
171 195 0
170 193 0
175 198 0
174 197 0
172 195 0
173 196 0
172 196 0
174 197 0
172 195 0
173 196 0
174 197 0
174 197 0
173 197 0
175 198 0
174 197 0
174 196 0
173 197 0
173 196 0
175 197 0
174 197 0
172 195 0
174 197 0
171 195 0
175 197 0
174 197 0
172 195 0
172 196 0
173 196 0
173 196 0
172 195 0
172 196 0
173 196 0
172 196 0
172 196 0
173 197 0
172 196 0
171 194 0
174 196 0
173 197 0
173 196 0
174 197 0
175 197 0
173 197 0
175 197 0
175 198 0
174 196 0
172 195 0
173 197 0
174 197 0
173 196 0
172 195 0
175 197 0
172 195 0
174 198 0
174 198 0
175 197 0
175 197 0
174 197 0
173 196 0
172 196 0
171 194 0
174 197 0
173 195 0
172 196 0
159 164 0
154 152 0
159 155 22
190 176 97
200 183 114
198 183 114
197 182 114
196 181 114
194 181 114
193 180 114
192 179 114
191 179 114
190 178 114
188 178 114
187 177 114
186 177 114
185 176 114
184 176 114
184 175 114
183 175 114
182 175 114
181 174 114
180 174 114
179 173 114
179 173 114
178 173 114
177 172 114
176 172 114
176 172 114
175 171 114
174 171 114
174 171 114
173 171 114
172 170 114
172 170 114
171 170 114
171 169 114
170 169 114
169 169 114
169 169 114
168 169 114
168 168 114
168 168 114
167 168 114
167 168 114
166 168 114
166 167 114
166 167 114
165 167 114
165 167 114
164 167 114
164 167 114
164 167 114
164 166 114
163 166 114
163 166 114
163 166 114
163 166 114
163 166 114
162 166 114
162 166 114
162 166 114
162 166 114
162 166 114
162 166 114
162 166 114
162 166 114
162 166 114
162 166 114
162 166 114
162 166 114
162 166 114
162 166 114
162 166 114
162 166 114
162 166 114
162 166 114
162 166 114
163 166 114
163 166 114
163 166 114
163 166 114
163 166 114
164 166 114
164 166 114
164 167 114
164 167 114
165 167 114
165 167 114
166 167 114
166 167 114
166 168 114
167 168 114
167 168 114
168 168 114
168 168 114
169 169 114
169 169 114
170 169 114
170 169 114
171 170 114
171 170 114
172 170 114
173 170 114
173 171 114
174 171 114
175 171 114
175 172 114
176 172 114
177 172 114
178 173 114
179 173 114
179 174 114
180 174 114
181 174 114
182 175 114
183 175 114
184 176 114
185 176 114
186 177 114
187 177 114
188 178 114
190 178 114
191 179 114
192 180 114
193 180 114
195 181 114
197 182 114
198 182 114
200 183 114
186 173 91
157 154 0
163 171 0
174 197 0
173 197 0
174 198 0
174 198 0
174 198 0
172 196 0
175 198 0
175 198 0
173 197 0
174 197 0
173 196 0
172 196 0
174 197 0
174 197 0
175 198 0
174 197 0
174 198 0
174 197 0
174 197 0
173 197 0
173 197 0
174 197 0
173 197 0
174 197 0
174 197 0
174 198 0
174 198 0
173 197 0
173 197 0
174 198 0
174 198 0
173 197 0
174 198 0
175 198 0
175 197 0
174 197 0
175 198 0
172 196 0
174 198 0
176 198 0
174 197 0
176 198 0
174 198 0
174 198 0
173 197 0
175 198 0
174 198 0
174 197 0
175 198 0
174 198 0
174 198 0
173 197 0
174 197 0
174 197 0
173 197 0
173 197 0
174 197 0
173 197 0
174 197 0
175 198 0
174 198 0
173 197 0
173 197 0
174 198 0
173 197 0
175 198 0
174 198 0
175 198 0
175 198 0
171 195 0
174 197 0
173 197 0
172 195 0
174 197 0
174 197 0
171 195 0
174 197 0
174 197 0
171 196 0
171 196 0
173 196 0
173 197 0
174 197 0
173 197 0
174 197 0
174 198 0
173 197 0
174 197 0
174 198 0
173 196 0
173 196 0
173 197 0
173 196 0
174 196 0
174 197 0
173 197 0
175 198 0
173 197 0
173 197 0
175 198 0
172 195 0
173 196 0
174 197 0
173 197 0
174 197 0
173 197 0
174 197 0
175 198 0
174 198 0
174 197 0
171 194 0
173 197 0
174 198 0
174 197 0
174 197 0
174 198 0
172 196 0
173 197 0
174 198 0
173 196 0
173 197 0
175 198 0
175 198 0
175 198 0
173 196 0
172 195 0
174 197 0
173 197 0
173 197 0
173 197 0
174 197 0
174 197 0
175 198 0
172 196 0
173 197 0
174 198 0
173 196 0
172 196 0
172 196 0
174 197 0
174 197 0
174 197 0
174 197 0
174 197 0
171 195 0
173 196 0
174 197 0
174 197 0
174 197 0
175 198 0
173 196 0
173 197 0
173 197 0
174 197 0
175 198 0
173 196 0
173 196 0
175 198 0
173 197 0
174 197 0
174 197 0
174 197 0
175 198 0
171 195 0
170 194 0
171 194 0
174 197 0
171 195 0
173 197 0
172 196 0
172 196 0
172 196 0
174 198 0
172 195 0
173 195 0
176 198 0
172 196 0
174 197 0
175 197 0
173 197 0
173 196 0
173 196 0
173 197 0
174 197 0
173 197 0
171 194 0
173 197 0
174 196 0
174 197 0
173 196 0
172 196 0
172 196 0
172 195 0
175 198 0
173 196 0
175 197 0
174 198 0
173 197 0
174 197 0
174 197 0
174 197 0
174 197 0
173 197 0
173 196 0
172 196 0
173 196 0
174 196 0
174 197 0
172 195 0
170 193 0
171 195 0
173 197 0
173 196 0
172 196 0
174 196 0
174 197 0
174 197 0
176 198 0
175 197 0
175 198 0
174 196 0
173 197 0
175 197 0
172 196 0
174 196 0
172 195 0
172 195 0
174 197 0
175 198 0
174 197 0
172 196 0
174 197 0
175 198 0
173 196 0
174 197 0
173 196 0
171 195 0
174 197 0
173 196 0
173 196 0
173 197 0
172 196 0
174 197 0
172 196 0
172 194 0
172 195 0
174 197 0
173 196 0
173 196 0
172 195 0
174 196 0
174 196 0
171 195 0
171 194 0
173 197 0
175 198 0
172 196 0
172 196 0
174 197 0
174 197 0
175 198 0
174 197 0
173 197 0
173 197 0
173 196 0
173 196 0
164 174 0
155 153 0
156 153 0
177 167 75
201 184 114
199 183 114
197 182 114
196 182 114
195 181 114
194 180 114
192 180 114
191 179 114
190 179 114
189 178 114
188 178 114
187 177 114
186 177 114
185 176 114
184 176 114
183 175 114
182 175 114
181 174 114
181 174 114
180 174 114
179 173 114
178 173 114
177 173 114
177 172 114
176 172 114
175 172 114
175 171 114
174 171 114
173 171 114
173 170 114
172 170 114
171 170 114
171 170 114
170 169 114
170 169 114
169 169 114
169 169 114
168 168 114
168 168 114
167 168 114
167 168 114
167 168 114
166 167 114
166 167 114
165 167 114
165 167 114
165 167 114
164 167 114
164 167 114
164 166 114
164 166 114
163 166 114
163 166 114
163 166 114
163 166 114
162 166 114
162 166 114
162 166 114
162 166 114
162 166 114
162 166 114
162 166 114
162 166 114
162 165 114
162 165 114
162 165 114
162 165 114
162 165 114
162 165 114
162 166 114
162 166 114
162 166 114
162 166 114
162 166 114
162 166 114
162 166 114
163 166 114
163 166 114
163 166 114
163 166 114
163 166 114
164 166 114
164 167 114
164 167 114
165 167 114
165 167 114
165 167 114
166 167 114
166 167 114
167 168 114
167 168 114
167 168 114
168 168 114
168 168 114
169 169 114
169 169 114
170 169 114
171 169 114
171 170 114
172 170 114
172 170 114
173 171 114
174 171 114
174 171 114
175 172 114
176 172 114
177 172 114
177 173 114
178 173 114
179 173 114
180 174 114
181 174 114
182 175 114
183 175 114
183 175 114
185 176 114
186 176 114
187 177 114
188 177 114
189 178 114
190 179 114
191 179 114
193 180 114
194 181 114
196 181 114
197 182 114
199 183 114
201 184 113
167 160 54
155 153 0
168 185 0
174 198 0
174 197 0
172 195 0
176 198 0
173 197 0
173 197 0
174 196 0
174 197 0
174 197 0
174 197 0
174 198 0
174 197 0
175 197 0
174 197 0
175 197 0
172 196 0
173 196 0
173 197 0
174 198 0
173 197 0
175 198 0
176 199 0
174 197 0
173 197 0
176 199 0
175 198 0
174 197 0
175 198 0
173 196 0
174 197 0
174 197 0
175 198 0
174 198 0
173 197 0
173 197 0
174 197 0
174 197 0
174 197 0
174 197 0
176 199 0
174 197 0
173 197 0
175 198 0
174 197 0
174 197 0
175 198 0
173 197 0
175 198 0
173 197 0
173 197 0
175 198 0
174 196 0
175 198 0
171 195 0
176 199 0
174 197 0
173 196 0
171 195 0
173 197 0
175 198 0
174 197 0
173 196 0
174 198 0
174 197 0
174 198 0
174 197 0
174 197 0
174 198 0
175 198 0
173 197 0
172 196 0
173 197 0
175 198 0
173 196 0
174 197 0
174 198 0
175 198 0
175 197 0
174 198 0
174 197 0
172 196 0
175 198 0
173 197 0
173 197 0
175 198 0
173 197 0
176 198 0
174 197 0
175 198 0
173 196 0
176 199 0
173 197 0
175 198 0
174 198 0
175 198 0
177 198 0
174 197 0
173 196 0
174 198 0
173 196 0
174 197 0
173 197 0
174 198 0
175 198 0
170 193 0
174 196 0
174 197 0
173 197 0
174 197 0
173 197 0
172 196 0
174 197 0
173 197 0
172 196 0
175 198 0
174 197 0
175 198 0
172 196 0
174 198 0
175 198 0
172 196 0
174 197 0
173 196 0
173 197 0
174 197 0
173 197 0
174 197 0
173 197 0
172 196 0
175 198 0
175 198 0
173 197 0
172 195 0
173 197 0
174 197 0
173 195 0
172 196 0
174 197 0
176 198 0
173 197 0
174 197 0
174 197 0
173 197 0
173 197 0
172 196 0
174 197 0
171 196 0
172 196 0
174 198 0
173 197 0
172 195 0
170 194 0
172 195 0
171 194 0
173 197 0
175 198 0
175 198 0
172 195 0
175 198 0
174 197 0
174 197 0
172 196 0
173 197 0
172 195 0
174 198 0
171 196 0
174 197 0
174 198 0
173 196 0
173 196 0
174 197 0
172 195 0
172 194 0
173 197 0
174 197 0
172 196 0
174 198 0
173 197 0
176 198 0
173 197 0
174 198 0
172 196 0
176 198 0
171 195 0
174 198 0
172 196 0
174 197 0
173 196 0
174 197 0
173 196 0
174 196 0
172 196 0
174 197 0
173 196 0
174 197 0
174 197 0
173 196 0
173 196 0
174 196 0
174 197 0
175 197 0
173 196 0
171 194 0
174 198 0
171 194 0
172 196 0
174 197 0
173 196 0
173 197 0
173 196 0
173 197 0
175 198 0
174 197 0
175 197 0
174 197 0
172 196 0
172 195 0
173 196 0
172 197 0
174 197 0
173 197 0
175 197 0
172 195 0
175 197 0
172 195 0
173 196 0
173 195 0
172 195 0
172 196 0
175 198 0
170 194 0
172 194 0
174 197 0
172 195 0
173 196 0
173 196 0
172 196 0
174 198 0
172 196 0
173 196 0
174 197 0
174 197 0
174 197 0
174 197 0
173 196 0
175 198 0
172 196 0
175 197 0
173 197 0
175 196 0
174 198 0
175 198 0
172 196 0
172 195 0
172 195 0
175 198 0
174 197 0
172 195 0
173 197 0
173 197 0
173 196 0
175 198 0
173 196 0
173 196 0
171 187 0
156 153 0
156 153 0
160 156 30
200 183 112
200 183 114
198 183 114
197 182 114
195 181 114
194 181 114
193 180 114
192 179 114
191 179 114
190 178 114
189 178 114
187 177 114
186 177 114
186 176 114
185 176 114
184 176 114
183 175 114
182 175 114
181 174 114
180 174 114
179 174 114
179 173 114
178 173 114
177 173 114
176 172 114
176 172 114
175 172 114
174 171 114
174 171 114
173 171 114
172 170 114
172 170 114
171 170 114
171 170 114
170 169 114
170 169 114
169 169 114
169 169 114
168 168 114
168 168 114
167 168 114
167 168 114
166 168 114
166 167 114
166 167 114
165 167 114
165 167 114
165 167 114
164 167 114
164 167 114
164 166 114
163 166 114
163 166 114
163 166 114
163 166 114
163 166 114
162 166 114
162 166 114
162 166 114
162 166 114
162 166 114
162 166 114
162 165 114
162 165 114
162 165 114
161 165 114
161 165 114
161 165 114
161 165 114
162 165 114
162 165 114
162 166 114
162 166 114
162 166 114
162 166 114
162 166 114
162 166 114
162 166 114
163 166 114
163 166 114
163 166 114
163 166 114
164 166 114
164 167 114
164 167 114
165 167 114
165 167 114
165 167 114
166 167 114
166 167 114
166 168 114
167 168 114
167 168 114
168 168 114
168 168 114
169 169 114
169 169 114
170 169 114
170 169 114
171 170 114
171 170 114
172 170 114
173 170 114
173 171 114
174 171 114
175 171 114
175 172 114
176 172 114
177 172 114
178 173 114
179 173 114
179 174 114
180 174 114
181 174 114
182 175 114
183 175 114
184 176 114
185 176 114
186 177 114
187 177 114
188 178 114
190 178 114
191 179 114
192 180 114
193 180 114
195 181 114
196 182 114
198 182 114
200 183 114
195 179 104
155 153 0
156 156 0
173 197 0
174 197 0
173 197 0
175 198 0
173 196 0
173 196 0
172 196 0
176 198 0
173 197 0
174 198 0
173 197 0
173 197 0
173 197 0
174 197 0
176 198 0
174 197 0
174 197 0
176 199 0
175 197 0
174 198 0
175 198 0
174 198 0
174 197 0
176 198 0
176 199 0
173 197 0
175 198 0
173 197 0
174 197 0
175 198 0
173 197 0
174 198 0
173 196 0
174 198 0
174 197 0
174 198 0
175 198 0
174 197 0
175 198 0
174 197 0
172 196 0
174 197 0
173 197 0
175 198 0
174 198 0
174 198 0
175 198 0
174 197 0
174 198 0
174 198 0
173 197 0
173 197 0
175 198 0
174 198 0
174 198 0
172 196 0
174 198 0
172 195 0
173 197 0
174 197 0
173 197 0
172 196 0
173 197 0
174 197 0
175 198 0
173 197 0
174 197 0
175 198 0
172 196 0
174 197 0
173 197 0
174 197 0
174 198 0
173 197 0
173 196 0
173 197 0
172 195 0
174 197 0
175 198 0
172 196 0
173 196 0
172 196 0
173 197 0
173 196 0
173 197 0
173 197 0
174 197 0
172 196 0
172 195 0
174 197 0
174 197 0
176 198 0
174 197 0
175 198 0
174 196 0
172 195 0
174 197 0
173 197 0
174 198 0
173 197 0
173 197 0
174 197 0
173 197 0
173 197 0
174 197 0
174 197 0
174 197 0
174 197 0
173 197 0
175 198 0
174 197 0
174 196 0
175 197 0
175 198 0
174 198 0
172 196 0
175 198 0
175 198 0
174 197 0
173 196 0
171 196 0
175 198 0
174 197 0
175 198 0
172 196 0
175 198 0
175 198 0
174 197 0
176 198 0
173 197 0
171 195 0
174 198 0
172 195 0
174 197 0
175 197 0
172 195 0
173 196 0
173 196 0
171 195 0
173 197 0
173 197 0
172 196 0
174 197 0
173 197 0
176 198 0
174 197 0
173 196 0
172 196 0
173 197 0
174 197 0
174 197 0
173 197 0
173 197 0
173 196 0
173 197 0
175 197 0
174 198 0
170 193 0
175 198 0
172 195 0
173 197 0
172 195 0
173 196 0
174 196 0
174 197 0
174 197 0
174 197 0
173 196 0
172 196 0
171 195 0
172 196 0
174 197 0
174 197 0
171 195 0
172 196 0
175 197 0
175 198 0
173 196 0
175 198 0
173 196 0
174 197 0
173 197 0
173 196 0
174 197 0
174 197 0
174 197 0
173 196 0
173 196 0
173 196 0
172 194 0
173 197 0
175 197 0
172 196 0
175 198 0
173 196 0
173 197 0
173 197 0
173 196 0
174 197 0
175 197 0
173 196 0
172 196 0
172 195 0
173 196 0
174 197 0
174 197 0
174 197 0
171 195 0
175 198 0
172 194 0
174 197 0
173 197 0
172 196 0
171 194 0
172 195 0
174 197 0
174 197 0
172 195 0
174 197 0
174 196 0
172 195 0
170 194 0
174 197 0
174 197 0
174 197 0
171 195 0
174 196 0
173 197 0
173 196 0
174 198 0
172 195 0
174 197 0
172 196 0
175 197 0
173 196 0
174 197 0
174 197 0
173 196 0
171 194 0
173 196 0
173 196 0
175 198 0
172 195 0
174 197 0
176 199 0
172 196 0
175 198 0
173 196 0
174 196 0
175 197 0
174 197 0
175 198 0
175 197 0
174 197 0
173 196 0
172 195 0
172 196 0
173 197 0
173 196 0
174 197 0
174 198 0
172 196 0
175 197 0
172 194 0
158 159 0
155 153 0
156 153 0
188 175 94
200 184 114
199 183 114
197 182 114
196 181 114
195 181 114
194 180 114
192 180 114
191 179 114
190 179 114
189 178 114
188 178 114
187 177 114
186 177 114
185 176 114
184 176 114
183 175 114
183 175 114
182 175 114
181 174 114
180 174 114
179 173 114
178 173 114
178 173 114
177 172 114
176 172 114
176 172 114
175 171 114
174 171 114
174 171 114
173 171 114
172 170 114
172 170 114
171 170 114
171 170 114
170 169 114
170 169 114
169 169 114
169 169 114
168 168 114
168 168 114
167 168 114
167 168 114
166 168 114
166 167 114
166 167 114
165 167 114
165 167 114
164 167 114
164 167 114
164 167 114
164 166 114
163 166 114
163 166 114
163 166 114
163 166 114
162 166 114
162 166 114
162 166 114
162 166 114
162 166 114
162 166 114
162 166 114
162 165 114
162 165 114
161 165 114
161 165 114
161 165 114
161 165 114
161 165 114
161 165 114
162 165 114
162 165 114
162 166 114
162 166 114
162 166 114
162 166 114
162 166 114
162 166 114
163 166 114
163 166 114
163 166 114
163 166 114
164 166 114
164 166 114
164 167 114
164 167 114
165 167 114
165 167 114
165 167 114
166 167 114
166 168 114
167 168 114
167 168 114
168 168 114
168 168 114
169 169 114
169 169 114
170 169 114
170 169 114
171 170 114
171 170 114
172 170 114
173 170 114
173 171 114
174 171 114
175 171 114
175 172 114
176 172 114
177 172 114
177 173 114
178 173 114
179 173 114
180 174 114
181 174 114
182 175 114
183 175 114
184 176 114
185 176 114
186 176 114
187 177 114
188 178 114
189 178 114
190 179 114
191 179 114
193 180 114
194 180 114
195 181 114
197 182 114
199 183 114
200 184 114
178 168 75
158 154 0
166 179 0
173 197 0
174 197 0
175 197 0
174 197 0
174 198 0
173 196 0
173 197 0
173 197 0
175 198 0
175 198 0
172 197 0
174 197 0
172 197 0
174 197 0
172 196 0
173 197 0
174 198 0
172 195 0
174 197 0
174 197 0
174 197 0
175 198 0
174 197 0
174 197 0
174 198 0
174 197 0
173 197 0
173 196 0
172 196 0
174 197 0
174 197 0
173 197 0
173 196 0
172 196 0
174 197 0
173 196 0
174 197 0
175 198 0
174 198 0
173 197 0
176 199 0
172 196 0
174 197 0
173 196 0
173 197 0
173 197 0
172 195 0
173 197 0
175 198 0
175 198 0
175 198 0
174 197 0
175 198 0
173 196 0
173 197 0
176 198 0
172 196 0
173 197 0
173 197 0
176 199 0
174 198 0
173 197 0
173 196 0
174 197 0
172 196 0
173 197 0
174 197 0
174 197 0
174 197 0
172 196 0
175 197 0
173 196 0
174 198 0
172 196 0
175 198 0
174 198 0
173 197 0
175 198 0
172 196 0
174 197 0
173 196 0
172 196 0
172 195 0
173 197 0
174 197 0
174 197 0
172 196 0
174 197 0
175 198 0
174 197 0
174 198 0
172 196 0
172 195 0
173 197 0
172 196 0
174 197 0
173 197 0
175 198 0
174 197 0
172 195 0
172 196 0
173 197 0
172 195 0
173 197 0
173 196 0
174 197 0
172 195 0
173 197 0
173 197 0
174 197 0
172 196 0
174 197 0
174 198 0
174 198 0
174 197 0
173 196 0
173 197 0
175 197 0
174 197 0
175 198 0
173 197 0
173 197 0
176 198 0
173 195 0
173 197 0
173 196 0
172 196 0
174 198 0
173 197 0
174 197 0
174 198 0
174 197 0
172 196 0
174 197 0
173 196 0
173 197 0
175 198 0
175 198 0
170 193 0
174 197 0
173 196 0
172 196 0
172 195 0
173 196 0
173 196 0
173 196 0
173 197 0
173 197 0
172 195 0
173 196 0
173 197 0
173 196 0
173 197 0
173 196 0
176 198 0
173 197 0
171 195 0
173 196 0
173 197 0
172 194 0
175 198 0
173 196 0
174 197 0
174 197 0
174 196 0
175 198 0
171 195 0
173 197 0
173 196 0
174 197 0
174 197 0
172 196 0
173 196 0
170 194 0
174 197 0
173 196 0
174 196 0
174 197 0
174 197 0
173 196 0
172 195 0
172 196 0
172 196 0
174 197 0
173 195 0
175 198 0
172 196 0
173 195 0
174 197 0
175 198 0
171 195 0
171 195 0
175 198 0
172 195 0
173 196 0
174 197 0
172 196 0
173 196 0
172 196 0
172 195 0
173 196 0
175 198 0
175 197 0
171 194 0
173 196 0
174 197 0
173 196 0
172 196 0
173 197 0
172 196 0
172 195 0
174 197 0
173 195 0
173 197 0
173 197 0
173 196 0
173 196 0
173 196 0
173 196 0
173 196 0
174 197 0
171 195 0
173 196 0
175 198 0
173 197 0
173 197 0
172 195 0
174 197 0
175 198 0
174 196 0
174 198 0
175 198 0
174 197 0
173 196 0
175 198 0
171 194 0
173 197 0
172 197 0
173 196 0
173 196 0
174 197 0
173 196 0
173 197 0
175 198 0
173 196 0
172 195 0
175 198 0
173 196 0
174 197 0
175 198 0
172 195 0
171 194 0
171 193 0
173 196 0
175 198 0
173 196 0
172 195 0
169 193 0
175 198 0
173 195 0
172 195 0
173 196 0
165 177 0
156 153 0
156 153 0
165 159 47
201 184 114
200 183 114
198 182 114
197 182 114
196 181 114
194 181 114
193 180 114
192 179 114
191 179 114
190 178 114
189 178 114
188 177 114
187 177 114
186 177 114
185 176 114
184 176 114
183 175 114
182 175 114
181 174 114
181 174 114
180 174 114
179 173 114
178 173 114
177 173 114
177 172 114
176 172 114
175 172 114
175 171 114
174 171 114
173 171 114
173 170 114
172 170 114
172 170 114
171 170 114
170 169 114
170 169 114
169 169 114
169 169 114
168 169 114
168 168 114
168 168 114
167 168 114
167 168 114
166 168 114
166 167 114
165 167 114
165 167 114
165 167 114
164 167 114
164 167 114
164 166 114
164 166 114
163 166 114
163 166 114
163 166 114
163 166 114
162 166 114
162 166 114
162 166 114
162 166 114
162 166 114
162 166 114
162 166 114
162 165 114
161 165 114
161 165 114
161 165 114
161 165 114
161 165 114
161 165 114
161 165 114
162 165 114
162 165 114
162 166 114
162 166 114
162 166 114
162 166 114
162 166 114
162 166 114
163 166 114
163 166 114
163 166 114
163 166 114
163 166 114
164 166 114
164 167 114
164 167 114
165 167 114
165 167 114
165 167 114
166 167 114
166 168 114
167 168 114
167 168 114
167 168 114
168 168 114
168 169 114
169 169 114
169 169 114
170 169 114
171 169 114
171 170 114
172 170 114
172 170 114
173 171 114
174 171 114
174 171 114
175 172 114
176 172 114
176 172 114
177 173 114
178 173 114
179 173 114
180 174 114
181 174 114
181 174 114
182 175 114
183 175 114
184 176 114
185 176 114
186 177 114
187 177 114
188 178 114
190 178 114
191 179 114
192 180 114
193 180 114
195 181 114
196 182 114
198 182 114
200 183 114
196 180 106
155 153 0
156 154 0
171 190 0
175 198 0
174 197 0
173 196 0
174 197 0
174 196 0
172 196 0
174 197 0
174 197 0
174 197 0
174 197 0
175 197 0
174 198 0
173 197 0
175 198 0
174 197 0
173 196 0
174 197 0
175 198 0
173 197 0
175 197 0
174 198 0
174 197 0
173 196 0
175 198 0
174 198 0
174 197 0
175 198 0
174 197 0
174 198 0
174 198 0
174 197 0
173 197 0
172 196 0
174 198 0
175 198 0
174 198 0
173 197 0
174 197 0
175 198 0
175 197 0
175 198 0
172 195 0
173 197 0
172 196 0
175 198 0
172 196 0
173 197 0
174 197 0
175 197 0
174 197 0
171 196 0
173 197 0
175 198 0
173 197 0
173 197 0
173 196 0
174 197 0
175 198 0
175 198 0
174 196 0
173 196 0
175 198 0
174 197 0
175 198 0
173 197 0
173 197 0
172 196 0
174 198 0
174 198 0
174 197 0
173 197 0
173 196 0
175 198 0
173 197 0
172 196 0
175 198 0
173 196 0
173 197 0
173 195 0
172 197 0
174 197 0
173 197 0
174 197 0
173 197 0
174 197 0
174 197 0
174 198 0
175 198 0
173 197 0
176 198 0
173 197 0
171 195 0
174 197 0
175 198 0
173 197 0
174 197 0
173 196 0
174 198 0
173 197 0
172 196 0
173 197 0
175 198 0
174 197 0
172 196 0
174 198 0
174 197 0
175 198 0
172 196 0
172 196 0
172 196 0
173 197 0
173 196 0
173 196 0
174 197 0
176 199 0
174 198 0
174 198 0
173 196 0
173 196 0
175 198 0
173 197 0
173 197 0
175 198 0
172 195 0
174 198 0
172 196 0
173 196 0
173 197 0
174 197 0
175 198 0
173 196 0
175 198 0
172 195 0
174 197 0
171 195 0
173 196 0
173 197 0
171 194 0
173 196 0
173 196 0
173 197 0
173 196 0
174 197 0
173 196 0
175 198 0
174 197 0
174 197 0
175 197 0
174 197 0
174 197 0
174 196 0
173 196 0
171 195 0
173 196 0
173 196 0
173 196 0
173 197 0
174 197 0
173 196 0
174 198 0
172 196 0
173 196 0
173 197 0
173 197 0
172 196 0
175 197 0
171 195 0
172 196 0
173 195 0
174 197 0
173 196 0
172 196 0
173 195 0
173 197 0
175 197 0
173 197 0
174 196 0
174 197 0
174 197 0
173 197 0
173 195 0
174 197 0
173 196 0
173 197 0
173 197 0
175 197 0
172 196 0
172 196 0
173 196 0
173 196 0
173 197 0
172 196 0
173 196 0
174 197 0
172 195 0
172 195 0
174 197 0
173 197 0
173 196 0
173 197 0
172 196 0
175 198 0
174 196 0
174 196 0
174 197 0
174 196 0
173 196 0
173 196 0
173 196 0
173 195 0
173 196 0
174 197 0
175 197 0
173 196 0
175 197 0
174 197 0
171 195 0
173 196 0
174 198 0
171 195 0
171 194 0
173 197 0
173 195 0
176 198 0
174 197 0
173 196 0
173 197 0
170 195 0
173 196 0
174 197 0
173 196 0
175 197 0
173 196 0
174 197 0
174 197 0
174 196 0
173 196 0
174 197 0
173 196 0
172 195 0
174 198 0
175 197 0
172 196 0
173 196 0
172 196 0
173 197 0
173 196 0
174 196 0
173 196 0
172 195 0
173 196 0
172 195 0
170 194 0
173 197 0
172 194 0
174 197 0
171 194 0
174 196 0
173 196 0
173 196 0
170 189 0
158 155 0
155 153 0
155 153 0
188 175 93
200 184 114
199 183 114
197 182 114
196 182 114
195 181 114
194 180 114
193 180 114
191 179 114
190 179 114
189 178 114
188 178 114
187 177 114
186 177 114
186 176 114
185 176 114
184 176 114
183 175 114
182 175 114
181 174 114
180 174 114
180 174 114
179 173 114
178 173 114
177 173 114
177 172 114
176 172 114
175 172 114
175 171 114
174 171 114
173 171 114
173 170 114
172 170 114
172 170 114
171 170 114
170 169 114
170 169 114
169 169 114
169 169 114
168 169 114
168 168 114
167 168 114
167 168 114
167 168 114
166 168 114
166 167 114
165 167 114
165 167 114
165 167 114
164 167 114
164 167 114
164 166 114
164 166 114
163 166 114
163 166 114
163 166 114
163 166 114
162 166 114
162 166 114
162 166 114
162 166 114
162 166 114
162 166 114
162 166 114
162 165 114
162 165 114
161 165 114
161 165 114
161 165 114
161 165 114
161 165 114
161 165 114
162 165 114
162 165 114
162 166 114
162 166 114
162 166 114
162 166 114
162 166 114
162 166 114
163 166 114
163 166 114
163 166 114
163 166 114
163 166 114
164 166 114
164 167 114
164 167 114
165 167 114
165 167 114
165 167 114
166 167 114
166 167 114
166 168 114
167 168 114
167 168 114
168 168 114
168 168 114
169 169 114
169 169 114
170 169 114
170 169 114
171 170 114
172 170 114
172 170 114
173 171 114
173 171 114
174 171 114
175 171 114
176 172 114
176 172 114
177 172 114
178 173 114
179 173 114
179 174 114
180 174 114
181 174 114
182 175 114
183 175 114
184 176 114
185 176 114
186 177 114
187 177 114
188 178 114
189 178 114
190 179 114
192 179 114
193 180 114
194 181 114
196 181 114
197 182 114
199 183 114
200 184 114
179 169 80
156 153 0
161 165 0
174 197 0
174 198 0
175 198 0
175 198 0
175 198 0
173 197 0
174 197 0
173 196 0
173 197 0
174 197 0
174 198 0
173 197 0
173 197 0
173 197 0
174 197 0
173 197 0
173 197 0
174 198 0
173 197 0
173 197 0
173 197 0
174 198 0
175 198 0
175 198 0
173 197 0
173 197 0
173 197 0
173 196 0
175 198 0
173 197 0
176 199 0
173 197 0
173 196 0
172 196 0
173 196 0
172 196 0
172 196 0
174 197 0
173 197 0
175 198 0
171 195 0
173 197 0
173 196 0
174 197 0
174 196 0
172 196 0
175 198 0
175 198 0
174 197 0
173 197 0
173 197 0
174 197 0
174 197 0
176 198 0
174 198 0
174 197 0
174 197 0
173 197 0
173 197 0
174 197 0
173 197 0
175 198 0
174 198 0
174 198 0
174 198 0
174 197 0
174 197 0
175 198 0
175 198 0
172 195 0
174 197 0
174 197 0
172 196 0
175 198 0
175 198 0
173 196 0
173 197 0
172 196 0
174 197 0
175 198 0
171 195 0
173 197 0
173 197 0
174 198 0
173 197 0
175 198 0
175 198 0
175 198 0
174 197 0
172 196 0
174 198 0
173 196 0
175 198 0
174 197 0
173 197 0
173 197 0
172 196 0
173 195 0
172 196 0
173 197 0
172 196 0
174 198 0
174 197 0
172 196 0
173 196 0
174 197 0
175 198 0
174 197 0
173 197 0
174 197 0
172 195 0
173 197 0
172 195 0
173 196 0
172 195 0
173 196 0
174 197 0
173 197 0
173 197 0
174 197 0
175 198 0
173 197 0
174 196 0
172 196 0
174 198 0
174 197 0
173 196 0
173 196 0
172 195 0
172 195 0
175 198 0
173 196 0
173 197 0
175 198 0
172 196 0
174 198 0
175 198 0
173 196 0
174 197 0
173 197 0
174 197 0
175 198 0
174 197 0
173 197 0
171 195 0
174 197 0
171 195 0
176 199 0
174 198 0
175 197 0
174 197 0
172 195 0
172 195 0
170 194 0
175 198 0
173 196 0
175 198 0
173 197 0
174 196 0
172 196 0
174 197 0
172 195 0
171 195 0
173 196 0
173 196 0
173 196 0
172 195 0
171 194 0
174 197 0
171 194 0
174 197 0
171 195 0
172 195 0
172 195 0
174 197 0
172 195 0
173 197 0
173 196 0
173 196 0
173 197 0
172 196 0
171 195 0
172 194 0
173 196 0
172 196 0
175 198 0
173 197 0
173 197 0
174 197 0
174 197 0
173 195 0
173 195 0
172 196 0
175 197 0
172 196 0
174 198 0
171 194 0
176 198 0
173 195 0
175 197 0
172 195 0
172 196 0
174 196 0
173 196 0
173 197 0
173 196 0
174 197 0
171 195 0
174 196 0
174 197 0
171 195 0
176 198 0
172 195 0
175 198 0
174 197 0
173 196 0
174 198 0
174 196 0
173 195 0
171 195 0
174 198 0
174 198 0
173 196 0
175 198 0
172 195 0
171 195 0
172 195 0
174 197 0
174 197 0
173 197 0
173 196 0
172 196 0
173 196 0
173 196 0
172 196 0
173 196 0
173 197 0
174 196 0
172 195 0
173 197 0
173 196 0
173 196 0
172 195 0
174 196 0
171 196 0
172 195 0
172 195 0
175 198 0
173 197 0
173 196 0
173 197 0
174 196 0
173 196 0
174 197 0
174 197 0
173 196 0
171 195 0
172 194 0
171 195 0
172 194 0
158 162 0
156 153 0
155 153 0
162 157 39
201 184 113
200 183 114
198 183 114
197 182 114
196 181 114
194 181 114
193 180 114
192 180 114
191 179 114
190 179 114
189 178 114
188 178 114
187 177 114
186 177 114
185 176 114
184 176 114
183 175 114
183 175 114
182 175 114
181 174 114
180 174 114
179 174 114
179 173 114
178 173 114
177 173 114
177 172 114
176 172 114
175 172 114
174 171 114
174 171 114
173 171 114
173 170 114
172 170 114
171 170 114
171 170 114
170 169 114
170 169 114
169 169 114
169 169 114
168 169 114
168 168 114
167 168 114
167 168 114
167 168 114
166 168 114
166 167 114
166 167 114
165 167 114
165 167 114
164 167 114
164 167 114
164 167 114
164 166 114
163 166 114
163 166 114
163 166 114
163 166 114
163 166 114
162 166 114
162 166 114
162 166 114
162 166 114
162 166 114
162 166 114
162 166 114
162 165 114
162 165 114
161 165 114
161 165 114
161 165 114
162 165 114
162 165 114
162 165 114
162 166 114
162 166 114
162 166 114
162 166 114
162 166 114
162 166 114
162 166 114
163 166 114
163 166 114
163 166 114
163 166 114
163 166 114
164 166 114
164 167 114
164 167 114
165 167 114
165 167 114
165 167 114
166 167 114
166 167 114
166 168 114
167 168 114
167 168 114
168 168 114
168 168 114
169 169 114
169 169 114
170 169 114
170 169 114
171 170 114
171 170 114
172 170 114
173 170 114
173 171 114
174 171 114
175 171 114
175 172 114
176 172 114
177 172 114
178 173 114
178 173 114
179 173 114
180 174 114
181 174 114
182 175 114
183 175 114
184 176 114
184 176 114
186 176 114
187 177 114
188 177 114
189 178 114
190 178 114
191 179 114
192 180 114
194 180 114
195 181 114
196 182 114
198 182 114
200 183 114
198 182 109
157 154 19
155 153 0
168 184 0
173 196 0
175 198 0
175 197 0
173 197 0
173 195 0
175 197 0
175 198 0
173 197 0
174 197 0
171 195 0
172 196 0
174 198 0
173 196 0
175 197 0
175 197 0
174 196 0
173 197 0
175 198 0
173 196 0
174 196 0
175 198 0
175 197 0
173 196 0
174 197 0
173 197 0
173 197 0
172 196 0
173 197 0
173 197 0
174 197 0
174 197 0
170 194 0
173 197 0
174 197 0
174 197 0
171 195 0
172 195 0
172 197 0
175 198 0
175 198 0
175 198 0
174 198 0
175 198 0
172 196 0
173 197 0
173 197 0
173 196 0
174 197 0
173 197 0
172 196 0
172 196 0
171 195 0
174 197 0
171 196 0
173 197 0
174 198 0
176 198 0
172 196 0
174 197 0
174 196 0
174 198 0
173 196 0
174 197 0
174 197 0
174 197 0
173 196 0
174 198 0
173 197 0
172 196 0
174 198 0
173 197 0
174 198 0
173 196 0
173 196 0
173 196 0
174 196 0
174 197 0
172 196 0
172 195 0
174 197 0
174 197 0
174 197 0
174 198 0
173 196 0
175 198 0
172 196 0
174 196 0
175 198 0
175 198 0
173 197 0
173 196 0
173 197 0
172 195 0
172 196 0
174 197 0
173 197 0
174 197 0
175 198 0
173 197 0
172 196 0
172 195 0
172 196 0
172 196 0
173 196 0
176 198 0
174 197 0
174 197 0
173 196 0
175 198 0
173 196 0
173 196 0
173 196 0
173 197 0
172 195 0
172 195 0
173 196 0
174 198 0
174 197 0
174 197 0
174 197 0
173 196 0
175 198 0
173 196 0
174 196 0
173 197 0
172 195 0
172 195 0
171 195 0
171 195 0
174 197 0
176 199 0
173 197 0
171 195 0
176 199 0
174 197 0
171 195 0
172 195 0
175 198 0
175 198 0
175 198 0
174 197 0
173 195 0
173 196 0
172 196 0
173 197 0
172 196 0
173 196 0
174 197 0
173 197 0
174 198 0
174 197 0
173 197 0
172 195 0
171 195 0
173 197 0
175 197 0
173 196 0
174 198 0
173 196 0
174 197 0
174 198 0
173 197 0
174 197 0
173 197 0
170 194 0
173 197 0
172 196 0
175 198 0
173 197 0
172 196 0
173 196 0
173 196 0
174 198 0
174 197 0
172 196 0
170 194 0
173 197 0
172 197 0
171 195 0
172 195 0
174 197 0
175 198 0
172 196 0
173 196 0
171 194 0
171 195 0
173 196 0
175 198 0
175 198 0
172 195 0
174 198 0
172 196 0
173 195 0
171 195 0
172 195 0
173 196 0
171 194 0
172 196 0
171 195 0
173 196 0
172 196 0
172 195 0
174 197 0
174 197 0
173 196 0
174 196 0
173 196 0
173 196 0
174 197 0
174 197 0
174 197 0
169 193 0
173 196 0
173 196 0
174 197 0
173 196 0
173 196 0
173 197 0
172 195 0
173 196 0
173 195 0
171 195 0
172 196 0
174 196 0
172 195 0
172 194 0
174 197 0
175 197 0
173 196 0
172 195 0
174 197 0
170 194 0
173 196 0
174 197 0
175 198 0
173 196 0
173 197 0
173 196 0
173 196 0
173 196 0
173 196 0
172 196 0
171 194 0
173 196 0
172 194 0
173 196 0
174 197 0
173 196 0
175 198 0
174 197 0
174 197 0
174 197 0
174 196 0
172 196 0
171 193 0
174 196 0
175 198 0
172 196 0
167 183 0
155 153 0
157 154 0
156 153 0
186 173 89
200 184 114
199 183 114
198 182 114
196 182 114
195 181 114
194 180 114
193 180 114
192 179 114
191 179 114
190 178 114
189 178 114
188 177 114
187 177 114
186 177 114
185 176 114
184 176 114
183 175 114
182 175 114
182 175 114
181 174 114
180 174 114
179 174 114
179 173 114
178 173 114
177 172 114
176 172 114
176 172 114
175 172 114
174 171 114
174 171 114
173 171 114
173 170 114
172 170 114
171 170 114
171 170 114
170 169 114
170 169 114
169 169 114
169 169 114
168 169 114
168 168 114
167 168 114
167 168 114
167 168 114
166 168 114
166 167 114
166 167 114
165 167 114
165 167 114
165 167 114
164 167 114
164 167 114
164 166 114
163 166 114
163 166 114
163 166 114
163 166 114
163 166 114
162 166 114
162 166 114
162 166 114
162 166 114
162 166 114
162 166 114
162 166 114
162 166 114
162 165 114
162 165 114
162 165 114
162 165 114
162 165 114
162 165 114
162 166 114
162 166 114
162 166 114
162 166 114
162 166 114
162 166 114
162 166 114
162 166 114
163 166 114
163 166 114
163 166 114
163 166 114
164 166 114
164 166 114
164 167 114
164 167 114
165 167 114
165 167 114
165 167 114
166 167 114
166 167 114
166 168 114
167 168 114
167 168 114
168 168 114
168 168 114
169 169 114
169 169 114
170 169 114
170 169 114
171 170 114
171 170 114
172 170 114
173 170 114
173 171 114
174 171 114
175 171 114
175 172 114
176 172 114
177 172 114
177 173 114
178 173 114
179 173 114
180 174 114
181 174 114
181 175 114
182 175 114
183 175 114
184 176 114
185 176 114
186 177 114
187 177 114
188 178 114
189 178 114
191 179 114
192 179 114
193 180 114
194 181 114
196 181 114
197 182 114
199 183 114
201 184 114
173 165 67
155 153 0
160 162 0
173 195 0
174 197 0
175 198 0
172 195 0
174 197 0
174 197 0
175 197 0
174 198 0
175 198 0
173 197 0
175 198 0
173 197 0
175 197 0
174 198 0
175 198 0
174 197 0
172 196 0
174 197 0
172 196 0
174 197 0
172 196 0
174 197 0
175 198 0
174 198 0
174 197 0
173 197 0
173 197 0
173 197 0
174 198 0
174 198 0
172 195 0
175 198 0
174 198 0
173 197 0
173 197 0
173 197 0
173 197 0
174 197 0
174 197 0
175 198 0
172 196 0
175 198 0
173 196 0
172 195 0
176 198 0
175 198 0
175 198 0
175 198 0
173 197 0
174 198 0
172 196 0
174 198 0
174 198 0
173 197 0
173 197 0
175 198 0
175 198 0
172 196 0
173 197 0
171 196 0
174 198 0
173 197 0
175 197 0
173 196 0
174 197 0
174 197 0
174 197 0
173 196 0
173 196 0
174 198 0
173 196 0
174 197 0
174 197 0
174 198 0
174 197 0
174 197 0
173 196 0
172 196 0
175 198 0
176 199 0
174 198 0
173 197 0
172 195 0
174 197 0
174 197 0
172 195 0
173 196 0
172 196 0
173 197 0
171 195 0
174 197 0
170 194 0
174 197 0
173 197 0
173 196 0
172 196 0
173 196 0
176 198 0
173 197 0
173 196 0
174 198 0
174 197 0
173 196 0
173 197 0
174 197 0
172 196 0
174 197 0
172 195 0
172 196 0
175 197 0
172 195 0
173 196 0
173 197 0
175 198 0
171 194 0
174 198 0
175 198 0
174 197 0
174 198 0
172 196 0
175 198 0
173 196 0
174 197 0
172 196 0
174 198 0
173 197 0
173 197 0
173 197 0
174 197 0
173 196 0
174 197 0
172 195 0
173 196 0
173 197 0
173 197 0
176 198 0
173 197 0
174 197 0
174 197 0
172 196 0
174 198 0
171 194 0
172 196 0
175 197 0
173 197 0
173 196 0
174 197 0
171 195 0
173 197 0
172 195 0
173 197 0
173 196 0
175 197 0
173 196 0
174 197 0
172 196 0
175 197 0
172 196 0
175 198 0
172 195 0
171 194 0
173 196 0
173 196 0
173 196 0
174 197 0
173 196 0
174 197 0
171 194 0
174 198 0
172 195 0
173 196 0
174 197 0
173 196 0
175 198 0
176 198 0
172 196 0
172 195 0
173 195 0
174 196 0
176 199 0
172 195 0
172 196 0
173 196 0
176 198 0
172 195 0
173 196 0
172 195 0
172 195 0
172 196 0
172 195 0
173 197 0
173 196 0
175 197 0
173 197 0
173 197 0
174 198 0
174 197 0
175 198 0
175 198 0
174 197 0
171 195 0
175 197 0
173 196 0
173 195 0
172 196 0
175 198 0
172 196 0
174 197 0
170 194 0
172 195 0
173 196 0
172 195 0
174 196 0
172 196 0
173 196 0
175 198 0
172 196 0
174 197 0
172 194 0
174 197 0
173 196 0
175 198 0
174 196 0
172 196 0
173 196 0
173 194 0
174 197 0
173 195 0
175 198 0
172 195 0
173 196 0
174 197 0
174 198 0
174 196 0
173 196 0
172 195 0
174 198 0
172 195 0
173 197 0
173 197 0
174 197 0
173 196 0
172 194 0
173 197 0
171 194 0
174 197 0
175 198 0
174 197 0
173 196 0
172 194 0
169 193 0
173 196 0
173 196 0
173 196 0
171 195 0
172 195 0
173 196 0
172 195 0
157 157 0
154 151 0
155 153 0
158 155 19
199 182 110
200 183 114
198 183 114
197 182 114
196 181 114
195 181 114
194 180 114
193 180 114
192 179 114
191 179 114
190 178 114
188 178 114
188 177 114
187 177 114
186 177 114
185 176 114
184 176 114
183 175 114
182 175 114
182 175 114
181 174 114
180 174 114
179 173 114
178 173 114
178 173 114
177 172 114
176 172 114
176 172 114
175 172 114
174 171 114
174 171 114
173 171 114
173 170 114
172 170 114
171 170 114
171 170 114
170 169 114
170 169 114
169 169 114
169 169 114
168 169 114
168 168 114
168 168 114
167 168 114
167 168 114
166 168 114
166 167 114
166 167 114
165 167 114
165 167 114
165 167 114
164 167 114
164 167 114
164 166 114
164 166 114
163 166 114
163 166 114
163 166 114
163 166 114
163 166 114
162 166 114
162 166 114
162 166 114
162 166 114
162 166 114
162 166 114
162 166 114
162 166 114
162 166 114
162 166 114
162 166 114
162 166 114
162 166 114
162 166 114
162 166 114
162 166 114
162 166 114
162 166 114
162 166 114
162 166 114
163 166 114
163 166 114
163 166 114
163 166 114
163 166 114
164 166 114
164 166 114
164 167 114
164 167 114
165 167 114
165 167 114
165 167 114
166 167 114
166 167 114
167 168 114
167 168 114
167 168 114
168 168 114
168 168 114
169 169 114
169 169 114
170 169 114
170 169 114
171 170 114
171 170 114
172 170 114
173 170 114
173 171 114
174 171 114
174 171 114
175 172 114
176 172 114
177 172 114
177 173 114
178 173 114
179 173 114
180 174 114
180 174 114
181 174 114
182 175 114
183 175 114
184 176 114
185 176 114
186 177 114
187 177 114
188 178 114
189 178 114
190 179 114
191 179 114
193 180 114
194 180 114
195 181 114
197 182 114
198 183 114
200 183 114
194 179 103
157 154 19
156 153 0
167 180 0
174 197 0
172 196 0
174 197 0
175 198 0
173 196 0
172 196 0
174 197 0
173 197 0
174 197 0
174 197 0
176 198 0
174 197 0
174 197 0
175 198 0
174 197 0
174 197 0
175 197 0
174 198 0
173 197 0
174 197 0
173 197 0
174 197 0
173 197 0
173 197 0
174 197 0
172 196 0
174 197 0
175 198 0
175 198 0
172 196 0
172 196 0
173 197 0
173 196 0
175 198 0
172 195 0
175 198 0
174 197 0
173 196 0
175 198 0
172 195 0
174 197 0
173 197 0
174 197 0
174 198 0
174 197 0
173 197 0
173 197 0
173 197 0
175 198 0
175 198 0
174 197 0
173 197 0
174 197 0
173 197 0
174 198 0
173 197 0
174 197 0
171 195 0
175 198 0
174 198 0
172 196 0
173 196 0
175 198 0
171 195 0
175 197 0
175 198 0
173 197 0
173 197 0
174 197 0
175 198 0
174 198 0
173 197 0
176 198 0
174 197 0
173 197 0
174 197 0
172 195 0
173 197 0
174 198 0
172 196 0
173 197 0
173 195 0
173 197 0
175 198 0
173 196 0
173 196 0
174 197 0
173 196 0
174 197 0
172 196 0
173 196 0
175 198 0
175 198 0
173 196 0
173 197 0
172 196 0
174 197 0
174 197 0
173 197 0
174 197 0
174 198 0
173 197 0
174 197 0
175 197 0
171 194 0
174 197 0
172 195 0
175 198 0
173 196 0
171 195 0
172 195 0
172 195 0
173 197 0
175 198 0
173 196 0
174 197 0
173 197 0
173 195 0
174 197 0
174 197 0
174 198 0
175 198 0
174 198 0
175 197 0
173 197 0
173 197 0
171 195 0
174 197 0
175 198 0
169 192 0
172 196 0
174 197 0
175 198 0
174 197 0
174 197 0
172 196 0
172 195 0
174 197 0
171 196 0
174 197 0
176 198 0
172 196 0
174 197 0
172 196 0
175 197 0
175 197 0
173 195 0
172 197 0
173 196 0
174 197 0
173 197 0
175 198 0
174 196 0
173 197 0
174 197 0
175 198 0
175 198 0
172 195 0
174 197 0
174 197 0
173 196 0
174 197 0
173 197 0
174 198 0
171 195 0
173 197 0
172 194 0
171 195 0
174 197 0
171 195 0
173 196 0
173 197 0
172 196 0
172 195 0
173 196 0
173 196 0
174 198 0
174 196 0
173 197 0
172 196 0
175 197 0
174 198 0
171 194 0
175 198 0
174 197 0
172 195 0
173 196 0
173 197 0
174 197 0
172 196 0
173 196 0
173 197 0
174 197 0
173 196 0
173 196 0
170 194 0
171 195 0
174 196 0
174 197 0
173 196 0
175 198 0
173 196 0
176 198 0
173 196 0
172 196 0
174 195 0
172 196 0
175 197 0
175 197 0
172 196 0
173 196 0
172 196 0
172 195 0
172 196 0
173 197 0
173 196 0
171 196 0
173 196 0
175 197 0
173 197 0
173 196 0
174 197 0
171 195 0
172 196 0
174 197 0
173 196 0
173 196 0
173 196 0
173 195 0
174 196 0
173 197 0
172 196 0
174 196 0
172 194 0
173 197 0
173 196 0
172 195 0
173 196 0
169 193 0
174 197 0
173 195 0
174 197 0
173 196 0
173 195 0
176 198 0
174 197 0
174 197 0
171 194 0
171 195 0
172 196 0
175 197 0
173 196 0
170 193 0
172 195 0
174 197 0
174 197 0
166 180 0
153 151 0
155 152 0
156 153 0
172 164 65
201 184 114
199 183 114
198 182 114
197 182 114
196 181 114
194 181 114
193 180 114
192 180 114
191 179 114
190 179 114
189 178 114
188 178 114
187 177 114
186 177 114
186 176 114
185 176 114
184 176 114
183 175 114
182 175 114
181 174 114
181 174 114
180 174 114
179 173 114
178 173 114
178 173 114
177 172 114
176 172 114
176 172 114
175 172 114
174 171 114
174 171 114
173 171 114
173 170 114
172 170 114
172 170 114
171 170 114
170 169 114
170 169 114
169 169 114
169 169 114
169 169 114
168 168 114
168 168 114
167 168 114
167 168 114
166 168 114
166 167 114
166 167 114
165 167 114
165 167 114
165 167 114
164 167 114
164 167 114
164 167 114
164 166 114
163 166 114
163 166 114
163 166 114
163 166 114
163 166 114
163 166 114
162 166 114
162 166 114
162 166 114
162 166 114
162 166 114
162 166 114
162 166 114
162 166 114
162 166 114
162 166 114
162 166 114
162 166 114
162 166 114
162 166 114
162 166 114
162 166 114
162 166 114
162 166 114
163 166 114
163 166 114
163 166 114
163 166 114
163 166 114
163 166 114
164 166 114
164 167 114
164 167 114
165 167 114
165 167 114
165 167 114
165 167 114
166 167 114
166 168 114
167 168 114
167 168 114
167 168 114
168 168 114
168 168 114
169 169 114
169 169 114
170 169 114
170 169 114
171 170 114
171 170 114
172 170 114
173 170 114
173 171 114
174 171 114
174 171 114
175 172 114
176 172 114
176 172 114
177 173 114
178 173 114
179 173 114
179 174 114
180 174 114
181 174 114
182 175 114
183 175 114
184 176 114
185 176 114
186 176 114
187 177 114
188 177 114
189 178 114
190 178 114
191 179 114
192 180 114
193 180 114
195 181 114
196 182 114
198 182 114
199 183 114
201 184 114
170 162 60
157 154 0
158 158 0
171 193 0
174 196 0
175 197 0
173 196 0
174 198 0
174 197 0
172 196 0
175 198 0
173 196 0
174 197 0
173 196 0
174 197 0
173 196 0
174 198 0
175 198 0
175 198 0
175 198 0
173 197 0
175 198 0
173 197 0
172 196 0
173 197 0
175 197 0
174 197 0
173 197 0
176 199 0
174 198 0
175 198 0
172 197 0
175 198 0
174 197 0
174 197 0
173 196 0
172 196 0
175 198 0
170 193 0
176 199 0
174 198 0
171 196 0
176 198 0
174 197 0
174 197 0
172 196 0
176 198 0
173 197 0
174 197 0
174 197 0
174 197 0
174 196 0
172 196 0
173 197 0
173 197 0
172 196 0
172 196 0
175 198 0
172 196 0
173 197 0
171 195 0
174 197 0
173 197 0
174 197 0
173 197 0
173 196 0
174 197 0
174 197 0
174 198 0
171 195 0
172 195 0
170 194 0
172 195 0
171 194 0
175 197 0
175 198 0
173 197 0
174 197 0
174 198 0
174 197 0
173 197 0
173 197 0
174 196 0
174 197 0
173 197 0
172 194 0
175 198 0
172 195 0
173 196 0
173 197 0
174 197 0
173 197 0
174 197 0
172 196 0
174 197 0
174 198 0
174 197 0
173 197 0
174 197 0
175 198 0
175 198 0
174 197 0
174 197 0
173 196 0
174 198 0
173 197 0
174 197 0
174 197 0
174 197 0
171 195 0
173 197 0
174 198 0
174 198 0
174 196 0
173 197 0
174 197 0
173 196 0
173 196 0
173 196 0
173 196 0
174 197 0
172 196 0
171 194 0
171 195 0
174 197 0
173 197 0
174 197 0
172 196 0
174 197 0
174 198 0
172 196 0
172 195 0
171 195 0
174 197 0
175 198 0
175 197 0
173 196 0
173 195 0
172 196 0
174 197 0
173 197 0
173 195 0
174 197 0
172 197 0
173 196 0
174 197 0
169 193 0
173 196 0
174 198 0
174 197 0
174 197 0
172 196 0
170 194 0
173 196 0
173 195 0
172 196 0
173 195 0
172 196 0
175 198 0
175 198 0
173 196 0
175 198 0
173 197 0
172 196 0
174 197 0
173 197 0
174 197 0
172 195 0
173 197 0
172 195 0
173 196 0
174 197 0
173 196 0
174 197 0
172 195 0
173 197 0
173 197 0
174 197 0
175 197 0
172 194 0
171 195 0
174 197 0
173 195 0
173 196 0
174 196 0
174 197 0
172 195 0
174 197 0
173 196 0
175 198 0
173 196 0
171 195 0
171 194 0
172 196 0
173 197 0
173 196 0
175 197 0
175 198 0
172 194 0
173 196 0
173 196 0
174 197 0
173 196 0
173 196 0
172 195 0
173 196 0
172 195 0
173 197 0
171 194 0
173 196 0
174 197 0
173 195 0
172 196 0
175 198 0
172 196 0
169 192 0
173 196 0
174 196 0
175 198 0
171 194 0
173 196 0
175 197 0
173 196 0
174 198 0
172 195 0
173 197 0
174 197 0
171 195 0
172 195 0
173 196 0
175 198 0
175 197 0
173 196 0
175 198 0
172 196 0
174 197 0
172 196 0
172 195 0
172 195 0
173 197 0
173 196 0
174 197 0
173 197 0
175 198 0
172 196 0
174 197 0
175 197 0
171 194 0
173 196 0
172 196 0
173 197 0
174 197 0
171 195 0
171 194 0
170 194 0
173 196 0
171 194 0
174 197 0
171 190 0
157 157 0
156 153 0
155 153 0
155 153 0
191 177 99
200 184 114
199 183 114
198 182 114
196 182 114
195 181 114
194 181 114
193 180 114
192 180 114
191 179 114
190 179 114
189 178 114
188 178 114
187 177 114
186 177 114
185 176 114
185 176 114
184 176 114
183 175 114
182 175 114
181 174 114
181 174 114
180 174 114
179 173 114
178 173 114
178 173 114
177 172 114
176 172 114
176 172 114
175 172 114
174 171 114
174 171 114
173 171 114
173 170 114
172 170 114
172 170 114
171 170 114
171 169 114
170 169 114
170 169 114
169 169 114
169 169 114
168 168 114
168 168 114
167 168 114
167 168 114
167 168 114
166 168 114
166 167 114
166 167 114
165 167 114
165 167 114
165 167 114
164 167 114
164 167 114
164 166 114
164 166 114
163 166 114
163 166 114
163 166 114
163 166 114
163 166 114
163 166 114
162 166 114
162 166 114
162 166 114
162 166 114
162 166 114
162 166 114
162 166 114
162 166 114
162 166 114
162 166 114
162 166 114
162 166 114
162 166 114
162 166 114
162 166 114
162 166 114
163 166 114
163 166 114
163 166 114
163 166 114
163 166 114
163 166 114
164 166 114
164 166 114
164 167 114
164 167 114
165 167 114
165 167 114
165 167 114
166 167 114
166 167 114
166 168 114
167 168 114
167 168 114
167 168 114
168 168 114
168 168 114
169 169 114
169 169 114
170 169 114
170 169 114
171 170 114
171 170 114
172 170 114
173 170 114
173 171 114
174 171 114
174 171 114
175 172 114
176 172 114
176 172 114
177 172 114
178 173 114
179 173 114
179 174 114
180 174 114
181 174 114
182 175 114
183 175 114
184 175 114
185 176 114
185 176 114
186 177 114
187 177 114
188 178 114
189 178 114
191 179 114
192 179 114
193 180 114
194 181 114
196 181 114
197 182 114
199 183 114
200 183 114
191 177 99
156 153 0
157 154 0
167 181 0
173 196 0
175 197 0
174 197 0
173 197 0
173 196 0
174 197 0
175 198 0
174 198 0
175 198 0
175 198 0
173 197 0
174 198 0
175 197 0
174 197 0
175 198 0
174 197 0
175 198 0
175 198 0
173 196 0
174 197 0
174 198 0
175 198 0
173 197 0
175 198 0
174 197 0
173 196 0
175 198 0
173 197 0
175 198 0
174 198 0
172 196 0
173 196 0
172 196 0
172 196 0
173 197 0
171 195 0
173 196 0
174 197 0
174 198 0
175 198 0
175 198 0
175 198 0
173 197 0
174 198 0
173 196 0
173 197 0
175 198 0
173 196 0
175 198 0
172 195 0
173 197 0
175 198 0
175 198 0
174 196 0
174 197 0
175 198 0
174 197 0
173 197 0
177 199 0
171 195 0
174 197 0
173 196 0
173 196 0
172 196 0
176 199 0
173 197 0
173 197 0
174 198 0
176 198 0
170 195 0
173 197 0
174 197 0
176 198 0
174 198 0
174 196 0
172 195 0
172 195 0
176 198 0
172 196 0
173 197 0
172 196 0
175 198 0
173 196 0
172 195 0
172 195 0
171 195 0
172 196 0
174 197 0
174 197 0
174 197 0
171 195 0
173 196 0
174 197 0
175 198 0
171 195 0
172 196 0
174 198 0
172 195 0
173 196 0
173 196 0
172 195 0
172 195 0
173 197 0
172 197 0
172 195 0
173 197 0
171 195 0
173 195 0
172 195 0
175 198 0
174 197 0
173 196 0
173 197 0
173 196 0
174 198 0
171 194 0
174 197 0
174 197 0
176 198 0
173 196 0
174 197 0
173 196 0
174 197 0
173 196 0
172 196 0
175 198 0
174 197 0
171 196 0
172 195 0
172 194 0
172 195 0
171 194 0
174 197 0
173 197 0
173 196 0
175 198 0
173 197 0
173 196 0
174 197 0
173 196 0
170 194 0
171 195 0
175 198 0
173 196 0
173 197 0
174 197 0
173 197 0
174 197 0
174 196 0
172 196 0
175 197 0
172 196 0
174 197 0
173 195 0
173 195 0
173 196 0
171 194 0
172 196 0
171 195 0
174 196 0
174 197 0
174 197 0
173 195 0
173 196 0
172 195 0
173 197 0
172 194 0
174 197 0
174 196 0
174 197 0
173 196 0
172 196 0
173 196 0
173 195 0
171 194 0
172 195 0
170 193 0
174 197 0
175 197 0
173 196 0
172 196 0
172 196 0
172 196 0
171 195 0
172 195 0
171 194 0
174 198 0
173 196 0
173 196 0
173 196 0
172 195 0
172 196 0
173 197 0
173 197 0
173 197 0
174 197 0
170 193 0
174 197 0
174 198 0
174 196 0
173 197 0
174 196 0
175 198 0
174 197 0
171 194 0
173 195 0
173 196 0
174 197 0
174 197 0
172 196 0
172 196 0
172 195 0
173 197 0
174 196 0
173 197 0
174 196 0
172 195 0
174 197 0
173 196 0
172 194 0
173 196 0
172 196 0
173 196 0
172 195 0
171 194 0
173 195 0
173 197 0
171 194 0
173 196 0
171 194 0
172 194 0
171 194 0
172 195 0
174 197 0
173 196 0
170 194 0
174 197 0
173 196 0
172 195 0
173 195 0
170 193 0
174 197 0
174 197 0
175 197 0
173 197 0
175 197 0
175 198 0
172 195 0
171 194 0
170 194 0
175 197 0
172 195 0
172 195 0
171 194 0
165 179 0
156 153 0
156 153 0
156 153 0
159 156 36
201 184 113
200 183 114
198 183 114
197 182 114
196 181 114
195 181 114
194 180 114
193 180 114
192 179 114
191 179 114
190 178 114
189 178 114
188 178 114
187 177 114
186 177 114
185 176 114
185 176 114
184 176 114
183 175 114
182 175 114
181 174 114
181 174 114
180 174 114
179 173 114
178 173 114
178 173 114
177 172 114
176 172 114
176 172 114
175 172 114
174 171 114
174 171 114
173 171 114
173 170 114
172 170 114
172 170 114
171 170 114
171 170 114
170 169 114
170 169 114
169 169 114
169 169 114
168 168 114
168 168 114
168 168 114
167 168 114
167 168 114
166 168 114
166 167 114
166 167 114
165 167 114
165 167 114
165 167 114
164 167 114
164 167 114
164 167 114
164 166 114
164 166 114
163 166 114
163 166 114
163 166 114
163 166 114
163 166 114
163 166 114
162 166 114
162 166 114
162 166 114
162 166 114
162 166 114
162 166 114
162 166 114
162 166 114
162 166 114
162 166 114
162 166 114
162 166 114
162 166 114
162 166 114
163 166 114
163 166 114
163 166 114
163 166 114
163 166 114
163 166 114
164 166 114
164 166 114
164 167 114
164 167 114
164 167 114
165 167 114
165 167 114
165 167 114
166 167 114
166 167 114
166 168 114
167 168 114
167 168 114
168 168 114
168 168 114
168 169 114
169 169 114
169 169 114
170 169 114
170 169 114
171 170 114
171 170 114
172 170 114
173 170 114
173 171 114
174 171 114
174 171 114
175 172 114
176 172 114
176 172 114
177 172 114
178 173 114
179 173 114
179 173 114
180 174 114
181 174 114
182 175 114
183 175 114
183 175 114
184 176 114
185 176 114
186 177 114
187 177 114
188 178 114
189 178 114
190 179 114
191 179 114
193 180 114
194 180 114
195 181 114
197 182 114
198 182 114
200 183 114
201 184 113
165 159 44
157 154 0
157 158 0
174 198 0
173 197 0
172 195 0
174 197 0
173 197 0
174 197 0
173 196 0
174 197 0
174 198 0
175 198 0
173 196 0
174 197 0
175 197 0
174 197 0
174 197 0
173 197 0
174 198 0
175 198 0
175 198 0
175 198 0
175 198 0
174 197 0
173 196 0
174 197 0
174 198 0
173 197 0
174 198 0
173 197 0
173 197 0
175 198 0
174 198 0
172 197 0
173 197 0
171 195 0
174 197 0
175 198 0
175 198 0
172 196 0
173 197 0
172 196 0
175 198 0
173 197 0
174 197 0
173 197 0
173 196 0
174 197 0
173 197 0
172 197 0
174 197 0
175 198 0
172 196 0
174 196 0
174 197 0
172 196 0
174 198 0
173 196 0
171 195 0
174 197 0
176 198 0
173 197 0
174 198 0
174 198 0
175 198 0
173 197 0
175 198 0
176 199 0
174 197 0
174 197 0
172 196 0
174 197 0
174 197 0
174 197 0
173 196 0
174 197 0
174 197 0
175 198 0
173 197 0
173 197 0
174 197 0
174 198 0
174 196 0
175 198 0
171 194 0
173 196 0
173 197 0
174 197 0
176 198 0
173 196 0
173 197 0
174 196 0
173 197 0
173 196 0
171 195 0
175 197 0
174 197 0
173 197 0
174 198 0
172 196 0
174 198 0
172 196 0
174 198 0
174 198 0
174 197 0
172 196 0
172 196 0
175 198 0
173 197 0
175 198 0
174 197 0
173 196 0
173 196 0
173 196 0
174 197 0
174 197 0
174 197 0
171 194 0
175 198 0
174 198 0
174 197 0
173 197 0
174 197 0
173 197 0
174 197 0
173 197 0
173 197 0
174 198 0
172 195 0
173 197 0
175 198 0
174 197 0
174 197 0
174 197 0
174 196 0
174 196 0
170 195 0
172 196 0
176 198 0
171 194 0
172 195 0
173 196 0
171 195 0
172 195 0
172 195 0
175 196 0
173 196 0
174 197 0
176 199 0
172 195 0
172 195 0
173 197 0
174 197 0
172 195 0
173 196 0
174 198 0
172 195 0
174 197 0
173 196 0
175 198 0
173 196 0
172 196 0
174 197 0
173 197 0
173 196 0
174 197 0
174 197 0
175 197 0
173 197 0
174 197 0
172 196 0
173 196 0
173 197 0
172 196 0
174 197 0
171 194 0
174 196 0
174 196 0
173 197 0
174 196 0
174 196 0
175 197 0
172 196 0
172 195 0
172 195 0
173 197 0
175 197 0
176 198 0
172 196 0
170 194 0
173 197 0
173 197 0
172 195 0
172 195 0
174 197 0
172 196 0
173 196 0
172 196 0
175 198 0
171 195 0
172 195 0
173 196 0
173 196 0
175 198 0
173 196 0
173 196 0
173 197 0
173 196 0
173 197 0
173 196 0
174 196 0
174 197 0
173 195 0
172 195 0
170 194 0
172 195 0
173 197 0
172 195 0
174 197 0
173 195 0
175 197 0
173 197 0
170 193 0
173 196 0
172 195 0
170 194 0
172 195 0
174 197 0
174 196 0
172 195 0
174 196 0
173 196 0
172 195 0
174 197 0
173 197 0
172 195 0
172 195 0
169 192 0
173 197 0
173 196 0
174 196 0
174 196 0
172 196 0
172 196 0
172 194 0
173 195 0
174 197 0
173 197 0
173 196 0
172 196 0
171 192 0
174 197 0
174 196 0
173 196 0
171 194 0
172 194 0
157 157 0
154 152 0
155 153 0
156 153 0
176 167 75
201 184 114
199 183 114
198 183 114
197 182 114
196 181 114
195 181 114
194 180 114
193 180 114
192 179 114
191 179 114
190 178 114
189 178 114
188 178 114
187 177 114
186 177 114
185 176 114
184 176 114
184 176 114
183 175 114
182 175 114
181 174 114
181 174 114
180 174 114
179 173 114
178 173 114
178 173 114
177 172 114
176 172 114
176 172 114
175 172 114
175 171 114
174 171 114
173 171 114
173 171 114
172 170 114
172 170 114
171 170 114
171 170 114
170 169 114
170 169 114
169 169 114
169 169 114
168 169 114
168 168 114
168 168 114
167 168 114
167 168 114
167 168 114
166 168 114
166 167 114
166 167 114
165 167 114
165 167 114
165 167 114
164 167 114
164 167 114
164 167 114
164 166 114
164 166 114
163 166 114
163 166 114
163 166 114
163 166 114
163 166 114
163 166 114
163 166 114
163 166 114
162 166 114
162 166 114
162 166 114
162 166 114
162 166 114
162 166 114
162 166 114
162 166 114
163 166 114
163 166 114
163 166 114
163 166 114
163 166 114
163 166 114
163 166 114
163 166 114
164 166 114
164 166 114
164 167 114
164 167 114
164 167 114
165 167 114
165 167 114
165 167 114
166 167 114
166 167 114
166 168 114
167 168 114
167 168 114
167 168 114
168 168 114
168 168 114
169 169 114
169 169 114
169 169 114
170 169 114
170 169 114
171 170 114
171 170 114
172 170 114
173 170 114
173 171 114
174 171 114
174 171 114
175 172 114
176 172 114
176 172 114
177 172 114
178 173 114
178 173 114
179 173 114
180 174 114
181 174 114
182 175 114
182 175 114
183 175 114
184 176 114
185 176 114
186 177 114
187 177 114
188 178 114
189 178 114
190 179 114
191 179 114
192 180 114
194 180 114
195 181 114
196 181 114
197 182 114
199 183 114
201 184 114
178 168 77
154 152 0
156 153 0
166 180 0
175 198 0
174 197 0
175 198 0
175 198 0
175 197 0
176 197 0
174 198 0
175 198 0
175 198 0
173 196 0
174 197 0
174 197 0
174 197 0
174 197 0
173 196 0
175 198 0
174 197 0
174 197 0
176 199 0
176 198 0
175 198 0
173 196 0
173 197 0
173 197 0
175 198 0
175 198 0
174 197 0
173 197 0
173 196 0
174 197 0
174 197 0
174 197 0
174 197 0
172 195 0
175 197 0
174 198 0
173 197 0
175 198 0
173 197 0
174 197 0
175 198 0
174 197 0
174 197 0
172 196 0
173 196 0
175 198 0
174 197 0
175 198 0
175 198 0
174 197 0
174 198 0
173 197 0
173 196 0
174 197 0
174 197 0
172 195 0
176 199 0
173 197 0
173 196 0
174 197 0
174 197 0
173 197 0
173 197 0
172 196 0
175 198 0
172 196 0
173 197 0
173 197 0
174 197 0
173 197 0
175 198 0
172 196 0
172 195 0
174 197 0
175 198 0
175 197 0
175 198 0
174 197 0
175 198 0
175 198 0
170 195 0
170 194 0
174 197 0
174 197 0
174 197 0
175 198 0
172 196 0
173 197 0
174 197 0
174 197 0
174 197 0
174 196 0
173 197 0
172 196 0
175 198 0
173 197 0
174 198 0
173 196 0
175 198 0
173 197 0
171 195 0
174 197 0
174 197 0
173 197 0
172 195 0
173 196 0
174 197 0
175 198 0
173 197 0
174 196 0
174 197 0
175 198 0
174 197 0
173 197 0
172 195 0
173 197 0
173 196 0
174 196 0
172 195 0
172 195 0
173 196 0
175 198 0
173 197 0
172 195 0
173 195 0
171 194 0
172 194 0
172 195 0
173 195 0
174 197 0
171 195 0
173 196 0
173 196 0
175 197 0
173 197 0
173 196 0
173 196 0
174 197 0
172 195 0
174 197 0
176 198 0
173 196 0
173 196 0
173 196 0
173 196 0
174 197 0
173 195 0
173 196 0
173 197 0
173 196 0
173 196 0
172 195 0
174 198 0
174 196 0
172 196 0
172 195 0
173 196 0
175 198 0
172 195 0
173 196 0
172 195 0
171 194 0
174 197 0
171 195 0
172 196 0
169 192 0
173 196 0
174 198 0
172 195 0
174 197 0
170 194 0
173 196 0
173 197 0
174 198 0
171 195 0
173 196 0
174 197 0
173 196 0
175 198 0
173 197 0
173 197 0
174 197 0
174 197 0
173 196 0
171 193 0
174 197 0
172 195 0
172 195 0
173 196 0
172 196 0
172 195 0
172 194 0
173 196 0
174 197 0
171 195 0
174 197 0
173 196 0
172 195 0
172 196 0
173 197 0
173 196 0
171 194 0
172 196 0
172 195 0
174 197 0
174 197 0
172 195 0
172 195 0
172 195 0
172 195 0
173 196 0
174 197 0
173 195 0
173 196 0
173 196 0
171 195 0
173 197 0
172 195 0
174 197 0
173 196 0
171 195 0
172 195 0
175 198 0
173 197 0
173 196 0
173 196 0
172 196 0
172 196 0
173 195 0
171 194 0
173 196 0
173 197 0
173 195 0
173 197 0
174 195 0
171 195 0
174 197 0
173 196 0
174 197 0
171 194 0
171 194 0
175 197 0
173 196 0
171 194 0
169 193 0
172 195 0
171 194 0
172 196 0
176 198 0
174 197 0
174 197 0
172 196 0
166 179 0
155 152 0
156 153 0
157 154 0
155 153 0
191 177 99
200 184 114
199 183 114
198 182 114
197 182 114
196 181 114
195 181 114
194 180 114
193 180 114
192 179 114
191 179 114
190 178 114
189 178 114
188 178 114
187 177 114
186 177 114
185 176 114
184 176 114
184 176 114
183 175 114
182 175 114
181 174 114
181 174 114
180 174 114
179 173 114
179 173 114
178 173 114
177 173 114
177 172 114
176 172 114
175 172 114
175 171 114
174 171 114
174 171 114
173 171 114
172 170 114
172 170 114
171 170 114
171 170 114
170 169 114
170 169 114
170 169 114
169 169 114
169 169 114
168 168 114
168 168 114
167 168 114
167 168 114
167 168 114
166 168 114
166 167 114
166 167 114
165 167 114
165 167 114
165 167 114
165 167 114
164 167 114
164 167 114
164 167 114
164 166 114
164 166 114
163 166 114
163 166 114
163 166 114
163 166 114
163 166 114
163 166 114
163 166 114
163 166 114
163 166 114
163 166 114
163 166 114
163 166 114
163 166 114
163 166 114
163 166 114
163 166 114
163 166 114
163 166 114
163 166 114
163 166 114
163 166 114
163 166 114
164 166 114
164 166 114
164 167 114
164 167 114
164 167 114
165 167 114
165 167 114
165 167 114
165 167 114
166 167 114
166 167 114
166 168 114
167 168 114
167 168 114
167 168 114
168 168 114
168 168 114
169 169 114
169 169 114
170 169 114
170 169 114
171 169 114
171 170 114
172 170 114
172 170 114
173 170 114
173 171 114
174 171 114
174 171 114
175 172 114
176 172 114
176 172 114
177 172 114
178 173 114
178 173 114
179 173 114
180 174 114
181 174 114
182 175 114
182 175 114
183 175 114
184 176 114
185 176 114
186 177 114
187 177 114
188 177 114
189 178 114
190 178 114
191 179 114
192 180 114
193 180 114
195 181 114
196 181 114
197 182 114
199 183 114
200 183 114
194 179 103
156 153 0
154 152 0
160 166 0
173 196 0
173 196 0
172 195 0
174 197 0
174 197 0
173 197 0
175 198 0
175 198 0
173 197 0
173 196 0
175 198 0
175 198 0
175 197 0
173 197 0
174 197 0
175 198 0
172 195 0
173 196 0
174 197 0
173 197 0
175 198 0
173 197 0
173 197 0
174 198 0
174 197 0
173 197 0
174 197 0
173 197 0
174 198 0
173 197 0
174 197 0
174 197 0
175 198 0
172 196 0
173 197 0
173 197 0
172 197 0
174 197 0
173 197 0
172 196 0
175 198 0
175 198 0
173 197 0
174 198 0
173 197 0
174 197 0
174 198 0
173 197 0
172 195 0
173 197 0
176 199 0
172 196 0
173 197 0
175 198 0
173 196 0
175 198 0
172 195 0
175 197 0
171 195 0
172 195 0
172 196 0
173 196 0
174 197 0
175 198 0
173 197 0
174 197 0
172 195 0
173 197 0
174 197 0
174 197 0
173 196 0
174 197 0
173 197 0
172 196 0
171 195 0
173 196 0
173 197 0
172 196 0
173 196 0
172 197 0
173 197 0
171 195 0
173 196 0
174 198 0
173 197 0
173 196 0
175 198 0
174 197 0
174 197 0
175 198 0
174 197 0
173 197 0
172 196 0
171 196 0
174 196 0
174 198 0
172 196 0
173 195 0
173 196 0
173 196 0
174 197 0
172 196 0
171 195 0
173 196 0
172 196 0
172 196 0
172 197 0
174 197 0
175 197 0
174 198 0
172 195 0
172 196 0
173 196 0
174 197 0
175 198 0
174 198 0
173 197 0
174 197 0
173 197 0
174 197 0
173 195 0
173 196 0
173 196 0
171 194 0
175 197 0
172 196 0
172 196 0
174 197 0
172 196 0
174 197 0
173 196 0
172 195 0
173 197 0
174 197 0
173 197 0
173 196 0
174 196 0
171 195 0
174 197 0
172 196 0
170 194 0
173 197 0
175 198 0
174 197 0
174 197 0
172 196 0
175 197 0
172 195 0
172 196 0
171 195 0
175 198 0
175 197 0
173 196 0
171 195 0
173 196 0
175 198 0
171 195 0
175 198 0
172 195 0
173 196 0
171 194 0
175 198 0
171 195 0
175 198 0
174 197 0
172 196 0
172 196 0
174 197 0
174 197 0
172 196 0
174 197 0
172 194 0
172 196 0
172 195 0
172 194 0
173 197 0
174 197 0
172 196 0
170 193 0
173 196 0
172 196 0
170 194 0
175 197 0
175 198 0
174 196 0
173 197 0
171 194 0
174 196 0
173 197 0
174 197 0
172 195 0
173 196 0
172 196 0
174 195 0
173 196 0
174 197 0
175 198 0
175 198 0
172 194 0
171 194 0
174 197 0
171 195 0
172 195 0
173 197 0
171 194 0
173 196 0
174 197 0
173 196 0
174 198 0
174 197 0
174 197 0
172 196 0
173 197 0
173 196 0
173 196 0
173 196 0
174 197 0
172 195 0
172 195 0
173 196 0
174 197 0
173 196 0
172 195 0
173 195 0
174 197 0
174 197 0
171 194 0
173 195 0
173 196 0
174 196 0
173 196 0
172 195 0
173 197 0
172 195 0
172 196 0
172 196 0
171 195 0
174 195 0
173 196 0
171 194 0
173 196 0
173 196 0
172 196 0
172 196 0
174 197 0
173 196 0
173 197 0
173 197 0
173 197 0
174 196 0
171 195 0
172 194 0
157 158 0
154 152 0
157 153 0
155 152 0
155 152 11
200 183 113
200 183 114
199 183 114
198 182 114
196 182 114
195 181 114
194 181 114
193 180 114
192 180 114
191 179 114
191 179 114
190 178 114
189 178 114
188 178 114
187 177 114
186 177 114
185 176 114
184 176 114
184 176 114
183 175 114
182 175 114
181 174 114
181 174 114
180 174 114
179 173 114
179 173 114
178 173 114
177 173 114
177 172 114
176 172 114
175 172 114
175 171 114
174 171 114
174 171 114
173 171 114
173 170 114
172 170 114
172 170 114
171 170 114
171 170 114
170 169 114
170 169 114
169 169 114
169 169 114
168 169 114
168 168 114
168 168 114
167 168 114
167 168 114
167 168 114
166 168 114
166 167 114
166 167 114
165 167 114
165 167 114
165 167 114
165 167 114
164 167 114
164 167 114
164 167 114
164 166 114
164 166 114
164 166 114
163 166 114
163 166 114
163 166 114
163 166 114
163 166 114
163 166 114
163 166 114
163 166 114
163 166 114
163 166 114
163 166 114
163 166 114
163 166 114
163 166 114
163 166 114
163 166 114
163 166 114
163 166 114
164 166 114
164 166 114
164 166 114
164 167 114
164 167 114
164 167 114
165 167 114
165 167 114
165 167 114
165 167 114
166 167 114
166 167 114
166 168 114
167 168 114
167 168 114
167 168 114
168 168 114
168 168 114
168 169 114
169 169 114
169 169 114
170 169 114
170 169 114
171 170 114
171 170 114
172 170 114
172 170 114
173 171 114
173 171 114
174 171 114
175 171 114
175 172 114
176 172 114
176 172 114
177 173 114
178 173 114
179 173 114
179 173 114
180 174 114
181 174 114
182 175 114
182 175 114
183 175 114
184 176 114
185 176 114
186 177 114
187 177 114
188 177 114
189 178 114
190 178 114
191 179 114
192 179 114
193 180 114
194 181 114
195 181 114
197 182 114
198 182 114
200 183 114
201 184 114
165 159 49
156 153 0
156 153 0
172 190 0
174 197 0
173 197 0
174 196 0
174 197 0
174 197 0
173 197 0
174 197 0
172 196 0
173 196 0
175 197 0
174 197 0
174 197 0
174 198 0
175 198 0
175 198 0
172 195 0
172 196 0
175 198 0
172 195 0
173 197 0
176 198 0
174 197 0
172 197 0
173 196 0
171 195 0
173 197 0
174 197 0
174 197 0
173 196 0
175 197 0
173 197 0
173 197 0
174 197 0
174 197 0
174 197 0
173 196 0
171 195 0
171 195 0
174 196 0
172 196 0
174 197 0
172 196 0
173 197 0
176 198 0
173 197 0
174 197 0
172 196 0
174 197 0
172 196 0
176 198 0
173 195 0
174 197 0
174 198 0
174 197 0
174 198 0
173 196 0
174 198 0
173 197 0
174 197 0
172 196 0
170 194 0
174 197 0
174 197 0
174 197 0
172 195 0
172 196 0
173 197 0
173 197 0
174 197 0
174 198 0
172 196 0
175 197 0
174 198 0
172 197 0
174 197 0
173 197 0
174 197 0
173 197 0
173 197 0
173 197 0
175 198 0
173 197 0
174 197 0
172 195 0
173 196 0
172 196 0
174 197 0
174 197 0
174 197 0
173 197 0
172 196 0
173 196 0
172 196 0
172 196 0
172 195 0
172 196 0
174 198 0
174 197 0
173 197 0
174 198 0
173 197 0
173 197 0
172 196 0
172 196 0
173 196 0
173 197 0
173 196 0
172 196 0
173 196 0
175 197 0
173 196 0
172 196 0
173 197 0
175 198 0
175 197 0
172 196 0
175 198 0
175 197 0
173 196 0
172 196 0
174 197 0
174 197 0
175 197 0
173 196 0
172 195 0
173 196 0
171 195 0
172 196 0
172 195 0
174 196 0
171 195 0
172 196 0
174 197 0
173 196 0
173 196 0
172 195 0
172 195 0
173 197 0
173 197 0
173 196 0
175 198 0
171 195 0
174 196 0
172 195 0
173 196 0
173 195 0
174 197 0
172 195 0
173 197 0
175 198 0
173 195 0
173 196 0
172 195 0
173 197 0
174 197 0
172 196 0
173 196 0
173 197 0
174 196 0
171 193 0
171 195 0
175 198 0
173 197 0
174 196 0
171 194 0
174 197 0
173 196 0
173 196 0
173 196 0
174 197 0
173 195 0
171 196 0
175 198 0
173 196 0
172 195 0
174 197 0
173 196 0
171 193 0
173 196 0
173 196 0
170 193 0
173 195 0
172 195 0
174 197 0
175 197 0
173 197 0
173 196 0
173 195 0
173 196 0
174 197 0
173 196 0
175 197 0
175 197 0
173 196 0
172 196 0
173 196 0
173 197 0
172 195 0
174 196 0
172 196 0
171 195 0
173 197 0
171 194 0
176 197 0
171 195 0
171 193 0
175 198 0
171 196 0
173 196 0
173 196 0
174 197 0
171 195 0
174 197 0
172 196 0
174 197 0
172 195 0
171 194 0
173 195 0
172 195 0
173 196 0
173 197 0
174 197 0
173 196 0
171 193 0
172 195 0
173 197 0
174 196 0
172 195 0
175 196 0
173 196 0
174 195 0
172 195 0
172 196 0
173 197 0
174 197 0
174 197 0
173 195 0
174 197 0
172 196 0
171 194 0
171 194 0
173 196 0
173 195 0
173 195 0
174 196 0
172 196 0
173 195 0
171 194 0
174 197 0
172 195 0
165 180 0
155 153 0
156 153 0
155 153 0
154 152 0
175 166 71
201 184 114
200 183 114
199 183 114
197 182 114
196 182 114
195 181 114
194 181 114
193 180 114
192 180 114
191 179 114
190 179 114
190 178 114
189 178 114
188 177 114
187 177 114
186 177 114
185 176 114
185 176 114
184 176 114
183 175 114
182 175 114
182 175 114
181 174 114
180 174 114
179 174 114
179 173 114
178 173 114
177 173 114
177 172 114
176 172 114
176 172 114
175 172 114
174 171 114
174 171 114
173 171 114
173 171 114
172 170 114
172 170 114
171 170 114
171 170 114
170 169 114
170 169 114
170 169 114
169 169 114
169 169 114
168 168 114
168 168 114
168 168 114
167 168 114
167 168 114
167 168 114
166 168 114
166 167 114
166 167 114
165 167 114
165 167 114
165 167 114
165 167 114
165 167 114
164 167 114
164 167 114
164 167 114
164 166 114
164 166 114
164 166 114
164 166 114
163 166 114
163 166 114
163 166 114
163 166 114
163 166 114
163 166 114
163 166 114
163 166 114
163 166 114
163 166 114
163 166 114
163 166 114
163 166 114
164 166 114
164 166 114
164 166 114
164 167 114
164 167 114
164 167 114
164 167 114
165 167 114
165 167 114
165 167 114
165 167 114
166 167 114
166 167 114
166 168 114
166 168 114
167 168 114
167 168 114
167 168 114
168 168 114
168 168 114
169 169 114
169 169 114
169 169 114
170 169 114
170 169 114
171 170 114
171 170 114
172 170 114
172 170 114
173 171 114
174 171 114
174 171 114
175 171 114
175 172 114
176 172 114
177 172 114
177 173 114
178 173 114
179 173 114
179 173 114
180 174 114
181 174 114
182 175 114
182 175 114
183 175 114
184 176 114
185 176 114
186 177 114
187 177 114
188 177 114
189 178 114
190 178 114
191 179 114
192 179 114
193 180 114
194 180 114
195 181 114
196 182 114
198 182 114
199 183 114
201 184 114
179 168 77
156 153 0
157 154 0
164 174 0
175 197 0
177 199 0
174 197 0
174 197 0
174 197 0
173 197 0
172 196 0
174 198 0
174 196 0
174 196 0
174 197 0
174 196 0
174 197 0
173 197 0
174 198 0
173 197 0
175 198 0
175 198 0
173 197 0
173 197 0
172 196 0
172 196 0
173 197 0
173 197 0
173 196 0
175 198 0
172 196 0
176 199 0
173 197 0
176 199 0
172 196 0
174 197 0
174 197 0
173 197 0
175 198 0
174 198 0
176 199 0
174 197 0
174 198 0
174 197 0
175 198 0
174 198 0
173 197 0
174 198 0
172 196 0
174 197 0
173 196 0
174 198 0
174 198 0
173 196 0
175 198 0
173 196 0
174 197 0
175 198 0
172 195 0
174 197 0
173 197 0
172 196 0
173 196 0
175 198 0
175 198 0
174 197 0
174 197 0
173 197 0
172 196 0
174 197 0
174 197 0
174 197 0
174 198 0
173 197 0
175 198 0
173 196 0
172 196 0
173 197 0
174 197 0
173 196 0
173 196 0
173 197 0
173 197 0
174 197 0
174 197 0
173 197 0
176 198 0
173 196 0
174 198 0
175 198 0
173 197 0
174 197 0
173 196 0
174 197 0
174 198 0
174 198 0
173 196 0
172 195 0
174 197 0
173 197 0
173 197 0
174 197 0
173 196 0
175 198 0
174 196 0
174 198 0
172 195 0
173 197 0
172 195 0
173 196 0
174 197 0
172 195 0
173 196 0
172 195 0
174 197 0
175 198 0
175 198 0
173 196 0
172 194 0
173 197 0
173 196 0
172 195 0
171 193 0
172 196 0
174 196 0
172 196 0
170 194 0
174 197 0
174 197 0
174 197 0
175 198 0
174 197 0
173 197 0
174 198 0
171 196 0
174 197 0
172 196 0
174 197 0
174 197 0
174 197 0
174 197 0
174 197 0
173 196 0
174 197 0
171 195 0
173 196 0
174 196 0
173 197 0
173 196 0
174 197 0
173 196 0
173 196 0
173 197 0
175 197 0
170 194 0
170 193 0
171 194 0
173 196 0
174 197 0
175 197 0
172 195 0
174 197 0
174 197 0
174 198 0
172 195 0
173 195 0
171 195 0
172 195 0
171 195 0
172 194 0
170 194 0
171 195 0
173 195 0
172 196 0
172 196 0
172 195 0
174 197 0
175 197 0
173 197 0
172 195 0
171 194 0
169 192 0
173 196 0
173 197 0
171 194 0
174 197 0
172 195 0
173 196 0
173 196 0
173 196 0
173 197 0
175 197 0
172 195 0
172 194 0
171 194 0
173 196 0
173 196 0
171 194 0
173 196 0
172 196 0
171 194 0
172 194 0
174 196 0
172 196 0
172 195 0
171 194 0
175 198 0
174 197 0
172 195 0
175 197 0
173 197 0
172 195 0
170 193 0
174 196 0
171 194 0
173 196 0
173 196 0
171 194 0
173 196 0
173 197 0
172 195 0
172 194 0
172 195 0
172 196 0
174 195 0
171 193 0
172 195 0
175 197 0
173 197 0
174 197 0
171 195 0
172 195 0
172 195 0
174 197 0
172 195 0
173 196 0
172 196 0
173 197 0
174 197 0
171 194 0
172 195 0
172 195 0
175 197 0
172 195 0
172 195 0
171 194 0
171 194 0
172 196 0
172 195 0
174 197 0
173 195 0
174 196 0
172 195 0
172 194 0
159 163 0
155 153 0
155 152 0
156 153 0
156 153 0
184 172 88
201 184 114
199 183 114
198 183 114
197 182 114
196 182 114
195 181 114
194 181 114
193 180 114
192 180 114
191 179 114
190 179 114
190 178 114
189 178 114
188 178 114
187 177 114
186 177 114
185 176 114
185 176 114
184 176 114
183 175 114
182 175 114
182 175 114
181 174 114
180 174 114
180 174 114
179 173 114
178 173 114
178 173 114
177 172 114
176 172 114
176 172 114
175 172 114
175 171 114
174 171 114
174 171 114
173 171 114
173 170 114
172 170 114
172 170 114
171 170 114
171 170 114
170 169 114
170 169 114
169 169 114
169 169 114
169 169 114
168 168 114
168 168 114
168 168 114
167 168 114
167 168 114
167 168 114
166 168 114
166 167 114
166 167 114
165 167 114
165 167 114
165 167 114
165 167 114
165 167 114
164 167 114
164 167 114
164 167 114
164 167 114
164 167 114
164 166 114
164 166 114
164 166 114
164 166 114
164 166 114
163 166 114
163 166 114
163 166 114
163 166 114
164 166 114
164 166 114
164 166 114
164 166 114
164 166 114
164 166 114
164 167 114
164 167 114
164 167 114
164 167 114
165 167 114
165 167 114
165 167 114
165 167 114
165 167 114
166 167 114
166 167 114
166 168 114
166 168 114
167 168 114
167 168 114
167 168 114
168 168 114
168 168 114
168 169 114
169 169 114
169 169 114
170 169 114
170 169 114
171 170 114
171 170 114
172 170 114
172 170 114
173 170 114
173 171 114
174 171 114
174 171 114
175 171 114
175 172 114
176 172 114
177 172 114
177 173 114
178 173 114
179 173 114
179 174 114
180 174 114
181 174 114
182 175 114
182 175 114
183 175 114
184 176 114
185 176 114
186 177 114
187 177 114
188 177 114
188 178 114
189 178 114
191 179 114
192 179 114
193 180 114
194 180 114
195 181 114
196 182 114
197 182 114
199 183 114
200 184 114
191 177 99
156 153 0
156 153 0
157 156 0
174 195 0
173 196 0
174 196 0
171 195 0
173 196 0
174 197 0
174 198 0
174 197 0
174 198 0
174 197 0
174 197 0
175 198 0
174 197 0
175 198 0
174 197 0
174 196 0
173 197 0
172 195 0
175 198 0
174 197 0
173 196 0
176 199 0
174 198 0
175 198 0
175 198 0
171 196 0
174 198 0
173 197 0
172 196 0
175 198 0
172 196 0
175 198 0
174 198 0
177 199 0
176 198 0
173 196 0
174 196 0
173 197 0
173 197 0
174 197 0
171 194 0
175 198 0
175 198 0
174 197 0
174 198 0
174 197 0
174 197 0
173 196 0
174 198 0
175 198 0
173 196 0
174 197 0
174 197 0
174 197 0
175 198 0
174 197 0
176 198 0
175 198 0
174 198 0
174 197 0
173 197 0
173 196 0
173 196 0
175 197 0
173 196 0
174 198 0
175 198 0
173 197 0
173 196 0
172 196 0
172 196 0
175 197 0
176 198 0
173 196 0
172 196 0
174 198 0
172 196 0
173 196 0
170 194 0
174 198 0
171 195 0
174 197 0
174 197 0
173 196 0
174 197 0
174 197 0
175 197 0
175 198 0
173 197 0
170 194 0
175 198 0
174 196 0
174 197 0
173 196 0
173 196 0
175 198 0
174 197 0
174 197 0
173 197 0
173 196 0
174 197 0
173 197 0
174 197 0
174 197 0
174 198 0
172 196 0
174 196 0
175 197 0
173 197 0
174 197 0
174 196 0
174 197 0
173 196 0
173 196 0
174 197 0
172 195 0
172 195 0
172 196 0
172 196 0
173 197 0
172 195 0
173 197 0
171 194 0
173 197 0
174 197 0
172 196 0
173 196 0
171 195 0
171 195 0
173 196 0
172 195 0
175 197 0
171 195 0
171 195 0
172 196 0
175 198 0
173 197 0
173 196 0
174 197 0
174 197 0
172 196 0
173 197 0
172 195 0
173 196 0
172 195 0
173 196 0
174 197 0
174 197 0
175 197 0
175 198 0
172 195 0
174 197 0
172 195 0
173 195 0
172 196 0
171 193 0
173 196 0
173 196 0
173 196 0
174 196 0
173 195 0
171 194 0
173 195 0
173 196 0
173 196 0
171 195 0
171 195 0
172 194 0
173 196 0
172 196 0
173 195 0
172 195 0
171 195 0
174 197 0
173 196 0
173 197 0
171 195 0
173 196 0
172 195 0
174 196 0
173 196 0
174 197 0
175 198 0
171 195 0
174 196 0
170 193 0
172 196 0
172 194 0
173 196 0
173 196 0
174 197 0
172 197 0
172 196 0
173 196 0
173 196 0
174 197 0
173 196 0
174 196 0
170 193 0
171 194 0
172 194 0
172 194 0
171 195 0
173 196 0
170 194 0
175 198 0
174 197 0
171 194 0
173 195 0
173 196 0
172 196 0
173 196 0
172 194 0
173 197 0
173 196 0
172 194 0
172 196 0
175 197 0
171 194 0
173 197 0
172 194 0
173 196 0
172 194 0
174 197 0
172 196 0
171 195 0
172 195 0
173 195 0
173 195 0
173 195 0
173 195 0
172 196 0
172 195 0
171 194 0
174 197 0
174 197 0
173 196 0
173 196 0
172 194 0
172 195 0
175 198 0
173 196 0
172 195 0
171 194 0
171 194 0
172 195 0
175 198 0
171 194 0
171 193 0
170 191 0
155 152 0
156 153 0
156 153 0
156 153 0
157 153 0
185 173 89
200 184 114
199 183 114
198 183 114
197 182 114
196 182 114
195 181 114
194 181 114
193 180 114
192 180 114
191 179 114
190 179 114
190 178 114
189 178 114
188 178 114
187 177 114
186 177 114
185 176 114
185 176 114
184 176 114
183 175 114
182 175 114
182 175 114
181 174 114
180 174 114
180 174 114
179 173 114
178 173 114
178 173 114
177 173 114
177 172 114
176 172 114
175 172 114
175 171 114
174 171 114
174 171 114
173 171 114
173 171 114
172 170 114
172 170 114
171 170 114
171 170 114
170 169 114
170 169 114
170 169 114
169 169 114
169 169 114
168 169 114
168 168 114
168 168 114
167 168 114
167 168 114
167 168 114
167 168 114
166 168 114
166 167 114
166 167 114
166 167 114
165 167 114
165 167 114
165 167 114
165 167 114
165 167 114
165 167 114
164 167 114
164 167 114
164 167 114
164 167 114
164 167 114
164 167 114
164 166 114
164 166 114
164 166 114
164 166 114
164 166 114
164 166 114
164 166 114
164 167 114
164 167 114
164 167 114
164 167 114
164 167 114
164 167 114
165 167 114
165 167 114
165 167 114
165 167 114
165 167 114
165 167 114
166 167 114
166 167 114
166 168 114
166 168 114
167 168 114
167 168 114
167 168 114
168 168 114
168 168 114
168 169 114
169 169 114
169 169 114
170 169 114
170 169 114
170 169 114
171 170 114
171 170 114
172 170 114
172 170 114
173 171 114
173 171 114
174 171 114
174 171 114
175 172 114
176 172 114
176 172 114
177 172 114
177 173 114
178 173 114
179 173 114
179 174 114
180 174 114
181 174 114
182 175 114
182 175 114
183 175 114
184 176 114
185 176 114
186 177 114
187 177 114
187 177 114
188 178 114
189 178 114
190 179 114
191 179 114
192 180 114
194 180 114
195 181 114
196 181 114
197 182 114
198 183 114
200 183 114
200 183 112
158 155 25
153 152 0
156 153 0
168 181 0
173 196 0
174 197 0
173 197 0
174 197 0
174 197 0
176 199 0
174 197 0
174 197 0
172 195 0
173 197 0
174 197 0
175 198 0
173 197 0
175 198 0
173 196 0
175 198 0
174 197 0
174 198 0
174 197 0
173 197 0
172 196 0
174 197 0
175 198 0
174 197 0
173 197 0
176 198 0
174 197 0
174 197 0
173 197 0
173 197 0
174 197 0
173 197 0
173 197 0
173 196 0
173 196 0
174 198 0
174 198 0
176 198 0
172 195 0
174 197 0
173 197 0
174 197 0
173 197 0
173 196 0
173 196 0
174 198 0
174 198 0
175 198 0
174 197 0
172 196 0
172 196 0
173 196 0
174 197 0
173 197 0
172 196 0
172 196 0
173 197 0
173 196 0
171 195 0
173 197 0
174 197 0
173 196 0
173 197 0
173 197 0
174 197 0
174 198 0
174 197 0
172 195 0
175 198 0
175 198 0
174 197 0
172 196 0
174 197 0
174 197 0
174 196 0
173 197 0
173 197 0
173 195 0
174 197 0
175 198 0
174 198 0
172 196 0
173 196 0
174 197 0
171 194 0
174 198 0
173 196 0
173 197 0
174 197 0
173 197 0
174 197 0
175 198 0
174 197 0
172 196 0
174 197 0
173 197 0
173 197 0
173 197 0
172 196 0
172 196 0
173 197 0
173 196 0
174 197 0
174 198 0
173 196 0
174 197 0
172 196 0
174 197 0
173 196 0
174 197 0
172 196 0
175 198 0
171 195 0
175 198 0
171 195 0
173 196 0
173 196 0
172 196 0
176 198 0
174 197 0
171 195 0
173 195 0
173 196 0
172 195 0
172 196 0
173 197 0
175 198 0
175 198 0
174 197 0
173 196 0
173 197 0
175 198 0
172 195 0
174 196 0
174 197 0
170 194 0
175 198 0
169 193 0
172 195 0
175 198 0
173 196 0
175 197 0
171 194 0
172 196 0
173 197 0
171 194 0
174 197 0
173 196 0
175 198 0
172 196 0
171 194 0
175 198 0
175 198 0
172 195 0
169 193 0
172 195 0
173 196 0
173 196 0
171 195 0
174 197 0
175 197 0
174 197 0
172 195 0
174 195 0
173 196 0
173 196 0
173 197 0
171 193 0
170 193 0
173 196 0
173 195 0
171 194 0
173 196 0
174 197 0
172 195 0
173 197 0
175 198 0
172 195 0
173 196 0
173 196 0
173 195 0
171 193 0
173 196 0
172 196 0
172 195 0
174 197 0
173 196 0
174 197 0
171 195 0
175 198 0
174 197 0
176 197 0
172 195 0
175 197 0
170 193 0
173 196 0
173 196 0
173 196 0
173 195 0
171 195 18
161 186 62
154 178 82
151 175 94
131 156 125
129 155 126
128 154 130
130 155 126
118 144 137
113 140 145
108 135 148
112 139 145
117 144 142
114 140 143
109 135 146
121 148 134
131 156 125
132 157 124
142 168 108
136 161 114
159 182 72
163 186 62
172 195 31
171 193 0
174 197 0
172 194 0
170 192 0
170 193 0
175 198 0
175 197 0
173 195 0
173 196 0
172 195 0
173 195 0
172 195 0
173 195 0
171 195 0
171 194 0
173 195 0
171 194 0
172 196 0
173 195 0
171 194 0
172 195 0
175 197 0
175 197 0
172 194 0
173 196 0
172 195 0
163 172 0
154 152 0
154 152 0
155 152 0
155 153 0
155 153 0
196 181 106
200 184 114
199 183 114
198 182 114
197 182 114
196 181 114
195 181 114
194 181 114
193 180 114
192 180 114
191 179 114
190 179 114
190 178 114
189 178 114
188 178 114
187 177 114
186 177 114
186 176 114
185 176 114
184 176 114
183 175 114
183 175 114
182 175 114
181 174 114
181 174 114
180 174 114
179 173 114
179 173 114
178 173 114
177 173 114
177 172 114
176 172 114
176 172 114
175 172 114
175 171 114
174 171 114
174 171 114
173 171 114
173 170 114
172 170 114
172 170 114
171 170 114
171 170 114
170 169 114
170 169 114
170 169 114
169 169 114
169 169 114
168 169 114
168 168 114
168 168 114
168 168 114
167 168 114
167 168 114
167 168 114
166 168 114
166 168 114
166 167 114
166 167 114
166 167 114
165 167 114
165 167 114
165 167 114
165 167 114
165 167 114
165 167 114
165 167 114
164 167 114
164 167 114
164 167 114
164 167 114
164 167 114
164 167 114
164 167 114
164 167 114
164 167 114
164 167 114
164 167 114
164 167 114
164 167 114
165 167 114
165 167 114
165 167 114
165 167 114
165 167 114
165 167 114
165 167 114
166 167 114
166 167 114
166 167 114
166 168 114
166 168 114
167 168 114
167 168 114
167 168 114
168 168 114
168 168 114
168 168 114
169 169 114
169 169 114
169 169 114
170 169 114
170 169 114
171 170 114
171 170 114
172 170 114
172 170 114
172 170 114
173 171 114
174 171 114
174 171 114
175 171 114
175 172 114
176 172 114
176 172 114
177 172 114
178 173 114
178 173 114
179 173 114
180 174 114
180 174 114
181 174 114
182 175 114
183 175 114
183 175 114
184 176 114
185 176 114
186 177 114
187 177 114
187 177 114
188 178 114
189 178 114
190 179 114
191 179 114
192 180 114
193 180 114
195 181 114
196 181 114
197 182 114
198 183 114
200 183 114
201 184 114
170 162 59
156 153 0
155 153 0
161 166 0
175 197 0
173 196 0
173 195 0
173 197 0
174 197 0
173 196 0
174 197 0
174 197 0
174 197 0
173 196 0
175 198 0
173 197 0
174 197 0
174 197 0
175 198 0
175 198 0
174 197 0
173 197 0
170 194 0
173 196 0
172 195 0
175 198 0
175 198 0
175 198 0
173 196 0
170 193 0
174 198 0
173 196 0
174 197 0
172 196 0
173 197 0
173 196 0
173 197 0
176 198 0
174 197 0
173 196 0
174 197 0
173 197 0
174 197 0
175 198 0
174 198 0
176 199 0
172 196 0
173 197 0
173 197 0
173 197 0
175 198 0
173 196 0
174 197 0
174 198 0
174 197 0
174 198 0
172 196 0
175 197 0
172 196 0
174 197 0
174 197 0
173 197 0
172 196 0
171 195 0
174 198 0
172 196 0
173 196 0
174 197 0
174 198 0
171 195 0
175 198 0
173 197 0
173 196 0
174 197 0
174 197 0
173 197 0
174 197 0
173 196 0
172 195 0
174 197 0
173 196 0
173 196 0
175 198 0
174 197 0
174 197 0
174 197 0
173 196 0
172 195 0
172 196 0
172 196 0
174 197 0
176 199 0
174 197 0
174 197 0
172 196 0
172 196 0
173 197 0
173 196 0
173 197 0
172 195 0
173 197 0
175 197 0
173 197 0
175 198 0
175 198 0
174 197 0
173 196 0
174 196 0
172 196 0
171 195 0
171 194 0
173 196 0
171 194 0
172 196 0
176 198 0
174 197 0
173 197 0
174 197 0
172 196 0
172 195 0
172 196 0
172 196 0
172 196 0
172 195 0
173 196 0
173 197 0
174 196 0
171 194 0
174 197 0
173 196 0
171 194 0
170 194 0
173 197 0
172 196 0
173 196 0
170 193 0
172 196 0
173 196 0
174 198 0
175 197 0
171 194 0
173 196 0
173 197 0
173 196 0
174 197 0
173 196 0
173 196 0
173 197 0
173 196 0
172 196 0
174 196 0
172 195 0
173 196 0
173 197 0
173 196 0
172 195 0
170 192 0
173 197 0
173 197 0
173 196 0
173 196 0
173 196 0
175 197 0
173 196 0
171 194 0
172 195 0
175 197 0
172 196 0
173 195 0
173 196 0
171 195 0
174 197 0
171 195 0
174 197 0
173 197 0
173 196 0
173 197 0
171 195 0
172 195 0
174 198 0
172 195 0
175 198 0
170 193 0
173 196 0
173 196 0
174 197 0
174 197 0
173 196 0
172 195 0
173 197 0
172 196 0
172 195 0
174 197 0
172 195 0
172 195 0
173 196 0
172 195 0
167 190 44
152 176 94
129 155 124
121 147 136
98 127 158
88 119 164
66 102 179
61 99 181
62 99 181
62 99 181
61 99 180
63 100 181
61 98 181
61 99 180
61 98 179
62 99 180
61 98 180
62 99 180
61 99 181
62 99 180
61 99 180
61 99 181
62 99 180
61 99 180
62 99 180
61 98 178
62 99 181
61 98 179
64 100 178
90 120 162
106 134 151
123 148 135
135 160 120
152 176 88
169 192 45
173 195 0
172 196 0
174 196 0
173 196 0
173 196 0
173 197 0
173 196 0
172 195 0
173 195 0
173 196 0
172 195 0
171 194 0
175 197 0
173 196 0
175 197 0
171 193 0
171 194 0
172 195 0
172 195 0
173 196 0
156 155 0
155 151 0
156 153 0
156 153 0
156 153 0
159 155 19
200 183 113
200 183 114
199 183 114
198 182 114
197 182 114
196 181 114
195 181 114
194 180 114
193 180 114
192 180 114
191 179 114
190 179 114
190 178 114
189 178 114
188 178 114
187 177 114
186 177 114
186 176 114
185 176 114
184 176 114
183 175 114
183 175 114
182 175 114
181 174 114
181 174 114
180 174 114
179 174 114
179 173 114
178 173 114
178 173 114
177 172 114
176 172 114
176 172 114
175 172 114
175 171 114
174 171 114
174 171 114
173 171 114
173 171 114
172 170 114
172 170 114
172 170 114
171 170 114
171 170 114
170 169 114
170 169 114
170 169 114
169 169 114
169 169 114
168 169 114
168 168 114
168 168 114
168 168 114
167 168 114
167 168 114
167 168 114
167 168 114
166 168 114
166 167 114
166 167 114
166 167 114
166 167 114
165 167 114
165 167 114
165 167 114
165 167 114
165 167 114
165 167 114
165 167 114
165 167 114
165 167 114
165 167 114
165 167 114
165 167 114
165 167 114
165 167 114
165 167 114
165 167 114
165 167 114
165 167 114
165 167 114
165 167 114
165 167 114
165 167 114
165 167 114
166 167 114
166 167 114
166 167 114
166 167 114
166 168 114
167 168 114
167 168 114
167 168 114
167 168 114
168 168 114
168 168 114
168 168 114
169 169 114
169 169 114
169 169 114
170 169 114
170 169 114
170 169 114
171 170 114
171 170 114
172 170 114
172 170 114
173 170 114
173 171 114
174 171 114
174 171 114
175 171 114
175 172 114
176 172 114
177 172 114
177 173 114
178 173 114
178 173 114
179 173 114
180 174 114
180 174 114
181 174 114
182 175 114
183 175 114
183 175 114
184 176 114
185 176 114
186 177 114
187 177 114
188 177 114
188 178 114
189 178 114
190 179 114
191 179 114
192 180 114
193 180 114
194 181 114
196 181 114
197 182 114
198 182 114
199 183 114
201 184 114
178 167 74
155 153 0
156 153 0
157 153 0
170 191 0
175 198 0
172 196 0
173 195 0
174 197 0
174 197 0
174 197 0
173 197 0
175 197 0
173 196 0
173 197 0
173 197 0
175 198 0
174 198 0
173 197 0
171 196 0
174 197 0
173 197 0
175 198 0
174 198 0
174 197 0
174 197 0
172 196 0
174 197 0
173 197 0
172 196 0
174 197 0
173 197 0
174 198 0
174 197 0
173 196 0
173 196 0
174 198 0
173 197 0
175 198 0
174 197 0
173 197 0
173 196 0
172 196 0
172 196 0
173 197 0
172 196 0
174 197 0
173 197 0
173 197 0
174 198 0
172 196 0
172 196 0
171 194 0
174 196 0
174 198 0
174 197 0
174 197 0
172 195 0
175 198 0
172 195 0
174 196 0
175 198 0
173 196 0
172 196 0
174 198 0
174 197 0
173 197 0
174 198 0
172 195 0
173 197 0
173 196 0
174 197 0
174 198 0
176 198 0
173 196 0
173 197 0
174 197 0
174 197 0
174 197 0
174 197 0
173 196 0
175 198 0
173 197 0
174 198 0
175 197 0
172 195 0
175 198 0
172 196 0
172 196 0
172 195 0
174 197 0
170 194 0
173 197 0
174 197 0
172 195 0
173 196 0
173 196 0
173 196 0
175 198 0
173 197 0
171 194 0
173 197 0
174 197 0
174 198 0
172 196 0
174 197 0
171 194 0
173 196 0
174 197 0
174 198 0
173 197 0
170 194 0
173 196 0
174 197 0
173 196 0
172 196 0
171 195 0
174 196 0
173 196 0
173 197 0
173 195 0
170 194 0
172 194 0
174 198 0
175 198 0
173 196 0
173 196 0
174 197 0
172 196 0
172 196 0
171 195 0
174 197 0
174 197 0
172 195 0
173 196 0
174 197 0
171 195 0
173 197 0
174 197 0
172 196 0
171 195 0
174 197 0
173 196 0
172 195 0
173 196 0
173 196 0
174 197 0
173 195 0
175 197 0
172 195 0
173 195 0
171 195 0
172 196 0
173 197 0
172 196 0
174 197 0
173 196 0
171 195 0
172 195 0
170 194 0
172 195 0
172 196 0
172 196 0
172 196 0
174 197 0
173 196 0
171 194 0
171 194 0
172 195 0
172 195 0
173 196 0
174 196 0
175 198 0
172 196 0
173 196 0
174 197 0
171 195 0
171 195 0
173 196 0
174 197 0
172 195 0
173 196 0
171 193 0
170 194 0
173 196 0
172 196 0
172 195 0
173 195 0
173 195 0
172 195 0
170 194 0
172 194 0
166 189 44
156 180 84
127 153 130
112 140 147
85 116 166
61 98 178
62 99 180
62 99 181
62 99 179
61 99 180
62 99 180
62 99 181
61 98 179
61 99 181
62 99 180
62 99 181
62 99 180
61 99 181
62 99 181
61 98 181
62 99 181
62 99 180
62 99 181
61 99 180
61 98 181
62 99 180
62 99 180
61 99 181
61 99 181
62 99 179
62 99 179
62 99 181
62 99 180
62 99 180
61 98 179
62 98 178
61 98 179
62 99 181
61 98 178
62 99 181
80 112 170
99 128 155
128 154 126
160 185 72
171 193 25
173 196 0
174 196 0
173 196 0
173 195 0
172 196 0
173 196 0
173 195 0
174 196 0
174 197 0
172 194 0
173 194 0
172 195 0
173 195 0
174 197 0
165 180 0
155 153 0
156 153 0
156 153 0
155 152 0
157 153 0
159 155 32
201 184 114
200 183 114
199 183 114
198 182 114
197 182 114
196 181 114
195 181 114
194 181 114
193 180 114
192 180 114
191 179 114
191 179 114
190 178 114
189 178 114
188 178 114
187 177 114
187 177 114
186 177 114
185 176 114
184 176 114
184 176 114
183 175 114
182 175 114
182 175 114
181 174 114
180 174 114
180 174 114
179 173 114
178 173 114
178 173 114
177 173 114
177 172 114
176 172 114
176 172 114
175 172 114
175 171 114
174 171 114
174 171 114
173 171 114
173 170 114
172 170 114
172 170 114
171 170 114
171 170 114
171 170 114
170 169 114
170 169 114
169 169 114
169 169 114
169 169 114
169 169 114
168 168 114
168 168 114
168 168 114
167 168 114
167 168 114
167 168 114
167 168 114
166 168 114
166 168 114
166 167 114
166 167 114
166 167 114
166 167 114
165 167 114
165 167 114
165 167 114
165 167 114
165 167 114
165 167 114
165 167 114
165 167 114
165 167 114
165 167 114
165 167 114
165 167 114
165 167 114
165 167 114
165 167 114
165 167 114
165 167 114
165 167 114
165 167 114
166 167 114
166 167 114
166 167 114
166 167 114
166 168 114
166 168 114
167 168 114
167 168 114
167 168 114
167 168 114
168 168 114
168 168 114
168 168 114
169 169 114
169 169 114
169 169 114
170 169 114
170 169 114
170 169 114
171 170 114
171 170 114
172 170 114
172 170 114
173 170 114
173 171 114
173 171 114
174 171 114
175 171 114
175 172 114
176 172 114
176 172 114
177 172 114
177 173 114
178 173 114
179 173 114
179 173 114
180 174 114
181 174 114
181 174 114
182 175 114
183 175 114
184 175 114
184 176 114
185 176 114
186 177 114
187 177 114
188 177 114
188 178 114
189 178 114
190 179 114
191 179 114
192 180 114
193 180 114
194 181 114
195 181 114
197 182 114
198 182 114
199 183 114
201 184 114
186 173 89
156 153 0
156 153 0
156 153 0
166 177 0
173 196 0
175 198 0
173 196 0
173 196 0
174 197 0
173 196 0
172 196 0
174 197 0
174 197 0
173 196 0
173 197 0
175 197 0
173 197 0
173 196 0
173 197 0
169 193 0
173 196 0
173 197 0
172 195 0
173 196 0
174 198 0
175 198 0
174 197 0
172 196 0
173 197 0
171 195 0
174 197 0
174 197 0
174 197 0
174 197 0
174 197 0
174 198 0
175 198 0
172 196 0
174 197 0
173 196 0
173 197 0
175 198 0
172 196 0
172 195 0
172 196 0
173 197 0
173 196 0
174 197 0
171 196 0
173 196 0
173 197 0
175 198 0
173 196 0
175 198 0
174 197 0
174 197 0
174 197 0
172 196 0
174 197 0
173 197 0
173 195 0
174 197 0
174 197 0
172 195 0
174 197 0
170 195 0
172 196 0
172 195 0
173 196 0
173 196 0
173 196 0
172 196 0
174 197 0
176 198 0
173 197 0
173 196 0
174 197 0
174 198 0
173 196 0
173 197 0
175 198 0
174 197 0
171 195 0
173 197 0
172 195 0
174 197 0
173 197 0
170 195 0
174 197 0
171 195 0
174 196 0
173 197 0
170 194 0
176 198 0
173 196 0
174 197 0
173 196 0
173 196 0
174 198 0
174 198 0
173 196 0
174 197 0
173 196 0
172 196 0
171 195 0
174 197 0
175 198 0
174 196 0
172 195 0
173 196 0
173 197 0
173 196 0
174 197 0
173 196 0
172 195 0
173 196 0
172 196 0
175 198 0
175 198 0
173 196 0
172 195 0
172 196 0
173 196 0
173 196 0
172 195 0
171 195 0
173 197 0
174 197 0
171 194 0
174 197 0
173 196 0
170 194 0
174 198 0
173 196 0
174 197 0
172 196 0
174 196 0
174 197 0
173 197 0
175 198 0
172 195 0
173 196 0
173 196 0
172 196 0
172 195 0
172 196 0
173 197 0
173 196 0
172 195 0
171 195 0
171 195 0
172 195 0
172 195 0
174 196 0
174 197 0
171 196 0
170 194 0
172 195 0
174 198 0
172 194 0
174 196 0
172 195 0
173 197 0
175 197 0
172 195 0
171 194 0
170 193 0
173 196 0
173 196 0
172 195 0
174 197 0
173 195 0
173 196 0
174 197 0
174 197 0
172 195 0
172 196 0
172 194 0
171 194 0
173 196 0
173 195 0
171 194 0
172 195 0
174 197 0
173 197 0
172 195 0
172 194 0
171 194 25
151 176 88
126 152 130
104 131 153
64 100 179
62 99 181
61 99 179
62 99 180
62 99 180
62 99 181
62 99 181
62 99 181
62 99 181
62 99 181
61 98 180
62 99 181
62 99 181
62 99 181
61 99 181
62 99 181
62 99 181
62 99 181
61 99 181
62 99 181
61 99 180
61 98 181
61 98 181
62 99 181
61 98 181
61 99 181
62 99 181
61 99 180
62 99 180
61 98 181
61 98 180
61 98 181
62 99 180
62 99 181
62 99 181
61 98 181
61 99 181
61 98 178
61 98 178
62 98 179
62 99 179
61 98 179
62 98 177
61 98 179
68 103 176
103 131 151
127 152 127
153 177 89
173 196 25
173 196 0
173 196 0
171 194 0
172 196 0
171 194 0
173 196 0
173 195 0
172 195 0
174 197 0
170 192 0
160 167 0
155 152 0
155 152 0
155 152 0
154 152 0
156 153 0
165 159 49
201 184 114
200 183 114
199 183 114
198 182 114
197 182 114
196 181 114
195 181 114
194 181 114
193 180 114
192 180 114
192 179 114
191 179 114
190 178 114
189 178 114
188 178 114
188 177 114
187 177 114
186 177 114
185 176 114
185 176 114
184 176 114
183 175 114
183 175 114
182 175 114
181 174 114
181 174 114
180 174 114
179 174 114
179 173 114
178 173 114
178 173 114
177 172 114
176 172 114
176 172 114
175 172 114
175 171 114
174 171 114
174 171 114
174 171 114
173 171 114
173 170 114
172 170 114
172 170 114
171 170 114
171 170 114
171 170 114
170 169 114
170 169 114
170 169 114
169 169 114
169 169 114
169 169 114
168 168 114
168 168 114
168 168 114
168 168 114
167 168 114
167 168 114
167 168 114
167 168 114
167 168 114
166 168 114
166 168 114
166 167 114
166 167 114
166 167 114
166 167 114
166 167 114
166 167 114
165 167 114
165 167 114
165 167 114
165 167 114
165 167 114
165 167 114
165 167 114
165 167 114
165 167 114
166 167 114
166 167 114
166 167 114
166 167 114
166 167 114
166 167 114
166 168 114
166 168 114
166 168 114
167 168 114
167 168 114
167 168 114
167 168 114
168 168 114
168 168 114
168 168 114
168 168 114
169 169 114
169 169 114
169 169 114
170 169 114
170 169 114
170 169 114
171 170 114
171 170 114
172 170 114
172 170 114
172 170 114
173 171 114
173 171 114
174 171 114
174 171 114
175 171 114
175 172 114
176 172 114
176 172 114
177 172 114
178 173 114
178 173 114
179 173 114
179 174 114
180 174 114
181 174 114
181 175 114
182 175 114
183 175 114
184 176 114
184 176 114
185 176 114
186 177 114
187 177 114
188 177 114
189 178 114
189 178 114
190 179 114
191 179 114
192 180 114
193 180 114
194 181 114
195 181 114
197 182 114
198 182 114
199 183 114
200 184 114
196 180 106
157 153 0
155 153 0
156 153 0
161 166 0
176 198 0
174 197 0
174 196 0
173 196 0
174 197 0
173 196 0
174 196 0
174 197 0
173 197 0
174 197 0
172 196 0
173 197 0
173 197 0
172 196 0
174 198 0
174 197 0
173 196 0
173 197 0
173 196 0
173 196 0
172 196 0
173 196 0
174 197 0
172 196 0
172 196 0
174 197 0
173 197 0
173 197 0
175 198 0
172 196 0
174 197 0
172 196 0
175 198 0
173 197 0
174 197 0
174 197 0
175 198 0
172 195 0
174 197 0
175 198 0
172 196 0
173 197 0
173 195 0
174 197 0
173 197 0
172 196 0
174 197 0
172 194 0
174 197 0
173 197 0
174 197 0
173 197 0
172 196 0
173 196 0
172 196 0
173 197 0
173 197 0
173 197 0
174 197 0
174 196 0
172 196 0
174 197 0
173 197 0
173 197 0
173 197 0
173 196 0
174 198 0
173 197 0
173 197 0
173 196 0
173 196 0
174 197 0
174 197 0
174 197 0
175 198 0
176 198 0
173 196 0
173 197 0
174 196 0
174 197 0
171 195 0
173 197 0
172 196 0
174 196 0
172 196 0
173 196 0
174 196 0
174 198 0
173 196 0
173 196 0
170 193 0
174 197 0
171 194 0
173 196 0
173 197 0
174 197 0
175 198 0
174 197 0
174 197 0
173 197 0
173 196 0
173 196 0
175 198 0
171 193 0
174 197 0
172 196 0
173 197 0
172 196 0
172 195 0
172 194 0
172 195 0
174 197 0
173 196 0
173 196 0
173 196 0
172 195 0
173 197 0
174 197 0
173 197 0
171 195 0
172 195 0
171 195 0
173 197 0
174 198 0
172 195 0
173 196 0
173 196 0
173 196 0
172 196 0
173 196 0
174 196 0
171 194 0
174 197 0
175 197 0
173 197 0
172 194 0
172 194 0
173 196 0
175 198 0
175 198 0
173 196 0
173 196 0
172 196 0
173 196 0
173 196 0
173 196 0
175 198 0
173 196 0
173 196 0
173 197 0
173 196 0
172 195 0
172 195 0
174 198 0
173 196 0
174 197 0
171 194 0
171 195 0
173 196 0
173 196 0
173 196 0
173 197 0
169 190 0
172 195 0
172 195 0
174 198 0
175 197 0
171 195 0
171 195 0
173 196 0
171 194 0
172 195 0
173 197 0
171 195 0
172 195 0
171 195 0
173 195 0
175 197 0
173 197 0
172 195 0
167 191 47
151 175 92
118 145 141
70 105 176
62 98 174
62 99 179
62 99 180
61 99 180
61 99 181
61 99 181
62 99 181
62 99 180
62 99 181
62 99 181
62 99 181
62 99 180
61 99 181
61 98 181
62 99 181
61 98 181
61 99 180
62 99 181
62 99 181
61 98 181
62 99 181
61 99 181
62 99 181
62 99 181
61 98 180
61 99 181
61 99 181
62 99 181
61 99 181
62 99 181
61 99 181
62 99 181
61 99 181
62 99 181
61 99 181
61 99 181
62 99 180
62 99 181
61 99 181
62 99 179
61 99 181
61 99 180
62 99 180
62 99 181
61 98 178
62 99 181
62 99 179
62 99 181
62 99 180
62 99 178
61 98 178
71 105 173
125 151 129
144 169 99
169 191 31
172 195 0
172 194 0
170 192 0
173 196 0
171 193 0
170 193 0
167 188 0
155 152 0
155 153 0
155 153 0
156 152 0
154 152 0
155 153 0
169 162 61
201 184 114
200 183 114
199 183 114
198 182 114
197 182 114
196 181 114
195 181 114
194 181 114
193 180 114
192 180 114
192 179 114
191 179 114
190 179 114
189 178 114
188 178 114
188 177 114
187 177 114
186 177 114
185 176 114
185 176 114
184 176 114
183 175 114
183 175 114
182 175 114
181 175 114
181 174 114
180 174 114
180 174 114
179 173 114
179 173 114
178 173 114
177 173 114
177 172 114
176 172 114
176 172 114
175 172 114
175 171 114
174 171 114
174 171 114
173 171 114
173 171 114
173 170 114
172 170 114
172 170 114
171 170 114
171 170 114
171 170 114
170 169 114
170 169 114
170 169 114
169 169 114
169 169 114
169 169 114
168 169 114
168 168 114
168 168 114
168 168 114
168 168 114
167 168 114
167 168 114
167 168 114
167 168 114
167 168 114
166 168 114
166 168 114
166 168 114
166 167 114
166 167 114
166 167 114
166 167 114
166 167 114
166 167 114
166 167 114
166 167 114
166 167 114
166 167 114
166 167 114
166 167 114
166 167 114
166 167 114
166 167 114
166 168 114
166 168 114
166 168 114
167 168 114
167 168 114
167 168 114
167 168 114
167 168 114
167 168 114
168 168 114
168 168 114
168 168 114
168 169 114
169 169 114
169 169 114
169 169 114
170 169 114
170 169 114
170 169 114
171 170 114
171 170 114
171 170 114
172 170 114
172 170 114
173 170 114
173 171 114
174 171 114
174 171 114
175 171 114
175 172 114
176 172 114
176 172 114
177 172 114
177 173 114
178 173 114
178 173 114
179 173 114
180 174 114
180 174 114
181 174 114
182 175 114
182 175 114
183 175 114
184 176 114
185 176 114
185 176 114
186 177 114
187 177 114
188 178 114
189 178 114
190 178 114
190 179 114
191 179 114
192 180 114
193 180 114
194 181 114
195 181 114
196 182 114
198 182 114
199 183 114
200 183 114
201 184 113
158 155 22
157 154 0
155 153 0
156 156 0
174 196 0
174 197 0
173 197 0
172 196 0
174 197 0
173 195 0
175 197 0
175 198 0
174 197 0
173 196 0
175 198 0
174 197 0
173 197 0
173 196 0
173 196 0
174 197 0
173 197 0
173 196 0
172 195 0
174 198 0
174 197 0
174 197 0
173 197 0
174 197 0
174 197 0
173 197 0
171 196 0
174 197 0
173 197 0
174 198 0
173 197 0
174 198 0
173 197 0
172 196 0
171 195 0
174 197 0
174 197 0
173 196 0
175 198 0
172 196 0
174 198 0
176 198 0
175 198 0
173 197 0
173 197 0
172 196 0
174 197 0
175 198 0
174 197 0
173 197 0
173 196 0
171 194 0
173 197 0
173 197 0
172 195 0
176 199 0
172 196 0
172 196 0
173 197 0
175 197 0
173 197 0
175 198 0
172 197 0
172 195 0
173 196 0
173 197 0
172 195 0
173 197 0
173 196 0
173 196 0
173 197 0
173 196 0
173 196 0
175 198 0
174 197 0
174 196 0
175 198 0
172 196 0
174 198 0
173 196 0
173 196 0
174 198 0
174 198 0
172 196 0
172 197 0
173 195 0
175 198 0
172 197 0
174 197 0
173 197 0
173 196 0
172 196 0
173 196 0
173 196 0
173 196 0
174 197 0
174 197 0
173 197 0
172 195 0
174 197 0
174 197 0
174 197 0
173 196 0
173 196 0
173 196 0
175 198 0
174 197 0
172 196 0
171 195 0
171 194 0
172 196 0
174 197 0
174 197 0
173 195 0
174 197 0
172 196 0
173 197 0
171 195 0
172 195 0
172 195 0
172 195 0
171 195 0
174 198 0
174 197 0
173 195 0
174 196 0
174 197 0
172 196 0
173 196 0
174 197 0
172 196 0
172 196 0
171 195 0
174 197 0
175 198 0
173 196 0
173 196 0
174 197 0
174 197 0
173 196 0
172 196 0
173 195 0
174 197 0
173 196 0
176 199 0
174 197 0
173 197 0
172 195 0
175 197 0
172 195 0
172 195 0
174 197 0
171 195 0
172 195 0
172 195 0
175 197 0
172 195 0
172 195 0
169 193 0
171 194 0
174 196 0
173 196 0
174 196 0
173 196 0
170 193 0
171 195 0
172 195 0
172 195 0
171 194 0
175 198 0
172 195 0
171 194 0
173 196 0
172 195 0
174 197 0
173 197 0
172 194 0
168 191 40
141 166 110
110 137 144
73 106 172
61 98 177
62 99 180
61 98 180
62 99 181
61 99 181
61 98 180
61 99 180
62 99 181
62 99 180
62 99 181
61 99 181
62 99 181
61 98 180
62 99 181
62 99 181
62 99 181
62 99 181
61 99 181
62 99 181
62 99 181
62 99 181
61 99 181
61 99 181
61 99 181
62 99 181
62 99 181
61 98 180
61 99 181
62 99 181
62 99 181
61 98 181
61 98 181
61 99 181
62 99 181
62 99 181
61 98 180
62 99 181
62 99 181
61 98 180
61 98 180
62 99 181
61 98 181
61 98 180
62 99 181
62 99 180
61 98 179
62 99 181
62 99 180
62 99 181
62 99 181
62 99 180
62 99 181
62 99 181
61 98 178
61 99 180
61 98 178
62 98 177
64 100 177
110 137 146
144 169 101
170 192 18
174 196 0
171 193 0
172 195 0
165 179 0
155 153 0
157 153 0
154 152 0
155 153 0
155 152 0
156 153 0
171 163 63
201 184 114
200 183 114
199 183 114
198 182 114
197 182 114
196 182 114
195 181 114
194 181 114
193 180 114
193 180 114
192 179 114
191 179 114
190 179 114
189 178 114
189 178 114
188 178 114
187 177 114
186 177 114
186 177 114
185 176 114
184 176 114
184 176 114
183 175 114
182 175 114
182 175 114
181 174 114
181 174 114
180 174 114
179 174 114
179 173 114
178 173 114
178 173 114
177 173 114
177 172 114
176 172 114
176 172 114
175 172 114
175 171 114
174 171 114
174 171 114
173 171 114
173 171 114
173 170 114
172 170 114
172 170 114
171 170 114
171 170 114
171 170 114
170 169 114
170 169 114
170 169 114
169 169 114
169 169 114
169 169 114
169 169 114
168 169 114
168 168 114
168 168 114
168 168 114
168 168 114
167 168 114
167 168 114
167 168 114
167 168 114
167 168 114
167 168 114
167 168 114
166 168 114
166 168 114
166 168 114
166 168 114
166 168 114
166 168 114
166 168 114
166 168 114
166 168 114
166 168 114
166 168 114
166 168 114
166 168 114
167 168 114
167 168 114
167 168 114
167 168 114
167 168 114
167 168 114
167 168 114
167 168 114
168 168 114
168 168 114
168 168 114
168 168 114
169 169 114
169 169 114
169 169 114
169 169 114
170 169 114
170 169 114
170 169 114
171 170 114
171 170 114
171 170 114
172 170 114
172 170 114
173 170 114
173 171 114
173 171 114
174 171 114
174 171 114
175 171 114
175 172 114
176 172 114
176 172 114
177 172 114
178 173 114
178 173 114
179 173 114
179 174 114
180 174 114
181 174 114
181 174 114
182 175 114
183 175 114
183 175 114
184 176 114
185 176 114
185 176 114
186 177 114
187 177 114
188 178 114
189 178 114
190 178 114
190 179 114
191 179 114
192 180 114
193 180 114
194 181 114
195 181 114
196 182 114
198 182 114
199 183 114
200 183 114
201 184 114
163 158 42
156 153 0
156 153 0
156 153 0
170 185 0
173 196 0
174 196 0
173 196 0
173 196 0
172 195 0
173 197 0
175 198 0
173 197 0
173 197 0
173 196 0
174 198 0
174 197 0
172 196 0
173 196 0
173 197 0
174 197 0
174 197 0
176 198 0
175 198 0
174 197 0
174 198 0
175 198 0
174 197 0
174 197 0
173 197 0
173 196 0
174 197 0
174 197 0
172 195 0
174 197 0
174 197 0
173 196 0
174 197 0
173 196 0
173 197 0
175 197 0
172 196 0
174 197 0
173 196 0
173 196 0
174 197 0
173 197 0
174 198 0
174 197 0
170 195 0
174 197 0
173 197 0
174 198 0
173 197 0
174 197 0
175 198 0
174 197 0
172 195 0
172 196 0
171 195 0
173 197 0
173 197 0
172 196 0
175 198 0
173 196 0
173 197 0
174 197 0
169 193 0
173 197 0
174 197 0
174 196 0
172 195 0
172 196 0
173 196 0
173 195 0
173 197 0
173 197 0
172 196 0
173 197 0
174 198 0
172 196 0
174 196 0
173 196 0
173 197 0
172 195 0
176 198 0
174 198 0
174 196 0
174 197 0
173 196 0
176 198 0
173 197 0
174 197 0
174 197 0
172 195 0
172 196 0
174 197 0
174 197 0
173 196 0
175 198 0
173 196 0
174 198 0
174 196 0
173 197 0
171 195 0
173 197 0
172 196 0
174 196 0
174 197 0
174 197 0
173 197 0
174 197 0
173 196 0
173 196 0
169 192 0
174 197 0
171 195 0
173 196 0
173 196 0
174 198 0
172 196 0
171 195 0
173 196 0
172 196 0
175 198 0
173 196 0
172 195 0
172 196 0
171 194 0
172 196 0
174 197 0
173 196 0
172 196 0
174 197 0
173 196 0
173 196 0
173 196 0
173 196 0
173 197 0
172 195 0
172 196 0
172 196 0
171 194 0
172 195 0
173 196 0
172 196 0
172 195 0
172 195 0
175 198 0
171 193 0
172 195 0
174 197 0
174 197 0
172 195 0
172 195 0
171 195 0
173 196 0
172 196 0
173 197 0
170 193 0
171 194 0
171 194 0
175 197 0
174 197 0
173 196 0
170 193 0
170 194 0
175 198 0
173 197 0
170 192 0
174 196 0
170 193 0
173 195 0
171 194 0
172 195 0
171 195 0
172 196 0
174 197 0
169 191 0
155 178 87
117 144 142
72 106 175
62 99 177
61 99 177
62 99 180
62 99 180
61 99 179
62 99 180
62 99 181
61 99 179
61 99 179
61 99 181
61 99 180
62 99 181
62 99 181
62 99 181
62 99 179
61 99 181
62 99 181
62 99 181
61 99 181
61 99 181
62 99 181
61 99 181
61 99 181
61 99 181
61 99 181
62 99 181
62 99 181
61 99 181
62 99 181
61 99 181
61 99 181
61 98 181
61 98 181
61 99 181
62 99 181
61 99 181
62 99 181
62 99 181
62 99 181
61 99 181
61 99 181
61 98 181
61 99 180
62 99 181
61 99 181
61 98 181
62 99 181
61 98 181
62 99 181
62 99 181
61 99 181
61 98 180
62 99 181
62 99 179
61 98 180
61 98 179
61 98 178
61 99 181
62 99 181
61 98 178
62 98 177
62 98 176
62 99 177
75 108 172
120 146 138
154 177 83
174 196 0
159 166 0
154 151 0
153 151 0
156 153 0
157 153 0
155 153 0
157 154 0
174 165 68
201 184 114
200 183 114
199 183 114
198 182 114
197 182 114
196 182 114
195 181 114
194 181 114
194 180 114
193 180 114
192 180 114
191 179 114
190 179 114
190 178 114
189 178 114
188 178 114
187 177 114
187 177 114
186 177 114
185 176 114
185 176 114
184 176 114
183 175 114
183 175 114
182 175 114
181 175 114
181 174 114
180 174 114
180 174 114
179 173 114
179 173 114
178 173 114
178 173 114
177 172 114
177 172 114
176 172 114
176 172 114
175 172 114
175 171 114
174 171 114
174 171 114
173 171 114
173 171 114
173 170 114
172 170 114
172 170 114
172 170 114
171 170 114
171 170 114
171 169 114
170 169 114
170 169 114
170 169 114
169 169 114
169 169 114
169 169 114
169 169 114
168 169 114
168 168 114
168 168 114
168 168 114
168 168 114
168 168 114
167 168 114
167 168 114
167 168 114
167 168 114
167 168 114
167 168 114
167 168 114
167 168 114
167 168 114
167 168 114
167 168 114
167 168 114
167 168 114
167 168 114
167 168 114
167 168 114
167 168 114
167 168 114
167 168 114
167 168 114
167 168 114
167 168 114
168 168 114
168 168 114
168 168 114
168 168 114
168 168 114
169 169 114
169 169 114
169 169 114
169 169 114
170 169 114
170 169 114
170 169 114
170 169 114
171 170 114
171 170 114
171 170 114
172 170 114
172 170 114
173 170 114
173 171 114
173 171 114
174 171 114
174 171 114
175 171 114
175 172 114
176 172 114
176 172 114
177 172 114
177 173 114
178 173 114
178 173 114
179 173 114
180 174 114
180 174 114
181 174 114
181 175 114
182 175 114
183 175 114
183 175 114
184 176 114
185 176 114
186 177 114
186 177 114
187 177 114
188 178 114
189 178 114
190 178 114
191 179 114
191 179 114
192 180 114
193 180 114
194 181 114
195 181 114
196 182 114
197 182 114
199 183 114
200 183 114
201 184 114
170 163 61
155 153 0
156 153 0
156 153 0
163 172 0
175 197 0
174 197 0
173 197 0
172 196 0
174 197 0
174 196 0
173 196 0
171 196 0
174 197 0
171 196 0
174 197 0
172 196 0
175 198 0
173 196 0
173 196 0
174 198 0
175 198 0
174 197 0
174 198 0
174 197 0
174 197 0
174 198 0
174 197 0
176 199 0
173 197 0
173 197 0
174 197 0
174 198 0
171 195 0
175 198 0
173 197 0
174 198 0
174 198 0
175 198 0
173 197 0
173 196 0
172 196 0
173 196 0
172 195 0
172 196 0
172 196 0
174 197 0
172 196 0
174 198 0
172 196 0
174 198 0
174 197 0
175 198 0
173 197 0
174 197 0
175 198 0
174 197 0
172 195 0
174 197 0
174 198 0
173 196 0
173 196 0
173 196 0
174 197 0
174 198 0
174 197 0
173 196 0
173 197 0
172 196 0
173 197 0
175 197 0
172 196 0
176 199 0
171 195 0
173 196 0
172 196 0
173 197 0
173 197 0
173 197 0
173 196 0
172 195 0
175 198 0
173 197 0
173 197 0
171 195 0
173 197 0
170 194 0
172 196 0
175 197 0
173 196 0
174 197 0
174 197 0
173 197 0
172 194 0
174 197 0
171 195 0
175 198 0
176 198 0
176 199 0
173 196 0
176 198 0
171 194 0
174 198 0
172 195 0
173 196 0
171 194 0
175 198 0
173 196 0
173 196 0
171 195 0
174 197 0
170 193 0
172 196 0
171 195 0
171 195 0
173 197 0
174 197 0
171 195 0
176 198 0
173 196 0
169 193 0
174 197 0
174 197 0
172 196 0
174 197 0
173 196 0
173 196 0
175 198 0
173 196 0
172 194 0
174 197 0
171 195 0
174 197 0
173 196 0
173 195 0
171 195 0
171 195 0
173 195 0
172 195 0
174 196 0
174 196 0
175 197 0
172 195 0
171 195 0
170 193 0
174 197 0
172 196 0
171 194 0
173 197 0
169 192 0
173 196 0
172 195 0
173 196 0
171 194 0
174 197 0
172 196 0
171 194 0
173 197 0
172 195 0
169 191 0
173 197 0
175 197 0
170 193 0
171 195 0
172 195 0
171 195 0
173 196 0
173 197 0
171 194 0
172 196 0
172 195 0
174 196 0
172 196 0
172 196 0
174 196 0
171 193 0
168 191 36
137 162 114
91 121 161
62 99 180
62 99 178
62 99 179
62 99 180
62 99 179
62 99 181
62 99 181
61 99 181
62 99 180
63 100 181
62 99 181
62 99 181
62 99 181
62 99 181
62 99 181
62 99 181
62 99 181
61 99 181
61 99 181
62 99 180
61 98 181
62 99 181
61 99 181
62 99 181
61 99 181
61 99 181
61 99 181
61 98 181
61 98 181
62 99 181
62 99 181
61 99 181
61 99 181
61 99 181
61 99 181
61 98 181
61 98 180
61 99 181
61 99 181
62 99 181
62 99 181
62 99 181
62 99 181
61 99 181
61 99 181
61 98 180
61 98 181
62 99 181
61 99 181
62 99 181
61 99 180
61 98 179
62 99 181
61 98 179
61 98 180
62 99 181
61 98 180
62 99 180
62 99 180
62 99 180
62 98 178
62 99 179
62 99 178
62 99 180
62 99 180
62 99 180
61 98 178
62 99 178
62 98 173
90 120 163
130 138 104
152 151 36
154 152 0
156 153 0
155 153 0
156 153 0
155 153 0
174 165 68
201 184 114
200 183 114
199 183 114
198 182 114
197 182 114
196 182 114
195 181 114
195 181 114
194 180 114
193 180 114
192 180 114
191 179 114
191 179 114
190 178 114
189 178 114
188 178 114
188 177 114
187 177 114
186 177 114
186 176 114
185 176 114
184 176 114
184 176 114
183 175 114
182 175 114
182 175 114
181 174 114
181 174 114
180 174 114
180 174 114
179 173 114
178 173 114
178 173 114
177 173 114
177 172 114
176 172 114
176 172 114
176 172 114
175 172 114
175 171 114
174 171 114
174 171 114
173 171 114
173 171 114
173 170 114
172 170 114
172 170 114
172 170 114
171 170 114
171 170 114
171 170 114
170 169 114
170 169 114
170 169 114
170 169 114
169 169 114
169 169 114
169 169 114
169 169 114
169 169 114
168 168 114
168 168 114
168 168 114
168 168 114
168 168 114
168 168 114
168 168 114
167 168 114
167 168 114
167 168 114
167 168 114
167 168 114
167 168 114
167 168 114
167 168 114
167 168 114
167 168 114
167 168 114
167 168 114
167 168 114
167 168 114
168 168 114
168 168 114
168 168 114
168 168 114
168 168 114
168 168 114
168 169 114
169 169 114
169 169 114
169 169 114
169 169 114
169 169 114
170 169 114
170 169 114
170 169 114
171 169 114
171 170 114
171 170 114
172 170 114
172 170 114
172 170 114
173 170 114
173 171 114
173 171 114
174 171 114
174 171 114
175 171 114
175 172 114
176 172 114
176 172 114
177 172 114
177 172 114
178 173 114
178 173 114
179 173 114
179 173 114
180 174 114
180 174 114
181 174 114
182 175 114
182 175 114
183 175 114
184 176 114
184 176 114
185 176 114
186 177 114
187 177 114
187 177 114
188 178 114
189 178 114
190 178 114
191 179 114
192 179 114
192 180 114
193 180 114
194 181 114
195 181 114
196 182 114
198 182 114
199 183 114
200 183 114
201 184 114
174 165 68
157 153 0
157 154 0
157 153 0
161 163 0
172 195 0
174 197 0
175 198 0
173 194 0
173 196 0
175 197 0
175 198 0
173 196 0
174 197 0
172 196 0
173 197 0
171 195 0
173 197 0
173 197 0
174 198 0
174 197 0
172 195 0
174 197 0
175 198 0
174 197 0
175 198 0
172 196 0
174 198 0
174 197 0
174 197 0
175 198 0
173 196 0
174 197 0
176 199 0
173 196 0
175 198 0
173 197 0
173 197 0
173 197 0
173 197 0
172 196 0
173 196 0
174 197 0
175 197 0
174 198 0
174 197 0
172 195 0
175 197 0
175 198 0
174 196 0
172 196 0
172 195 0
173 197 0
173 196 0
174 198 0
172 196 0
172 197 0
173 197 0
173 196 0
175 198 0
173 197 0
175 197 0
174 197 0
173 196 0
173 196 0
173 197 0
174 198 0
174 197 0
172 196 0
171 195 0
172 194 0
172 196 0
173 196 0
173 196 0
174 197 0
174 197 0
174 197 0
171 195 0
172 195 0
174 197 0
172 196 0
174 198 0
173 196 0
175 198 0
172 196 0
174 198 0
173 196 0
173 196 0
170 193 0
175 198 0
173 196 0
173 196 0
173 196 0
174 197 0
172 196 0
174 197 0
174 197 0
175 198 0
174 197 0
171 195 0
172 196 0
173 196 0
172 195 0
173 196 0
174 197 0
175 198 0
170 195 0
170 193 0
173 196 0
172 195 0
174 198 0
173 196 0
173 196 0
172 195 0
172 194 0
174 197 0
173 196 0
173 196 0
172 196 0
173 196 0
169 193 0
172 195 0
173 196 0
170 193 0
173 196 0
175 198 0
170 194 0
175 198 0
172 195 0
174 197 0
171 194 0
173 196 0
170 194 0
172 196 0
173 196 0
173 196 0
172 195 0
172 195 0
173 196 0
172 195 0
169 193 0
172 195 0
175 197 0
174 197 0
173 195 0
172 196 0
174 196 0
173 196 0
172 195 0
172 195 0
170 193 0
173 196 0
172 196 0
171 194 0
171 195 0
173 196 0
175 198 0
175 198 0
175 197 0
172 195 0
175 197 0
169 193 0
174 197 0
174 196 0
173 195 0
171 195 0
169 193 0
172 195 0
173 196 0
171 194 0
173 197 0
172 196 0
173 194 0
171 194 0
166 188 44
128 153 128
68 103 174
63 100 178
62 99 181
62 99 179
62 99 179
62 99 178
61 99 181
62 99 179
62 99 181
62 99 180
62 99 180
61 99 181
61 99 180
62 99 181
62 99 181
61 99 180
61 99 181
62 99 181
62 99 181
61 99 181
62 99 181
62 99 181
62 99 181
61 99 181
62 99 181
62 99 181
61 98 181
61 98 181
61 99 181
62 99 181
61 99 181
61 99 181
62 99 181
61 99 181
61 99 181
62 99 181
61 99 181
62 99 181
61 99 181
61 99 181
62 99 181
61 98 181
62 99 181
62 99 181
61 98 180
61 99 181
61 98 181
61 99 181
61 98 180
61 98 181
61 99 181
61 99 180
62 99 181
61 98 181
62 99 181
61 98 181
62 99 181
61 99 181
61 98 179
62 99 180
61 98 179
61 98 180
61 99 181
61 98 180
62 99 181
62 99 179
61 98 178
62 99 180
61 98 180
61 98 179
62 99 179
62 98 177
62 99 179
61 98 178
70 102 174
114 126 134
152 150 47
155 153 0
156 153 0
157 154 0
173 164 65
201 184 114
200 183 114
199 183 114
198 183 114
197 182 114
196 182 114
196 181 114
195 181 114
194 180 114
193 180 114
192 180 114
192 179 114
191 179 114
190 179 114
189 178 114
189 178 114
188 178 114
187 177 114
187 177 114
186 177 114
185 176 114
185 176 114
184 176 114
183 175 114
183 175 114
182 175 114
182 175 114
181 174 114
180 174 114
180 174 114
179 174 114
179 173 114
178 173 114
178 173 114
177 173 114
177 172 114
176 172 114
176 172 114
175 172 114
175 172 114
175 171 114
174 171 114
174 171 114
173 171 114
173 171 114
173 170 114
172 170 114
172 170 114
172 170 114
171 170 114
171 170 114
171 170 114
171 169 114
170 169 114
170 169 114
170 169 114
170 169 114
169 169 114
169 169 114
169 169 114
169 169 114
169 169 114
169 169 114
168 169 114
168 168 114
168 168 114
168 168 114
168 168 114
168 168 114
168 168 114
168 168 114
168 168 114
168 168 114
168 168 114
168 168 114
168 168 114
168 168 114
168 168 114
168 168 114
168 168 114
168 168 114
168 168 114
168 168 114
168 168 114
168 169 114
169 169 114
169 169 114
169 169 114
169 169 114
169 169 114
169 169 114
170 169 114
170 169 114
170 169 114
170 169 114
171 170 114
171 170 114
171 170 114
172 170 114
172 170 114
172 170 114
173 170 114
173 171 114
173 171 114
174 171 114
174 171 114
175 171 114
175 172 114
175 172 114
176 172 114
176 172 114
177 172 114
177 173 114
178 173 114
178 173 114
179 173 114
180 174 114
180 174 114
181 174 114
181 174 114
182 175 114
183 175 114
183 175 114
184 176 114
185 176 114
185 176 114
186 177 114
187 177 114
188 177 114
188 178 114
189 178 114
190 179 114
191 179 114
192 179 114
193 180 114
194 180 114
194 181 114
195 181 114
196 182 114
198 182 114
199 183 114
200 183 114
201 184 114
179 169 78
157 154 0
156 153 0
154 152 0
156 152 0
173 192 0
172 196 0
174 196 0
172 195 0
174 197 0
174 196 0
173 196 0
174 196 0
173 196 0
172 197 0
176 198 0
175 197 0
174 198 0
172 197 0
174 196 0
175 198 0
172 195 0
172 197 0
175 198 0
175 198 0
173 197 0
174 197 0
173 196 0
173 196 0
174 197 0
174 197 0
173 197 0
172 196 0
174 197 0
173 196 0
174 197 0
173 197 0
174 197 0
173 197 0
174 196 0
174 198 0
172 196 0
173 197 0
174 197 0
175 198 0
174 197 0
173 196 0
174 198 0
175 198 0
173 197 0
173 197 0
173 197 0
174 197 0
172 196 0
173 197 0
174 198 0
174 197 0
175 198 0
175 198 0
174 198 0
172 196 0
173 196 0
173 197 0
172 196 0
172 196 0
174 197 0
171 195 0
173 196 0
175 198 0
171 195 0
173 196 0
172 195 0
173 197 0
172 196 0
172 196 0
175 198 0
172 196 0
173 196 0
177 199 0
173 196 0
172 196 0
174 198 0
173 197 0
173 197 0
173 197 0
173 197 0
173 196 0
174 197 0
174 197 0
173 196 0
174 197 0
172 195 0
173 197 0
173 196 0
172 195 0
174 197 0
174 197 0
173 196 0
171 195 0
174 197 0
172 195 0
174 197 0
172 196 0
169 193 0
174 197 0
174 197 0
174 198 0
171 195 0
171 194 0
172 195 0
173 196 0
173 196 0
173 196 0
172 195 0
174 196 0
175 197 0
172 194 0
171 194 0
172 195 0
173 197 0
176 199 0
174 196 0
174 197 0
173 195 0
173 197 0
171 195 0
172 196 0
171 194 0
172 194 0
174 197 0
174 197 0
172 195 0
172 195 0
172 195 0
172 195 0
170 194 0
173 196 0
172 195 0
173 195 0
173 196 0
170 192 0
172 195 0
175 198 0
173 197 0
173 197 0
172 196 0
174 197 0
172 196 0
173 196 0
173 195 0
173 196 0
172 196 0
172 195 0
173 196 0
172 195 0
173 196 0
173 196 0
172 196 0
172 195 0
172 195 0
171 195 0
172 195 0
173 197 0
175 197 0
173 197 0
173 197 0
174 196 0
171 195 0
172 194 0
171 194 0
173 196 0
175 198 0
166 189 54
111 138 147
70 105 176
62 99 177
62 99 180
62 99 177
62 99 180
62 99 181
62 99 179
61 98 179
62 99 180
62 99 180
62 99 181
61 98 180
61 99 181
62 99 181
62 99 181
61 99 181
62 99 181
61 99 180
61 99 181
61 98 181
61 98 181
62 99 181
61 98 181
61 99 181
62 99 181
61 99 181
61 99 181
61 98 181
62 99 181
61 98 181
62 99 181
62 99 181
61 99 181
61 98 181
61 99 181
61 98 181
61 98 181
62 99 181
61 99 181
61 99 181
61 99 181
61 99 181
61 99 181
62 99 181
62 99 181
61 98 181
61 98 181
62 99 181
62 99 181
61 98 180
62 99 181
61 98 181
62 99 181
61 98 181
61 98 181
62 99 180
62 99 181
62 99 181
61 98 180
61 99 181
61 99 181
61 98 179
61 99 181
62 99 181
62 99 180
62 99 179
61 98 180
62 99 180
62 99 180
61 98 179
61 99 180
62 99 178
62 99 177
62 99 177
62 99 179
61 98 178
62 99 180
62 98 176
64 99 177
102 118 142
150 149 54
155 153 0
169 162 58
201 184 114
200 183 114
199 183 114
198 183 114
197 182 114
197 182 114
196 181 114
195 181 114
194 181 114
193 180 114
193 180 114
192 179 114
191 179 114
190 179 114
190 178 114
189 178 114
188 178 114
187 177 114
187 177 114
186 177 114
186 176 114
185 176 114
184 176 114
184 176 114
183 175 114
183 175 114
182 175 114
181 174 114
181 174 114
180 174 114
180 174 114
179 173 114
179 173 114
178 173 114
178 173 114
177 173 114
177 172 114
176 172 114
176 172 114
176 172 114
175 172 114
175 171 114
174 171 114
174 171 114
174 171 114
173 171 114
173 171 114
173 170 114
172 170 114
172 170 114
172 170 114
171 170 114
171 170 114
171 170 114
171 170 114
170 169 114
170 169 114
170 169 114
170 169 114
169 169 114
169 169 114
169 169 114
169 169 114
169 169 114
169 169 114
169 169 114
169 169 114
168 169 114
168 169 114
168 168 114
168 168 114
168 168 114
168 168 114
168 168 114
168 168 114
168 168 114
168 168 114
168 168 114
168 168 114
168 169 114
169 169 114
169 169 114
169 169 114
169 169 114
169 169 114
169 169 114
169 169 114
169 169 114
170 169 114
170 169 114
170 169 114
170 169 114
170 169 114
171 170 114
171 170 114
171 170 114
171 170 114
172 170 114
172 170 114
172 170 114
173 170 114
173 171 114
173 171 114
174 171 114
174 171 114
175 171 114
175 172 114
175 172 114
176 172 114
176 172 114
177 172 114
177 173 114
178 173 114
178 173 114
179 173 114
179 174 114
180 174 114
181 174 114
181 174 114
182 175 114
182 175 114
183 175 114
184 176 114
184 176 114
185 176 114
186 176 114
186 177 114
187 177 114
188 178 114
189 178 114
189 178 114
190 179 114
191 179 114
192 179 114
193 180 114
194 180 114
195 181 114
196 181 114
197 182 114
198 182 114
199 183 114
200 183 114
201 184 114
177 167 74
155 153 0
157 153 0
156 153 0
155 153 0
167 182 0
172 196 0
175 198 0
173 195 0
173 196 0
174 197 0
173 197 0
173 197 0
173 196 0
173 197 0
174 197 0
174 197 0
172 195 0
172 196 0
175 198 0
173 196 0
174 197 0
172 196 0
175 198 0
176 199 0
173 197 0
171 195 0
174 196 0
175 198 0
175 197 0
174 197 0
172 196 0
172 196 0
172 195 0
174 197 0
172 196 0
173 196 0
174 197 0
174 197 0
171 195 0
173 196 0
175 198 0
174 197 0
174 198 0
173 197 0
175 198 0
173 197 0
175 198 0
173 197 0
174 197 0
174 197 0
174 197 0
174 197 0
175 197 0
174 198 0
173 196 0
174 198 0
173 197 0
172 197 0
173 196 0
170 194 0
173 196 0
174 197 0
175 198 0
172 196 0
174 198 0
173 196 0
173 197 0
176 198 0
172 195 0
172 195 0
175 198 0
174 197 0
174 197 0
175 198 0
173 197 0
173 196 0
172 196 0
173 197 0
174 198 0
174 198 0
173 196 0
175 198 0
171 194 0
172 196 0
173 197 0
171 194 0
173 196 0
172 195 0
174 197 0
173 197 0
174 196 0
172 194 0
175 197 0
174 197 0
173 195 0
172 196 0
171 195 0
173 196 0
174 198 0
175 198 0
172 195 0
172 196 0
172 195 0
170 194 0
171 194 0
173 196 0
173 197 0
173 196 0
172 195 0
174 197 0
173 197 0
173 196 0
171 194 0
172 196 0
174 196 0
173 195 0
173 196 0
175 198 0
174 196 0
174 197 0
171 195 0
174 197 0
173 196 0
173 196 0
171 194 0
173 197 0
172 196 0
174 196 0
172 196 0
174 197 0
174 198 0
171 193 0
173 196 0
173 196 0
172 195 0
170 193 0
171 195 0
173 196 0
173 196 0
170 193 0
173 197 0
172 196 0
174 197 0
171 193 0
173 195 0
173 195 0
172 195 0
171 195 0
171 195 0
171 193 0
172 196 0
172 195 0
170 194 0
175 198 0
172 195 0
172 196 0
173 196 0
173 197 0
172 196 0
171 195 0
170 192 0
174 197 0
171 194 0
170 195 0
171 194 0
172 195 0
174 197 0
174 196 0
174 197 0
164 188 62
113 140 144
64 100 171
62 99 178
62 99 177
62 99 179
61 99 179
61 98 180
62 99 179
62 99 181
62 99 180
62 99 180
61 98 179
62 99 181
62 99 181
61 99 181
62 99 180
61 98 181
61 99 181
61 98 179
61 99 181
61 99 181
61 99 181
62 99 181
62 99 181
61 99 181
61 98 181
61 99 181
61 99 181
61 98 181
62 99 181
61 98 181
61 99 181
61 99 181
61 98 181
62 99 181
61 99 181
62 99 181
61 99 181
61 99 181
60 98 181
61 99 181
62 99 181
61 99 181
61 98 181
62 99 181
61 99 181
61 99 181
61 99 181
61 99 181
61 98 181
62 99 181
62 99 181
61 99 181
62 99 181
61 99 181
61 99 181
61 99 181
61 99 181
61 99 180
62 99 181
62 99 181
62 99 181
61 98 181
61 99 181
62 99 180
62 99 181
62 99 181
62 99 180
62 99 180
62 99 181
61 99 180
61 99 181
61 98 178
62 99 181
61 99 179
62 99 180
61 98 177
62 98 178
62 99 178
62 99 178
62 99 178
61 98 177
62 98 177
66 100 177
97 116 152
150 148 93
201 184 114
200 184 114
199 183 114
198 183 114
198 182 114
197 182 114
196 181 114
195 181 114
194 181 114
194 180 114
193 180 114
192 180 114
191 179 114
191 179 114
190 179 114
189 178 114
189 178 114
188 178 114
187 177 114
187 177 114
186 177 114
185 176 114
185 176 114
184 176 114
183 175 114
183 175 114
182 175 114
182 175 114
181 174 114
181 174 114
180 174 114
180 174 114
179 173 114
179 173 114
178 173 114
178 173 114
177 173 114
177 172 114
176 172 114
176 172 114
176 172 114
175 172 114
175 171 114
174 171 114
174 171 114
174 171 114
173 171 114
173 171 114
173 170 114
172 170 114
172 170 114
172 170 114
172 170 114
171 170 114
171 170 114
171 170 114
171 170 114
170 169 114
170 169 114
170 169 114
170 169 114
170 169 114
170 169 114
169 169 114
169 169 114
169 169 114
169 169 114
169 169 114
169 169 114
169 169 114
169 169 114
169 169 114
169 169 114
169 169 114
169 169 114
169 169 114
169 169 114
169 169 114
169 169 114
169 169 114
169 169 114
169 169 114
169 169 114
169 169 114
169 169 114
170 169 114
170 169 114
170 169 114
170 169 114
170 169 114
170 169 114
171 170 114
171 170 114
171 170 114
171 170 114
172 170 114
172 170 114
172 170 114
173 170 114
173 171 114
173 171 114
174 171 114
174 171 114
174 171 114
175 171 114
175 172 114
175 172 114
176 172 114
176 172 114
177 172 114
177 173 114
178 173 114
178 173 114
179 173 114
179 173 114
180 174 114
180 174 114
181 174 114
181 174 114
182 175 114
183 175 114
183 175 114
184 176 114
185 176 114
185 176 114
186 177 114
187 177 114
187 177 114
188 178 114
189 178 114
190 178 114
190 179 114
191 179 114
192 180 114
193 180 114
194 180 114
195 181 114
196 181 114
197 182 114
198 182 114
199 183 114
200 183 114
201 184 114
182 171 84
158 154 0
154 152 0
156 153 0
156 153 0
166 177 0
176 198 0
173 197 0
173 195 0
175 197 0
174 196 0
174 197 0
171 194 0
174 198 0
173 197 0
171 195 0
175 198 0
174 197 0
173 197 0
173 196 0
172 196 0
174 197 0
173 197 0
172 197 0
175 198 0
175 198 0
173 197 0
172 196 0
171 195 0
175 198 0
174 197 0
172 196 0
175 198 0
176 199 0
175 198 0
174 197 0
173 197 0
175 198 0
174 197 0
172 197 0
171 195 0
175 198 0
174 197 0
172 196 0
175 197 0
174 197 0
174 198 0
173 197 0
172 195 0
174 198 0
174 197 0
173 197 0
173 196 0
173 196 0
175 198 0
173 196 0
175 198 0
174 197 0
174 197 0
173 197 0
174 197 0
175 198 0
172 196 0
173 197 0
172 195 0
172 197 0
173 197 0
174 198 0
174 197 0
173 196 0
173 197 0
173 196 0
173 197 0
174 197 0
173 197 0
173 196 0
172 196 0
172 195 0
173 196 0
173 197 0
172 195 0
172 197 0
173 196 0
175 198 0
173 196 0
171 195 0
173 197 0
176 198 0
172 195 0
175 198 0
171 195 0
173 196 0
173 197 0
175 198 0
173 196 0
170 194 0
172 196 0
174 197 0
173 197 0
172 196 0
174 197 0
173 196 0
172 195 0
173 197 0
170 193 0
173 197 0
173 196 0
174 196 0
172 196 0
172 196 0
171 194 0
173 197 0
169 192 0
173 197 0
173 197 0
171 195 0
173 196 0
172 196 0
172 195 0
173 197 0
173 197 0
174 197 0
172 195 0
172 195 0
173 197 0
170 194 0
175 198 0
173 196 0
169 192 0
173 196 0
170 193 0
174 197 0
172 195 0
173 196 0
173 197 0
174 196 0
175 197 0
173 197 0
170 194 0
172 195 0
172 195 0
170 194 0
175 198 0
174 197 0
172 195 0
174 197 0
171 194 0
174 196 0
174 197 0
171 194 0
171 194 0
173 196 0
175 198 0
173 196 0
169 193 0
173 196 0
174 197 0
171 195 0
175 198 0
175 198 0
172 195 0
170 194 0
171 195 0
173 196 0
172 195 0
173 195 0
171 193 0
172 196 0
164 187 44
121 147 134
70 105 176
62 99 175
62 99 175
62 99 180
62 99 179
62 99 177
61 98 176
62 99 181
62 99 179
61 98 179
61 99 180
62 99 181
62 99 180
62 99 181
61 99 181
62 99 181
62 99 181
61 99 181
62 99 181
61 98 179
62 99 181
61 98 181
61 99 181
61 99 181
61 99 181
62 99 181
61 99 181
62 99 181
62 99 181
62 99 181
62 99 181
62 99 181
62 99 181
62 99 181
61 99 181
61 99 181
62 99 181
61 99 181
61 98 181
62 99 181
62 99 181
61 99 181
61 98 181
61 98 181
61 99 181
62 99 181
61 98 181
61 99 181
62 99 181
61 99 181
62 99 181
61 99 181
61 98 181
61 98 181
62 99 181
62 99 181
61 99 181
61 99 181
62 99 181
62 99 181
62 99 181
61 98 180
61 99 181
62 99 181
61 99 181
61 99 180
62 99 181
61 99 181
62 99 180
62 99 181
62 99 180
62 99 180
62 99 180
61 99 180
61 99 180
61 99 181
62 98 177
62 99 179
62 99 179
61 98 177
61 98 177
62 98 178
62 98 177
62 99 178
61 98 175
61 98 178
75 104 172
139 141 153
197 181 115
199 183 114
199 183 114
198 182 114
197 182 114
196 182 114
195 181 114
195 181 114
194 180 114
193 180 114
192 180 114
192 179 114
191 179 114
190 179 114
190 178 114
189 178 114
188 178 114
188 177 114
187 177 114
186 177 114
186 176 114
185 176 114
184 176 114
184 176 114
183 175 114
183 175 114
182 175 114
182 175 114
181 174 114
181 174 114
180 174 114
180 174 114
179 173 114
179 173 114
178 173 114
178 173 114
177 173 114
177 172 114
176 172 114
176 172 114
176 172 114
175 172 114
175 171 114
175 171 114
174 171 114
174 171 114
174 171 114
173 171 114
173 171 114
173 170 114
172 170 114
172 170 114
172 170 114
172 170 114
171 170 114
171 170 114
171 170 114
171 170 114
171 170 114
170 169 114
170 169 114
170 169 114
170 169 114
170 169 114
170 169 114
170 169 114
170 169 114
169 169 114
169 169 114
169 169 114
169 169 114
169 169 114
169 169 114
169 169 114
169 169 114
169 169 114
169 169 114
169 169 114
169 169 114
170 169 114
170 169 114
170 169 114
170 169 114
170 169 114
170 169 114
170 169 114
170 169 114
171 170 114
171 170 114
171 170 114
171 170 114
171 170 114
172 170 114
172 170 114
172 170 114
172 170 114
173 170 114
173 171 114
173 171 114
174 171 114
174 171 114
174 171 114
175 171 114
175 172 114
175 172 114
176 172 114
176 172 114
177 172 114
177 173 114
178 173 114
178 173 114
179 173 114
179 173 114
180 174 114
180 174 114
181 174 114
181 174 114
182 175 114
182 175 114
183 175 114
184 176 114
184 176 114
185 176 114
185 176 114
186 177 114
187 177 114
188 177 114
188 178 114
189 178 114
190 178 114
191 179 114
191 179 114
192 180 114
193 180 114
194 180 114
195 181 114
196 181 114
197 182 114
198 182 114
199 183 114
200 183 114
201 184 114
176 167 73
156 153 0
157 154 0
157 154 0
156 153 0
162 165 0
174 196 0
175 197 0
174 197 0
173 196 0
173 196 0
173 196 0
174 197 0
174 197 0
173 197 0
174 197 0
173 196 0
175 198 0
174 198 0
173 196 0
176 198 0
173 196 0
172 196 0
174 198 0
172 196 0
172 196 0
174 197 0
174 198 0
174 197 0
174 198 0
173 197 0
174 197 0
174 197 0
173 196 0
174 198 0
174 197 0
174 197 0
175 197 0
170 194 0
172 196 0
174 197 0
171 194 0
175 198 0
173 197 0
172 196 0
172 196 0
171 194 0
175 198 0
173 196 0
176 198 0
173 197 0
172 196 0
173 196 0
172 196 0
174 197 0
173 196 0
174 197 0
174 196 0
173 196 0
171 195 0
172 195 0
173 196 0
173 196 0
173 196 0
171 195 0
175 198 0
175 198 0
173 196 0
174 198 0
172 196 0
173 196 0
172 196 0
175 197 0
172 195 0
173 197 0
172 195 0
174 198 0
174 198 0
173 197 0
172 196 0
173 195 0
174 198 0
171 195 0
173 196 0
173 195 0
175 198 0
173 196 0
172 195 0
172 196 0
172 196 0
173 196 0
173 197 0
170 194 0
174 197 0
173 197 0
173 197 0
173 196 0
172 196 0
172 195 0
174 197 0
174 196 0
174 198 0
171 193 0
174 196 0
171 195 0
174 196 0
171 194 0
170 194 0
176 198 0
172 196 0
174 197 0
171 194 0
174 197 0
172 194 0
173 196 0
171 194 0
171 194 0
170 194 0
174 198 0
174 197 0
170 192 0
171 194 0
172 195 0
174 198 0
173 197 0
172 194 0
174 197 0
172 195 0
173 194 0
171 195 0
174 197 0
173 197 0
174 197 0
171 195 0
172 195 0
174 197 0
174 197 0
173 196 0
173 195 0
171 194 0
171 195 0
172 194 0
171 195 0
172 195 0
171 196 0
175 198 0
173 197 0
174 197 0
175 197 0
173 196 0
170 194 0
174 197 0
172 195 0
173 196 0
173 196 0
171 194 0
173 195 0
175 198 0
172 195 0
171 195 0
174 197 0
170 193 0
171 194 0
174 197 0
171 194 0
174 197 0
170 194 25
135 160 115
75 108 167
62 99 175
61 99 179
61 98 178
62 99 181
62 99 179
62 99 178
63 100 180
62 99 180
61 99 181
61 99 180
62 99 179
62 99 180
62 99 181
61 99 181
61 99 181
62 99 180
61 99 181
62 99 181
62 99 180
62 99 181
61 99 181
61 99 181
62 99 181
62 99 181
62 99 181
62 99 181
61 98 181
61 99 181
62 99 181
61 99 181
61 98 181
61 99 181
62 99 181
62 99 181
61 99 181
61 99 181
62 99 181
62 99 181
61 99 181
62 99 181
62 99 181
61 99 181
61 99 181
61 98 181
61 98 181
61 99 181
61 99 181
61 98 181
62 99 181
62 99 181
61 99 181
61 99 181
62 99 181
61 99 181
62 99 181
61 98 181
62 99 181
61 98 181
62 99 181
62 99 181
61 99 181
62 99 181
62 99 180
61 99 181
62 99 181
61 99 181
61 99 180
62 99 181
62 99 181
61 99 181
61 99 181
61 99 181
62 99 181
61 98 179
62 99 181
61 99 181
61 98 181
62 99 181
62 99 179
61 98 181
62 99 180
62 98 175
61 98 178
62 99 179
63 99 179
62 99 179
61 98 175
62 99 177
62 98 173
73 103 175
145 145 151
195 180 117
198 182 114
197 182 114
196 182 114
196 181 114
195 181 114
194 181 114
193 180 114
193 180 114
192 179 114
191 179 114
191 179 114
190 178 114
189 178 114
189 178 114
188 178 114
187 177 114
187 177 114
186 177 114
185 176 114
185 176 114
184 176 114
184 176 114
183 175 114
183 175 114
182 175 114
182 175 114
181 174 114
181 174 114
180 174 114
180 174 114
179 173 114
179 173 114
178 173 114
178 173 114
177 173 114
177 172 114
177 172 114
176 172 114
176 172 114
175 172 114
175 172 114
175 171 114
174 171 114
174 171 114
174 171 114
173 171 114
173 171 114
173 171 114
173 170 114
172 170 114
172 170 114
172 170 114
172 170 114
172 170 114
171 170 114
171 170 114
171 170 114
171 170 114
171 170 114
171 169 114
170 169 114
170 169 114
170 169 114
170 169 114
170 169 114
170 169 114
170 169 114
170 169 114
170 169 114
170 169 114
170 169 114
170 169 114
170 169 114
170 169 114
170 169 114
170 169 114
170 169 114
170 169 114
170 169 114
170 169 114
171 169 114
171 170 114
171 170 114
171 170 114
171 170 114
171 170 114
172 170 114
172 170 114
172 170 114
172 170 114
172 170 114
173 170 114
173 171 114
173 171 114
174 171 114
174 171 114
174 171 114
174 171 114
175 171 114
175 172 114
176 172 114
176 172 114
176 172 114
177 172 114
177 173 114
178 173 114
178 173 114
179 173 114
179 173 114
180 174 114
180 174 114
181 174 114
181 174 114
182 175 114
182 175 114
183 175 114
183 175 114
184 176 114
185 176 114
185 176 114
186 177 114
187 177 114
187 177 114
188 178 114
189 178 114
189 178 114
190 179 114
191 179 114
192 179 114
192 180 114
193 180 114
194 181 114
195 181 114
196 181 114
197 182 114
198 182 114
199 183 114
200 183 114
201 184 114
179 169 80
156 153 0
156 153 0
155 153 0
155 152 0
158 158 0
172 195 0
172 195 0
173 195 0
173 196 0
174 196 0
173 196 0
174 197 0
173 197 0
174 197 0
173 197 0
173 196 0
175 198 0
175 198 0
172 196 0
170 195 0
172 196 0
175 198 0
170 193 0
173 197 0
174 198 0
173 196 0
174 198 0
175 198 0
173 197 0
174 197 0
174 197 0
175 198 0
174 197 0
174 197 0
175 197 0
173 197 0
173 196 0
174 196 0
172 196 0
173 197 0
171 195 0
173 197 0
173 196 0
173 197 0
172 195 0
171 195 0
173 196 0
174 197 0
174 198 0
174 197 0
175 198 0
173 196 0
173 196 0
173 196 0
174 196 0
172 196 0
175 197 0
174 197 0
171 194 0
173 197 0
172 195 0
174 197 0
174 196 0
173 197 0
174 197 0
175 197 0
172 195 0
173 197 0
173 197 0
174 197 0
172 196 0
175 198 0
173 197 0
173 197 0
175 198 0
170 194 0
173 197 0
174 197 0
173 196 0
173 197 0
172 195 0
171 195 0
173 196 0
173 196 0
172 196 0
175 198 0
173 196 0
172 194 0
173 197 0
175 198 0
173 197 0
172 195 0
174 197 0
171 195 0
174 196 0
173 197 0
174 197 0
173 197 0
173 197 0
173 196 0
174 197 0
172 196 0
173 196 0
171 194 0
174 197 0
174 197 0
174 196 0
173 196 0
173 197 0
172 194 0
174 196 0
174 197 0
175 198 0
170 194 0
174 196 0
172 196 0
173 197 0
174 197 0
174 197 0
171 195 0
174 197 0
171 195 0
172 195 0
172 195 0
172 195 0
174 197 0
173 197 0
172 195 0
172 195 0
174 197 0
173 196 0
173 195 0
172 195 0
171 194 0
168 191 0
171 195 0
172 195 0
174 197 0
172 196 0
173 197 0
174 197 0
171 196 0
171 194 0
172 194 0
172 194 0
172 196 0
172 196 0
173 196 0
173 196 0
172 195 0
171 194 0
172 196 0
171 194 0
169 191 0
171 193 0
172 196 0
171 194 0
173 196 0
172 195 0
172 195 0
171 194 0
174 197 0
173 197 0
171 194 0
145 169 107
82 113 165
61 99 179
62 99 174
61 99 180
62 99 179
61 99 180
61 99 179
62 99 178
62 99 180
62 99 181
62 99 178
62 99 180
62 99 180
62 99 178
62 99 179
61 99 181
61 99 181
62 99 180
61 98 181
62 99 179
62 99 180
61 99 180
61 99 181
62 99 180
61 98 181
61 98 181
62 99 181
62 99 181
62 99 181
62 99 181
62 99 181
61 99 181
62 99 181
61 98 181
61 98 181
62 99 181
62 99 181
62 99 181
61 99 181
61 98 181
62 99 181
61 99 181
62 99 181
62 99 181
61 99 181
61 98 181
62 99 181
61 99 181
61 98 181
61 98 181
62 99 181
61 98 181
61 98 181
61 98 181
61 98 181
61 98 181
62 99 181
61 99 181
62 99 181
62 99 181
61 99 181
61 99 181
61 98 181
61 99 181
61 99 181
61 99 181
61 99 181
62 99 181
61 99 181
62 99 181
62 99 181
61 99 181
61 99 181
62 99 181
62 99 181
61 98 179
62 99 180
62 99 181
62 99 180
62 99 179
61 98 179
62 98 178
62 99 180
61 98 179
62 99 178
62 99 179
61 98 179
62 99 176
61 98 178
61 98 177
62 99 179
62 98 176
61 97 172
62 99 178
103 119 165
160 156 139
197 182 114
197 182 114
196 181 114
195 181 114
194 181 114
194 180 114
193 180 114
192 180 114
192 179 114
191 179 114
190 179 114
190 178 114
189 178 114
188 178 114
188 177 114
187 177 114
186 177 114
186 177 114
185 176 114
185 176 114
184 176 114
184 176 114
183 175 114
183 175 114
182 175 114
182 175 114
181 174 114
181 174 114
180 174 114
180 174 114
179 173 114
179 173 114
178 173 114
178 173 114
177 173 114
177 172 114
177 172 114
176 172 114
176 172 114
176 172 114
175 172 114
175 171 114
175 171 114
174 171 114
174 171 114
174 171 114
174 171 114
173 171 114
173 171 114
173 170 114
173 170 114
172 170 114
172 170 114
172 170 114
172 170 114
172 170 114
171 170 114
171 170 114
171 170 114
171 170 114
171 170 114
171 170 114
171 170 114
171 170 114
171 169 114
171 169 114
170 169 114
171 169 114
170 169 114
170 169 114
170 169 114
170 169 114
170 169 114
171 169 114
171 170 114
171 170 114
171 170 114
171 170 114
171 170 114
171 170 114
171 170 114
171 170 114
172 170 114
172 170 114
172 170 114
172 170 114
172 170 114
173 170 114
173 170 114
173 171 114
173 171 114
173 171 114
174 171 114
174 171 114
174 171 114
175 171 114
175 172 114
175 172 114
176 172 114
176 172 114
176 172 114
177 172 114
177 173 114
178 173 114
178 173 114
179 173 114
179 173 114
179 174 114
180 174 114
180 174 114
181 174 114
181 175 114
182 175 114
183 175 114
183 175 114
184 176 114
184 176 114
185 176 114
186 176 114
186 177 114
187 177 114
188 177 114
188 178 114
189 178 114
190 178 114
190 179 114
191 179 114
192 179 114
193 180 114
194 180 114
194 181 114
195 181 114
196 182 114
197 182 114
198 182 114
199 183 114
200 183 114
201 184 114
179 168 78
156 153 0
156 153 0
155 153 0
157 153 0
156 153 0
169 190 0
173 195 0
173 196 0
173 196 0
174 196 0
173 195 0
173 195 0
175 197 0
174 198 0
173 197 0
173 196 0
173 197 0
172 196 0
173 197 0
174 198 0
173 196 0
175 198 0
173 197 0
171 195 0
174 197 0
174 198 0
174 197 0
174 197 0
173 197 0
174 197 0
174 197 0
172 195 0
174 198 0
173 197 0
172 195 0
170 194 0
171 195 0
174 198 0
173 196 0
174 198 0
174 198 0
174 197 0
174 198 0
173 196 0
174 196 0
173 196 0
174 198 0
174 198 0
171 194 0
174 197 0
173 197 0
173 197 0
173 196 0
176 198 0
172 196 0
175 197 0
173 196 0
172 196 0
172 196 0
172 196 0
175 198 0
174 197 0
173 197 0
172 196 0
174 198 0
174 198 0
170 193 0
173 196 0
172 196 0
171 195 0
173 197 0
174 197 0
173 196 0
172 195 0
173 197 0
172 194 0
171 194 0
174 197 0
174 197 0
174 197 0
172 196 0
175 198 0
171 194 0
173 196 0
171 195 0
173 196 0
174 197 0
170 194 0
173 196 0
171 195 0
174 197 0
175 198 0
175 198 0
173 196 0
173 196 0
170 193 0
173 196 0
174 197 0
174 197 0
171 195 0
173 197 0
172 196 0
174 197 0
172 195 0
174 196 0
172 195 0
172 195 0
174 197 0
170 194 0
172 196 0
175 198 0
172 195 0
173 196 0
172 195 0
173 196 0
171 195 0
172 195 0
174 197 0
171 195 0
171 195 0
171 194 0
172 195 0
172 196 0
170 194 0
171 195 0
171 195 0
173 196 0
172 195 0
171 195 0
170 193 0
171 194 0
172 195 0
175 198 0
173 196 0
173 196 0
173 196 0
173 197 0
173 196 0
174 196 0
175 197 0
172 195 0
171 195 0
174 197 0
172 195 0
174 197 0
172 196 0
174 197 0
172 195 0
171 195 0
172 195 0
173 195 0
172 195 0
173 196 0
170 192 0
172 194 0
173 196 0
172 196 0
172 196 0
173 196 0
171 194 0
174 196 0
172 196 0
163 186 65
98 127 156
62 99 178
62 99 180
62 99 177
62 99 176
62 99 178
62 98 175
62 99 175
62 99 179
62 99 180
62 99 178
62 99 180
62 99 180
62 99 181
61 98 178
62 99 179
62 99 181
62 99 181
61 98 181
61 99 181
62 99 179
62 99 181
62 99 180
62 99 181
62 99 181
62 99 181
62 99 181
62 99 181
62 99 181
61 99 181
61 99 181
61 99 181
62 99 181
62 99 181
62 99 181
61 98 181
61 98 181
62 99 181
61 98 181
62 99 181
62 99 181
62 99 181
61 99 181
61 99 181
61 99 181
61 99 181
61 99 181
61 99 181
61 99 181
62 99 181
61 98 181
61 99 181
61 98 181
62 99 181
61 99 181
62 99 181
62 99 181
61 98 181
61 98 181
62 99 181
61 98 181
61 98 181
62 99 181
61 98 181
61 99 181
62 99 181
62 99 181
61 98 181
62 99 181
61 99 181
61 99 181
61 99 181
62 99 181
62 99 181
62 99 180
61 99 181
62 99 181
62 99 180
61 98 178
61 98 180
62 99 179
61 99 180
61 99 181
62 98 178
62 99 179
62 99 180
61 98 179
61 98 178
61 99 180
62 98 178
61 98 176
62 98 178
62 99 176
62 99 180
62 99 180
61 98 176
62 98 176
62 98 173
125 132 156
183 172 123
196 182 114
195 181 114
195 181 114
194 180 114
193 180 114
193 180 114
192 179 114
191 179 114
191 179 114
190 179 114
189 178 114
189 178 114
188 178 114
187 177 114
187 177 114
186 177 114
186 177 114
185 176 114
185 176 114
184 176 114
184 175 114
183 175 114
182 175 114
182 175 114
182 175 114
181 174 114
181 174 114
180 174 114
180 174 114
179 173 114
179 173 114
178 173 114
178 173 114
178 173 114
177 173 114
177 172 114
177 172 114
176 172 114
176 172 114
176 172 114
175 172 114
175 171 114
175 171 114
174 171 114
174 171 114
174 171 114
174 171 114
173 171 114
173 171 114
173 171 114
173 170 114
173 170 114
172 170 114
172 170 114
172 170 114
172 170 114
172 170 114
172 170 114
171 170 114
171 170 114
171 170 114
171 170 114
171 170 114
171 170 114
171 170 114
171 170 114
171 170 114
171 170 114
171 170 114
171 170 114
171 170 114
171 170 114
171 170 114
171 170 114
171 170 114
171 170 114
172 170 114
172 170 114
172 170 114
172 170 114
172 170 114
172 170 114
172 170 114
173 170 114
173 171 114
173 171 114
173 171 114
173 171 114
174 171 114
174 171 114
174 171 114
175 171 114
175 171 114
175 172 114
176 172 114
176 172 114
176 172 114
177 172 114
177 172 114
177 173 114
178 173 114
178 173 114
179 173 114
179 173 114
179 174 114
180 174 114
180 174 114
181 174 114
181 174 114
182 175 114
182 175 114
183 175 114
184 175 114
184 176 114
185 176 114
185 176 114
186 177 114
187 177 114
187 177 114
188 178 114
189 178 114
189 178 114
190 178 114
191 179 114
191 179 114
192 180 114
193 180 114
194 180 114
195 181 114
195 181 114
196 182 114
197 182 114
198 182 114
199 183 114
200 183 114
201 184 114
173 164 66
156 153 0
156 153 0
155 153 0
157 153 0
156 153 0
171 189 0
174 197 0
173 197 0
175 196 0
173 196 0
173 196 0
174 196 0
173 195 0
177 199 0
173 197 0
175 198 0
175 198 0
175 198 0
173 197 0
173 197 0
173 196 0
170 194 0
173 196 0
173 196 0
173 197 0
175 198 0
173 197 0
174 197 0
175 198 0
173 196 0
171 195 0
171 195 0
173 196 0
175 198 0
172 196 0
172 196 0
173 196 0
172 196 0
172 195 0
171 195 0
174 197 0
173 197 0
174 196 0
173 196 0
173 196 0
174 197 0
173 196 0
174 197 0
175 198 0
174 198 0
172 195 0
173 197 0
174 197 0
174 197 0
174 198 0
174 197 0
173 197 0
173 197 0
171 195 0
172 196 0
170 194 0
172 197 0
173 197 0
172 196 0
173 196 0
174 197 0
174 197 0
174 197 0
174 197 0
171 194 0
172 195 0
173 197 0
176 198 0
174 197 0
174 196 0
173 196 0
175 198 0
173 196 0
173 196 0
174 197 0
172 196 0
173 196 0
173 197 0
174 197 0
172 195 0
175 198 0
171 194 0
175 198 0
173 196 0
172 195 0
172 195 0
174 197 0
171 194 0
176 198 0
172 196 0
173 196 0
173 197 0
173 197 0
173 197 0
174 196 0
172 195 0
174 197 0
172 196 0
173 196 0
174 197 0
170 194 0
172 195 0
173 195 0
172 195 0
173 197 0
175 197 0
173 196 0
171 195 0
175 197 0
172 195 0
175 197 0
170 194 0
176 198 0
172 195 0
173 196 0
174 197 0
172 195 0
170 193 0
174 197 0
172 195 0
174 197 0
173 196 0
171 194 0
176 198 0
172 195 0
175 198 0
171 195 0
174 197 0
173 197 0
172 195 0
172 196 0
175 197 0
171 195 0
172 196 0
170 191 0
171 194 0
172 196 0
175 198 0
171 196 0
174 197 0
172 196 0
173 196 0
173 196 0
173 196 0
172 195 0
172 196 0
175 197 0
172 195 0
170 193 0
171 194 0
173 197 0
172 195 0
173 196 0
172 195 0
170 193 0
169 193 0
133 157 118
77 110 170
61 98 173
62 99 176
62 99 177
61 98 175
63 100 180
62 99 178
62 99 180
62 99 179
61 99 180
62 99 180
61 98 179
62 99 181
62 99 180
62 99 180
62 99 179
61 99 180
61 99 180
62 99 180
61 99 181
62 99 181
62 99 181
61 99 180
61 99 181
62 99 181
61 99 181
62 99 180
61 99 181
62 99 181
62 99 181
61 98 181
62 99 181
61 99 181
62 99 181
62 99 181
61 98 181
61 98 181
61 98 181
61 99 181
62 99 181
63 100 181
62 99 181
62 99 181
61 98 181
61 98 181
61 99 181
61 98 181
61 98 181
61 99 181
61 98 181
61 99 181
62 99 181
61 99 181
61 99 181
61 99 181
62 99 181
61 98 181
62 99 181
61 98 181
61 99 181
61 99 181
62 99 181
61 98 181
61 98 181
61 99 181
61 98 181
61 98 181
62 99 181
62 99 180
61 99 181
62 99 181
61 99 181
62 99 181
61 99 181
61 98 180
62 99 181
62 99 181
62 99 180
61 99 181
61 99 181
62 99 180
61 99 180
61 98 179
62 99 180
62 99 180
62 99 180
62 98 178
62 99 181
62 99 179
62 99 179
61 98 176
61 98 180
62 99 179
61 98 177
62 99 177
61 98 178
62 99 179
61 98 176
61 98 177
61 97 172
79 106 171
159 155 143
195 181 115
195 181 114
194 181 114
194 180 114
193 180 114
192 180 114
192 179 114
191 179 114
190 179 114
190 178 114
189 178 114
189 178 114
188 178 114
187 177 114
187 177 114
186 177 114
186 176 114
185 176 114
185 176 114
184 176 114
184 175 114
183 175 114
182 175 114
182 175 114
182 175 114
181 174 114
181 174 114
180 174 114
180 174 114
179 174 114
179 173 114
179 173 114
178 173 114
178 173 114
177 173 114
177 172 114
177 172 114
176 172 114
176 172 114
176 172 114
176 172 114
175 172 114
175 171 114
175 171 114
174 171 114
174 171 114
174 171 114
174 171 114
173 171 114
173 171 114
173 171 114
173 171 114
173 170 114
173 170 114
172 170 114
172 170 114
172 170 114
172 170 114
172 170 114
172 170 114
172 170 114
172 170 114
172 170 114
172 170 114
172 170 114
172 170 114
172 170 114
172 170 114
172 170 114
172 170 114
172 170 114
172 170 114
172 170 114
172 170 114
172 170 114
172 170 114
172 170 114
172 170 114
173 170 114
173 170 114
173 171 114
173 171 114
173 171 114
173 171 114
174 171 114
174 171 114
174 171 114
174 171 114
175 171 114
175 171 114
175 172 114
175 172 114
176 172 114
176 172 114
176 172 114
177 172 114
177 172 114
177 173 114
178 173 114
178 173 114
179 173 114
179 173 114
180 174 114
180 174 114
180 174 114
181 174 114
181 174 114
182 175 114
182 175 114
183 175 114
183 175 114
184 176 114
185 176 114
185 176 114
186 177 114
186 177 114
187 177 114
188 177 114
188 178 114
189 178 114
190 178 114
190 179 114
191 179 114
192 179 114
192 180 114
193 180 114
194 180 114
195 181 114
196 181 114
197 182 114
197 182 114
198 183 114
199 183 114
200 184 114
201 184 114
166 160 53
157 154 0
156 153 0
157 153 0
156 153 0
154 152 0
168 183 0
174 197 0
172 195 0
174 196 0
175 198 0
174 197 0
172 195 0
174 197 0
174 197 0
171 195 0
172 196 0
175 197 0
175 197 0
173 197 0
173 197 0
172 196 0
174 198 0
173 196 0
174 197 0
172 196 0
174 197 0
174 197 0
172 196 0
175 198 0
174 197 0
174 197 0
175 198 0
176 199 0
174 196 0
175 198 0
174 197 0
171 194 0
175 197 0
174 197 0
172 196 0
173 196 0
175 198 0
172 195 0
173 197 0
171 195 0
175 198 0
173 196 0
176 198 0
173 197 0
173 196 0
174 197 0
172 196 0
172 195 0
173 197 0
175 198 0
173 197 0
174 197 0
172 195 0
174 196 0
175 197 0
172 194 0
174 197 0
173 196 0
175 198 0
171 195 0
173 197 0
173 196 0
172 196 0
172 196 0
172 195 0
172 196 0
174 197 0
174 197 0
172 196 0
173 196 0
173 197 0
173 197 0
172 196 0
173 196 0
174 196 0
173 197 0
174 197 0
173 196 0
174 197 0
170 194 0
174 197 0
170 194 0
174 197 0
173 197 0
176 198 0
175 198 0
174 197 0
170 194 0
172 194 0
170 194 0
172 195 0
173 196 0
171 195 0
171 195 0
174 197 0
172 195 0
173 196 0
175 197 0
172 196 0
174 197 0
174 197 0
173 196 0
173 196 0
173 196 0
173 196 0
171 194 0
172 194 0
173 197 0
174 197 0
172 195 0
172 195 0
172 196 0
172 195 0
171 194 0
174 196 0
171 195 0
172 196 0
174 196 0
173 196 0
173 197 0
175 198 0
173 196 0
172 196 0
173 197 0
171 194 0
171 196 0
171 195 0
174 197 0
173 196 0
172 196 0
173 196 0
171 195 0
170 194 0
170 193 0
174 196 0
174 196 0
175 197 0
172 195 0
173 196 0
170 193 0
172 195 0
171 194 0
169 193 0
174 197 0
174 196 0
172 195 0
173 196 0
171 196 0
173 196 0
171 194 0
175 197 0
171 194 0
171 194 0
174 196 0
169 192 40
98 127 154
61 98 173
63 99 177
63 99 180
62 99 178
63 100 178
61 99 179
62 99 177
62 99 176
61 98 178
61 99 181
61 99 179
62 99 181
61 99 179
62 99 181
62 99 180
62 99 181
62 99 180
62 99 180
62 99 181
61 99 181
62 99 181
61 98 179
62 99 181
62 99 181
62 99 181
62 99 181
61 99 181
61 99 181
62 99 181
62 99 181
62 99 181
62 99 181
61 98 181
62 99 181
61 99 181
61 99 181
61 99 181
61 99 181
62 99 181
61 98 181
62 99 181
62 99 181
61 99 181
61 99 181
61 99 181
61 99 181
62 99 181
61 99 181
62 99 181
62 99 181
61 99 181
61 99 181
61 98 181
62 99 181
61 99 181
61 99 181
62 99 181
62 99 181
61 99 181
61 98 181
62 99 181
62 99 181
61 99 181
61 98 181
61 99 181
61 99 181
62 99 181
62 99 181
62 99 181
61 99 181
61 98 181
61 98 180
62 99 181
61 98 181
61 99 181
61 99 181
61 99 181
62 99 180
61 99 181
61 99 181
62 99 181
62 99 179
61 98 181
62 99 178
62 99 179
62 99 179
62 99 180
62 99 181
62 99 181
61 98 177
62 99 180
62 99 178
62 99 179
61 98 176
61 98 176
62 99 178
62 99 179
62 98 177
62 99 178
62 99 178
61 98 176
62 98 174
62 99 177
108 122 162
182 171 124
195 181 114
194 180 114
193 180 114
193 180 114
192 180 114
191 179 114
191 179 114
190 179 114
190 178 114
189 178 114
188 178 114
188 177 114
187 177 114
187 177 114
186 177 114
186 176 114
185 176 114
185 176 114
184 176 114
183 175 114
183 175 114
183 175 114
182 175 114
182 175 114
181 174 114
181 174 114
180 174 114
180 174 114
180 174 114
179 173 114
179 173 114
178 173 114
178 173 114
178 173 114
177 173 114
177 172 114
177 172 114
176 172 114
176 172 114
176 172 114
176 172 114
175 172 114
175 172 114
175 171 114
175 171 114
174 171 114
174 171 114
174 171 114
174 171 114
174 171 114
173 171 114
173 171 114
173 171 114
173 171 114
173 171 114
173 170 114
173 170 114
173 170 114
172 170 114
172 170 114
172 170 114
172 170 114
172 170 114
172 170 114
172 170 114
172 170 114
172 170 114
172 170 114
172 170 114
172 170 114
173 170 114
173 170 114
173 170 114
173 170 114
173 171 114
173 171 114
173 171 114
173 171 114
173 171 114
174 171 114
174 171 114
174 171 114
174 171 114
174 171 114
175 171 114
175 171 114
175 172 114
175 172 114
176 172 114
176 172 114
176 172 114
177 172 114
177 172 114
177 173 114
178 173 114
178 173 114
178 173 114
179 173 114
179 173 114
180 174 114
180 174 114
180 174 114
181 174 114
181 174 114
182 175 114
182 175 114
183 175 114
183 175 114
184 176 114
184 176 114
185 176 114
185 176 114
186 177 114
187 177 114
187 177 114
188 178 114
189 178 114
189 178 114
190 179 114
191 179 114
191 179 114
192 180 114
193 180 114
193 180 114
194 181 114
195 181 114
196 181 114
197 182 114
198 182 114
199 183 114
199 183 114
200 184 114
201 184 114
161 156 36
155 153 0
157 154 0
156 153 0
156 153 0
158 154 0
164 175 0
174 197 0
173 196 0
173 196 0
174 195 0
173 196 0
172 196 0
174 197 0
173 196 0
174 197 0
172 195 0
174 197 0
173 197 0
172 195 0
173 196 0
173 196 0
173 197 0
174 197 0
174 197 0
174 197 0
174 197 0
172 195 0
172 196 0
175 198 0
173 196 0
173 197 0
173 196 0
173 196 0
175 198 0
172 196 0
170 193 0
173 195 0
173 197 0
175 198 0
172 197 0
174 198 0
174 197 0
170 194 0
170 194 0
171 195 0
173 197 0
174 197 0
173 196 0
172 196 0
177 199 0
175 198 0
175 198 0
173 197 0
173 197 0
173 196 0
176 198 0
174 197 0
173 195 0
173 195 0
175 198 0
167 190 0
172 196 0
175 198 0
173 196 0
173 197 0
172 196 0
174 197 0
172 196 0
174 197 0
172 195 0
172 196 0
174 196 0
173 197 0
172 195 0
174 197 0
172 195 0
174 196 0
174 197 0
172 196 0
174 197 0
170 193 0
172 194 0
174 197 0
174 197 0
174 196 0
172 195 0
172 196 0
172 196 0
171 194 0
174 197 0
173 196 0
175 198 0
172 196 0
175 198 0
173 197 0
173 195 0
172 196 0
174 198 0
174 197 0
171 195 0
172 195 0
173 196 0
171 194 0
174 197 0
175 198 0
172 195 0
174 197 0
174 198 0
173 196 0
170 193 0
169 192 0
174 197 0
174 196 0
172 194 0
174 198 0
176 199 0
171 195 0
173 196 0
171 195 0
170 194 0
170 192 0
173 195 0
171 195 0
173 196 0
172 195 0
171 194 0
173 196 0
172 195 0
173 195 0
172 195 0
173 196 0
173 196 0
172 194 0
173 196 0
173 196 0
171 195 0
172 196 0
173 196 0
175 197 0
172 195 0
173 196 0
173 197 0
170 193 0
171 194 0
170 193 0
171 194 0
168 192 0
172 196 0
169 192 0
173 196 0
173 196 0
173 197 0
173 196 0
170 193 0
172 195 0
174 195 0
171 194 0
170 193 0
138 164 107
72 106 171
62 99 178
61 98 173
62 99 176
62 99 177
63 100 179
62 99 178
61 99 177
61 99 181
62 99 177
62 99 180
62 99 181
62 99 180
62 99 181
62 99 181
62 99 180
62 99 181
62 99 179
61 99 180
62 99 179
62 99 181
62 99 181
62 99 181
61 98 181
62 99 181
61 99 181
61 99 181
61 98 181
62 99 181
61 99 181
62 99 181
62 99 181
62 99 181
62 99 181
62 99 181
61 98 181
61 99 181
61 98 181
62 99 181
61 99 181
62 99 181
61 99 181
61 99 181
61 99 181
62 99 181
62 99 181
62 99 181
62 99 181
61 99 181
62 99 181
62 99 181
61 99 181
61 99 181
61 99 181
61 99 181
62 99 181
62 99 181
61 99 181
61 98 181
61 98 181
61 99 181
62 99 181
61 98 181
62 99 181
61 99 181
61 99 181
61 99 181
61 99 181
62 99 181
62 99 181
62 99 181
61 98 181
61 99 181
62 99 181
61 99 181
62 99 181
62 99 181
62 99 181
62 99 181
61 98 181
61 99 179
62 99 181
61 99 181
61 99 180
62 99 181
61 99 179
62 98 178
62 99 181
62 99 180
61 99 181
62 99 179
61 99 180
62 99 179
62 99 178
61 99 178
62 99 180
61 98 176
62 99 176
62 99 178
61 98 179
61 98 177
62 98 176
62 98 175
61 97 175
62 99 176
62 98 174
76 104 167
160 156 139
194 181 114
194 180 114
193 180 114
192 180 114
192 179 114
191 179 114
191 179 114
190 179 114
189 178 114
189 178 114
188 178 114
188 177 114
187 177 114
187 177 114
186 177 114
185 176 114
185 176 114
185 176 114
184 176 114
184 175 114
183 175 114
183 175 114
182 175 114
182 175 114
181 174 114
181 174 114
180 174 114
180 174 114
180 174 114
179 174 114
179 173 114
179 173 114
178 173 114
178 173 114
178 173 114
177 173 114
177 172 114
177 172 114
176 172 114
176 172 114
176 172 114
176 172 114
175 172 114
175 172 114
175 171 114
175 171 114
175 171 114
174 171 114
174 171 114
174 171 114
174 171 114
174 171 114
174 171 114
173 171 114
173 171 114
173 171 114
173 171 114
173 171 114
173 171 114
173 171 114
173 171 114
173 171 114
173 171 114
173 171 114
173 171 114
173 171 114
173 171 114
173 171 114
173 171 114
173 171 114
173 171 114
173 171 114
173 171 114
173 171 114
174 171 114
174 171 114
174 171 114
174 171 114
174 171 114
174 171 114
175 171 114
175 171 114
175 172 114
175 172 114
175 172 114
176 172 114
176 172 114
176 172 114
177 172 114
177 172 114
177 173 114
177 173 114
178 173 114
178 173 114
179 173 114
179 173 114
179 173 114
180 174 114
180 174 114
181 174 114
181 174 114
181 174 114
182 175 114
182 175 114
183 175 114
183 175 114
184 176 114
184 176 114
185 176 114
185 176 114
186 177 114
187 177 114
187 177 114
188 177 114
188 178 114
189 178 114
190 178 114
190 179 114
191 179 114
192 179 114
192 180 114
193 180 114
194 180 114
195 181 114
195 181 114
196 182 114
197 182 114
198 182 114
199 183 114
200 183 114
201 184 114
200 183 112
157 154 11
155 153 0
156 153 0
157 154 0
157 153 0
156 153 0
162 169 0
174 197 0
173 196 0
173 196 0
172 194 0
173 196 0
173 196 0
172 196 0
173 197 0
175 197 0
174 197 0
173 196 0
173 196 0
175 198 0
173 196 0
173 197 0
173 196 0
173 197 0
170 194 0
174 198 0
173 196 0
176 198 0
173 196 0
171 195 0
172 195 0
173 197 0
174 198 0
173 197 0
173 196 0
175 198 0
173 196 0
172 196 0
173 197 0
175 198 0
171 195 0
176 199 0
174 197 0
173 196 0
171 195 0
173 196 0
173 197 0
176 198 0
174 197 0
174 198 0
172 196 0
173 197 0
174 197 0
174 198 0
174 197 0
173 196 0
174 197 0
172 196 0
173 195 0
173 197 0
174 197 0
175 198 0
174 197 0
172 196 0
173 196 0
172 196 0
175 198 0
173 197 0
171 194 0
174 198 0
171 195 0
174 197 0
173 196 0
172 195 0
171 195 0
173 196 0
172 195 0
167 192 0
174 197 0
170 194 0
174 196 0
174 197 0
172 196 0
175 198 0
173 196 0
173 197 0
175 198 0
174 197 0
172 195 0
173 197 0
173 197 0
174 196 0
172 196 0
172 195 0
174 198 0
171 194 0
173 196 0
174 197 0
173 196 0
173 196 0
174 197 0
173 196 0
172 196 0
173 196 0
174 197 0
173 195 0
173 196 0
171 195 0
170 193 0
172 195 0
175 198 0
173 196 0
173 195 0
172 195 0
172 195 0
173 197 0
172 195 0
174 197 0
172 195 0
175 197 0
174 197 0
173 196 0
174 197 0
173 197 0
175 198 0
171 195 0
170 194 0
173 196 0
172 196 0
171 193 0
173 196 0
172 195 0
175 198 0
173 196 0
172 196 0
173 196 0
171 195 0
174 197 0
173 196 0
174 197 0
174 197 0
174 196 0
173 197 0
172 195 0
170 194 0
171 194 0
172 196 0
174 197 0
171 194 0
173 194 0
172 194 0
171 194 0
171 194 0
172 196 0
172 196 0
172 195 0
169 193 0
172 195 31
107 133 139
62 99 179
62 99 178
62 99 176
62 99 179
62 99 178
62 99 177
62 99 180
62 99 176
62 99 178
62 99 178
62 99 178
62 99 179
62 99 179
62 99 181
62 99 180
62 99 179
62 99 180
61 98 180
61 99 181
62 99 181
61 99 180
62 99 181
62 99 181
62 99 181
62 99 181
62 99 181
61 99 181
62 99 181
61 98 180
61 98 180
62 99 181
61 99 181
62 99 181
61 99 181
62 99 181
61 99 181
61 99 181
62 99 181
61 99 181
62 99 181
62 99 181
62 99 181
61 98 181
61 99 181
62 99 181
61 99 181
61 99 181
62 99 181
61 98 181
61 99 181
61 99 181
62 99 181
61 98 181
61 98 181
61 98 181
61 99 181
61 99 181
62 99 181
61 98 181
62 99 181
61 99 181
61 98 181
62 99 181
61 99 181
62 99 181
61 99 181
61 99 181
62 99 181
61 99 181
61 98 181
61 98 181
62 99 181
62 99 181
61 99 181
61 99 181
62 99 181
61 99 181
62 99 181
62 99 181
61 99 181
62 99 181
62 99 181
62 99 181
61 99 180
61 98 178
61 98 179
62 99 179
62 99 179
62 98 174
61 98 179
61 99 180
61 98 175
61 99 181
62 99 178
61 98 179
62 99 177
62 99 180
61 99 179
62 99 180
62 99 178
62 99 177
62 99 179
62 99 178
62 98 174
61 98 177
62 98 176
62 98 174
62 98 174
62 98 175
121 129 154
191 178 115
193 180 114
193 180 114
192 180 114
192 179 114
191 179 114
190 179 114
190 178 114
189 178 114
189 178 114
188 178 114
188 177 114
178 170 110
158 152 103
153 149 102
141 139 96
124 126 93
141 140 98
137 136 98
157 153 105
170 164 109
181 174 113
182 175 114
182 175 114
181 174 114
181 174 114
181 174 114
180 174 114
180 174 114
180 174 114
179 173 114
179 173 114
178 173 114
178 173 114
178 173 114
178 173 114
177 173 114
177 172 114
177 172 114
176 172 114
176 172 114
176 172 114
176 172 114
176 172 114
175 172 114
175 172 114
175 172 114
175 171 114
175 171 114
174 171 114
174 171 114
174 171 114
174 171 114
174 171 114
174 171 114
174 171 114
174 171 114
174 171 114
174 171 114
174 171 114
174 171 114
174 171 114
174 171 114
174 171 114
174 171 114
174 171 114
174 171 114
174 171 114
174 171 114
174 171 114
174 171 114
174 171 114
174 171 114
174 171 114
174 171 114
174 171 114
175 171 114
175 171 114
175 172 114
175 172 114
175 172 114
176 172 114
176 172 114
176 172 114
176 172 114
177 172 114
177 172 114
177 172 114
177 173 114
178 173 114
178 173 114
178 173 114
179 173 114
179 173 114
179 174 114
180 174 114
180 174 114
181 174 114
181 174 114
181 174 114
182 175 114
182 175 114
183 175 114
183 175 114
184 176 114
184 176 114
185 176 114
185 176 114
186 177 114
186 177 114
187 177 114
188 177 114
188 178 114
189 178 114
189 178 114
190 179 114
191 179 114
191 179 114
192 180 114
193 180 114
193 180 114
194 181 114
195 181 114
196 181 114
197 182 114
197 182 114
198 182 114
199 183 114
200 183 114
201 184 114
191 177 98
155 153 0
156 153 0
155 153 0
155 152 0
156 153 0
156 153 0
160 165 0
172 196 0
175 197 0
173 196 0
173 197 0
174 197 0
174 196 0
174 196 0
174 196 0
172 195 0
173 197 0
170 194 0
173 197 0
172 195 0
174 197 0
173 196 0
170 194 0
173 197 0
173 196 0
174 197 0
175 198 0
174 198 0
175 198 0
175 198 0
174 197 0
174 197 0
170 194 0
174 197 0
172 196 0
172 195 0
175 198 0
175 198 0
173 197 0
174 197 0
172 195 0
174 196 0
173 196 0
173 197 0
174 197 0
173 197 0
174 197 0
173 196 0
174 197 0
174 197 0
173 196 0
174 197 0
174 197 0
173 196 0
173 196 0
173 196 0
174 197 0
174 197 0
173 196 0
175 198 0
173 196 0
172 196 0
173 195 0
171 195 0
175 198 0
173 197 0
173 197 0
173 196 0
173 196 0
172 197 0
175 198 0
173 196 0
172 195 0
171 194 0
174 198 0
174 197 0
172 196 0
173 196 0
173 195 0
173 197 0
172 196 0
174 197 0
173 196 0
173 197 0
173 197 0
176 198 0
172 196 0
173 196 0
176 199 0
175 198 0
174 197 0
173 196 0
172 195 0
173 195 0
172 195 0
171 195 0
173 195 0
174 196 0
171 195 0
171 194 0
174 197 0
175 197 0
175 197 0
171 194 0
171 194 0
174 197 0
173 196 0
173 196 0
169 193 0
173 197 0
173 195 0
172 194 0
174 196 0
171 193 0
172 196 0
173 196 0
174 197 0
172 196 0
170 193 0
174 197 0
173 196 0
172 195 0
172 196 0
174 196 0
172 195 0
172 196 0
174 197 0
174 197 0
175 197 0
173 196 0
174 197 0
172 196 0
174 197 0
174 197 0
171 193 0
171 194 0
172 196 0
172 195 0
173 195 0
169 194 0
172 195 0
168 192 0
174 198 0
173 196 0
172 195 0
174 197 0
174 196 0
174 197 0
173 196 0
169 192 0
174 197 0
170 193 0
171 194 0
172 195 0
172 195 0
172 194 0
159 183 70
95 124 159
63 99 176
63 100 176
62 99 175
62 99 178
62 99 178
62 98 175
62 99 180
62 99 179
62 99 178
61 98 176
62 99 180
62 99 181
62 99 179
61 99 181
61 98 179
62 99 178
61 99 179
62 99 181
61 99 181
62 99 180
62 99 180
62 99 180
61 99 181
62 99 180
62 99 179
62 99 181
62 99 181
62 99 180
62 99 181
61 99 181
62 99 181
62 99 181
61 99 181
61 99 181
61 99 180
61 99 181
62 99 181
62 99 181
61 99 180
62 99 181
60 98 181
62 99 181
61 99 181
62 99 181
62 99 181
62 99 181
61 99 180
61 98 181
61 99 181
61 98 181
62 99 181
61 99 181
62 99 181
62 99 181
62 99 181
62 99 181
61 99 181
61 99 181
61 99 181
61 98 181
61 99 181
61 99 181
62 99 181
61 98 181
62 99 181
61 98 181
62 99 181
62 99 181
62 99 181
62 99 181
62 99 181
62 99 181
62 99 181
61 99 181
62 99 181
62 99 181
61 99 181
61 99 181
61 98 181
62 99 181
62 99 181
62 99 181
61 99 181
62 99 180
61 99 180
62 99 179
62 99 180
61 98 179
62 99 180
61 99 181
62 99 180
62 99 180
61 98 179
61 99 179
62 99 179
62 99 179
62 99 178
61 98 178
61 98 178
62 99 179
62 99 179
62 98 176
62 99 179
62 98 175
61 98 176
62 99 177
62 99 177
63 99 174
62 98 175
61 98 175
61 97 173
92 113 167
181 171 123
193 180 114
193 180 114
192 180 114
191 179 114
191 179 114
190 179 114
185 175 113
152 147 99
116 118 89
68 83 77
55 74 73
54 74 73
54 73 72
55 74 71
54 73 72
55 75 74
55 74 74
55 75 77
54 74 73
60 79 78
92 101 86
124 126 94
147 145 103
182 175 114
181 174 114
181 174 114
180 174 114
180 174 114
180 174 114
179 174 114
179 173 114
179 173 114
179 173 114
178 173 114
178 173 114
178 173 114
177 173 114
177 172 114
177 172 114
177 172 114
176 172 114
176 172 114
176 172 114
176 172 114
176 172 114
175 172 114
175 172 114
175 172 114
175 172 114
175 171 114
175 171 114
175 171 114
175 171 114
175 171 114
174 171 114
174 171 114
174 171 114
174 171 114
174 171 114
174 171 114
174 171 114
174 171 114
174 171 114
174 171 114
174 171 114
174 171 114
174 171 114
174 171 114
175 171 114
175 171 114
175 171 114
175 171 114
175 172 114
175 172 114
175 172 114
175 172 114
176 172 114
176 172 114
176 172 114
176 172 114
176 172 114
177 172 114
177 172 114
177 173 114
177 173 114
178 173 114
178 173 114
178 173 114
179 173 114
179 173 114
179 174 114
180 174 114
180 174 114
180 174 114
181 174 114
181 174 114
182 175 114
182 175 114
182 175 114
183 175 114
183 175 114
184 176 114
184 176 114
185 176 114
185 176 114
186 177 114
186 177 114
187 177 114
187 177 114
188 178 114
189 178 114
189 178 114
190 178 114
190 179 114
191 179 114
192 179 114
192 180 114
193 180 114
194 180 114
195 181 114
195 181 114
196 181 114
197 182 114
198 182 114
198 183 114
199 183 114
200 183 114
201 184 114
183 171 84
156 153 0
157 153 0
156 153 0
156 153 0
156 153 0
155 152 0
159 160 0
174 197 0
174 196 0
172 196 0
176 198 0
174 196 0
173 197 0
173 196 0
174 198 0
173 197 0
172 195 0
176 199 0
173 197 0
173 197 0
174 197 0
170 195 0
174 197 0
173 197 0
175 198 0
174 198 0
175 198 0
172 196 0
173 197 0
171 195 0
175 198 0
173 196 0
175 198 0
172 195 0
173 196 0
174 198 0
173 197 0
171 195 0
174 197 0
172 195 0
172 195 0
172 196 0
174 197 0
173 196 0
174 197 0
174 198 0
175 197 0
173 197 0
176 199 0
173 195 0
175 197 0
173 196 0
172 196 0
173 196 0
175 198 0
173 197 0
174 197 0
173 196 0
171 194 0
174 197 0
175 198 0
175 197 0
173 197 0
172 196 0
171 194 0
173 196 0
174 197 0
172 195 0
173 196 0
173 196 0
173 196 0
175 198 0
173 197 0
171 195 0
171 195 0
176 198 0
172 196 0
174 196 0
171 195 0
174 197 0
171 195 0
172 194 0
175 198 0
173 196 0
173 196 0
174 197 0
173 196 0
173 197 0
175 198 0
172 195 0
171 194 0
170 194 0
173 197 0
176 199 0
171 194 0
175 198 0
171 194 0
171 195 0
172 195 0
171 194 0
172 195 0
175 198 0
173 197 0
173 197 0
174 197 0
173 196 0
174 196 0
173 196 0
172 195 0
172 196 0
174 198 0
174 197 0
173 196 0
172 195 0
172 196 0
174 197 0
171 194 0
171 195 0
173 196 0
172 195 0
172 196 0
173 196 0
172 196 0
173 195 0
172 196 0
172 195 0
172 196 0
171 195 0
171 194 0
172 195 0
174 197 0
168 191 0
173 197 0
172 193 0
173 196 0
173 196 0
174 196 0
171 195 0
173 196 0
175 197 0
174 196 0
173 197 0
174 197 0
172 194 0
170 194 0
172 195 0
171 194 0
170 193 0
172 196 0
170 194 0
172 194 0
172 194 0
173 196 0
173 196 0
171 193 0
143 167 103
74 107 167
62 99 178
62 99 177
62 99 179
62 99 179
62 99 176
62 99 176
62 99 179
62 99 178
62 99 180
62 99 179
62 99 181
62 99 177
62 99 180
62 99 180
62 99 181
61 99 179
62 99 181
61 99 181
62 99 181
62 99 179
61 99 179
62 99 181
62 99 180
62 99 181
62 99 180
61 99 180
62 99 181
62 99 180
61 99 181
62 99 181
61 98 181
62 99 181
62 99 180
62 99 181
62 99 181
62 99 181
62 99 181
61 99 181
61 98 181
61 99 181
61 99 181
62 99 181
61 99 181
62 99 181
62 99 181
62 99 181
62 99 181
62 99 181
62 99 181
62 99 181
61 99 181
62 99 181
61 99 181
61 99 181
61 99 181
62 99 181
62 99 181
61 99 181
61 99 181
62 99 181
62 99 181
62 99 181
61 99 181
61 98 181
62 99 181
61 98 181
61 99 181
62 99 181
62 99 181
61 99 181
62 99 181
61 99 181
62 99 181
61 99 181
61 98 181
62 99 181
62 99 181
61 99 181
61 99 181
62 99 181
61 98 179
62 99 181
62 99 181
61 99 181
61 99 180
61 99 181
61 99 181
61 99 180
61 98 178
62 99 181
61 98 178
62 99 180
62 99 179
62 99 181
61 98 179
62 99 178
62 99 180
62 99 177
62 99 179
62 99 179
62 98 177
62 99 177
62 99 178
61 98 173
62 99 176
62 99 177
61 98 178
62 98 178
62 98 172
62 98 177
62 98 174
61 97 170
62 98 172
69 100 169
159 155 138
193 180 114
193 180 114
192 179 114
184 173 111
117 118 86
65 81 75
54 72 67
55 74 72
54 73 71
53 71 68
53 71 69
54 74 74
54 73 72
53 71 70
54 74 73
54 74 73
55 74 75
54 73 73
54 74 73
54 73 72
54 74 74
54 74 75
71 86 80
132 132 96
172 166 111
181 174 114
181 174 114
180 174 114
180 174 114
180 174 114
179 174 114
179 173 114
179 173 114
179 173 114
178 173 114
178 173 114
178 173 114
178 173 114
177 173 114
177 172 114
177 172 114
177 172 114
176 172 114
176 172 114
176 172 114
176 172 114
176 172 114
176 172 114
176 172 114
175 172 114
175 172 114
175 172 114
175 172 114
175 172 114
175 172 114
175 172 114
175 171 114
175 171 114
175 171 114
175 171 114
175 171 114
175 171 114
175 171 114
175 172 114
175 172 114
175 172 114
175 172 114
175 172 114
175 172 114
175 172 114
176 172 114
176 172 114
176 172 114
176 172 114
176 172 114
176 172 114
176 172 114
177 172 114
177 172 114
177 172 114
177 173 114
178 173 114
178 173 114
178 173 114
178 173 114
179 173 114
179 173 114
179 173 114
180 174 114
180 174 114
180 174 114
181 174 114
181 174 114
181 174 114
182 175 114
182 175 114
183 175 114
183 175 114
183 175 114
184 176 114
184 176 114
185 176 114
185 176 114
186 177 114
186 177 114
187 177 114
187 177 114
188 178 114
188 178 114
189 178 114
190 178 114
190 179 114
191 179 114
191 179 114
192 180 114
193 180 114
193 180 114
194 181 114
195 181 114
196 181 114
196 182 114
197 182 114
198 182 114
199 183 114
200 183 114
200 184 114
201 184 114
176 166 72
155 153 0
157 154 0
158 154 0
157 153 0
156 152 0
154 152 0
154 152 0
171 194 0
174 196 0
172 195 0
173 195 0
174 196 0
174 196 0
174 196 0
174 198 0
174 197 0
170 194 0
174 197 0
175 198 0
173 196 0
176 198 0
173 196 0
173 197 0
174 197 0
173 196 0
173 196 0
174 197 0
171 195 0
173 197 0
172 195 0
174 198 0
175 197 0
172 197 0
171 195 0
175 198 0
176 198 0
173 197 0
175 198 0
173 196 0
173 197 0
173 196 0
172 195 0
174 197 0
172 196 0
174 197 0
173 196 0
173 197 0
174 197 0
173 196 0
173 196 0
171 194 0
172 196 0
174 197 0
174 197 0
172 196 0
174 197 0
172 196 0
172 195 0
174 198 0
175 198 0
172 194 0
172 196 0
174 197 0
174 196 0
173 196 0
172 195 0
173 197 0
174 197 0
174 197 0
171 195 0
174 197 0
170 194 0
172 196 0
173 196 0
175 198 0
174 197 0
174 197 0
173 196 0
172 196 0
175 198 0
174 196 0
170 195 0
173 196 0
173 197 0
172 195 0
172 195 0
174 196 0
173 196 0
172 196 0
173 197 0
173 196 0
172 196 0
172 195 0
173 196 0
172 194 0
172 195 0
169 192 0
171 194 0
172 195 0
172 196 0
173 197 0
174 198 0
173 195 0
169 192 0
173 196 0
171 195 0
171 194 0
172 194 0
172 194 0
173 196 0
171 195 0
174 197 0
171 194 0
172 196 0
170 194 0
173 196 0
172 195 0
171 195 0
171 196 0
172 195 0
171 195 0
171 194 0
168 192 0
170 194 0
170 193 0
173 196 0
170 193 0
173 195 0
170 194 0
174 196 0
174 197 0
173 196 0
174 197 0
167 190 0
172 194 0
172 194 0
171 194 0
171 194 0
173 196 0
170 193 0
171 194 0
173 196 0
171 194 0
173 196 0
168 192 0
173 196 0
171 195 0
174 197 0
172 196 0
172 194 0
173 195 0
169 191 0
171 195 0
172 195 18
127 152 125
62 99 175
62 99 175
62 99 179
62 99 177
62 99 178
62 99 179
63 99 176
62 99 179
62 99 179
62 99 179
62 99 180
62 99 179
62 99 176
62 99 176
61 99 180
62 99 181
62 99 178
61 99 178
62 99 181
62 99 181
62 99 180
62 99 181
62 99 180
62 99 179
62 99 181
62 99 181
62 99 181
62 99 180
62 99 180
61 99 181
62 99 181
62 99 181
62 99 181
62 99 181
62 99 181
62 99 181
62 99 181
62 99 181
61 99 180
61 99 181
60 98 181
61 99 181
62 99 181
61 99 181
61 99 181
61 99 181
61 98 181
62 99 181
61 99 181
62 99 181
62 99 181
61 99 181
62 99 181
62 99 181
61 99 181
61 99 181
62 99 181
61 99 181
61 99 181
62 99 181
61 99 181
62 99 181
61 99 180
62 99 181
61 99 181
61 99 181
62 99 181
62 99 180
62 99 181
61 99 181
61 99 181
62 99 181
61 98 181
62 99 181
62 99 181
61 99 181
62 99 181
62 99 181
62 99 180
61 98 181
62 99 181
62 99 181
62 99 181
62 99 181
62 99 181
62 99 181
62 99 181
61 99 180
62 99 181
62 99 180
62 99 180
61 99 180
62 99 180
61 98 180
62 99 181
62 99 179
62 99 180
62 99 179
62 99 177
62 99 178
62 99 180
62 99 179
62 99 179
61 98 177
62 98 177
62 99 180
62 99 177
61 98 177
62 99 176
62 99 179
62 99 177
61 98 175
62 98 177
62 98 175
61 98 174
61 97 172
61 97 170
136 140 148
181 170 112
120 120 87
60 76 71
54 74 73
52 70 66
53 72 70
53 72 70
53 71 68
52 70 69
53 72 70
53 72 70
53 72 69
53 72 72
54 73 72
53 72 71
54 72 70
54 73 74
54 74 74
53 73 73
54 74 74
55 74 75
54 74 75
55 74 75
57 76 77
112 117 91
166 161 109
181 174 114
181 174 114
180 174 114
180 174 114
180 174 114
179 174 114
179 173 114
179 173 114
179 173 114
178 173 114
178 173 114
178 173 114
178 173 114
178 173 114
177 173 114
177 172 114
177 172 114
177 172 114
177 172 114
176 172 114
176 172 114
176 172 114
176 172 114
176 172 114
176 172 114
176 172 114
176 172 114
176 172 114
176 172 114
176 172 114
176 172 114
176 172 114
176 172 114
176 172 114
176 172 114
176 172 114
176 172 114
176 172 114
176 172 114
176 172 114
176 172 114
176 172 114
176 172 114
176 172 114
176 172 114
176 172 114
177 172 114
177 172 114
177 172 114
177 172 114
177 173 114
177 173 114
178 173 114
178 173 114
178 173 114
178 173 114
179 173 114
179 173 114
179 173 114
179 174 114
180 174 114
180 174 114
180 174 114
181 174 114
181 174 114
182 175 114
182 175 114
182 175 114
183 175 114
183 175 114
183 175 114
184 176 114
184 176 114
185 176 114
185 176 114
186 177 114
186 177 114
187 177 114
187 177 114
188 177 114
188 178 114
189 178 114
189 178 114
190 179 114
191 179 114
191 179 114
192 179 114
192 180 114
193 180 114
194 180 114
194 181 114
195 181 114
196 181 114
197 182 114
197 182 114
198 183 114
199 183 114
200 183 114
201 184 114
201 184 114
157 154 22
155 153 0
156 153 0
155 153 0
156 153 0
155 152 0
155 153 0
156 153 0
174 196 0
173 196 0
173 196 0
172 195 0
173 196 0
173 196 0
174 197 0
173 197 0
174 198 0
174 197 0
173 197 0
171 196 0
172 195 0
175 198 0
174 197 0
174 197 0
172 195 0
175 198 0
174 198 0
173 197 0
172 195 0
175 198 0
172 196 0
173 197 0
172 194 0
172 196 0
172 195 0
171 195 0
173 196 0
172 195 0
173 196 0
175 198 0
172 195 0
171 195 0
172 195 0
173 197 0
173 196 0
173 196 0
174 197 0
174 197 0
174 197 0
172 196 0
174 198 0
173 196 0
174 197 0
172 195 0
172 196 0
174 196 0
173 196 0
174 197 0
174 198 0
173 196 0
174 197 0
172 195 0
172 196 0
174 197 0
170 193 0
173 196 0
173 197 0
174 197 0
173 196 0
173 196 0
172 196 0
169 193 0
172 195 0
173 196 0
173 196 0
173 196 0
174 197 0
172 195 0
174 197 0
172 195 0
172 196 0
172 196 0
170 193 0
173 196 0
173 196 0
173 196 0
172 195 0
172 195 0
173 195 0
172 195 0
175 197 0
170 194 0
174 196 0
175 198 0
169 193 0
172 195 0
174 197 0
171 195 0
170 194 0
171 194 0
172 195 0
173 196 0
172 195 0
171 195 0
171 195 0
173 196 0
172 195 0
173 197 0
171 194 0
172 196 0
169 193 0
173 196 0
172 195 0
171 195 0
173 195 0
172 195 0
172 196 0
171 194 0
173 196 0
172 194 0
170 194 0
171 194 0
170 193 0
173 197 0
171 195 0
172 196 0
171 195 0
174 197 0
175 197 0
173 195 0
173 195 0
172 194 0
171 193 0
171 193 0
171 194 0
173 197 0
172 195 0
174 197 0
171 194 0
174 197 0
169 192 0
170 194 0
172 195 0
172 195 0
171 195 0
172 196 0
169 193 0
173 196 0
174 196 0
172 196 0
167 191 0
173 197 0
171 195 0
166 190 31
101 129 149
62 99 172
62 99 178
62 99 176
62 99 176
62 99 174
62 99 175
62 99 178
62 99 180
62 99 175
61 99 179
62 99 177
61 99 179
61 98 177
62 99 179
62 99 179
61 99 181
62 99 181
61 98 179
62 99 180
62 99 179
62 99 181
62 99 179
62 99 180
61 99 180
62 99 181
62 99 179
62 99 179
62 99 180
61 99 181
61 99 181
62 99 181
62 99 180
62 99 181
63 100 181
62 99 181
62 99 181
62 99 181
61 99 181
62 99 181
61 98 181
62 99 181
61 99 180
62 99 181
62 99 181
62 99 181
61 99 180
62 99 181
62 99 181
62 99 181
61 98 180
62 99 181
61 98 181
61 98 181
62 99 181
62 99 181
62 99 181
61 98 181
62 99 181
62 99 181
61 99 181
62 99 181
61 99 181
61 98 181
61 99 181
61 99 181
62 99 181
62 99 181
61 99 181
61 99 181
62 99 181
62 99 181
62 99 181
61 99 181
61 98 180
62 99 181
61 99 181
62 99 181
62 99 181
61 99 181
62 99 181
61 99 181
61 99 180
62 99 181
62 99 179
62 99 181
62 99 180
62 99 181
62 99 180
61 99 179
62 99 181
62 99 180
61 98 179
62 99 181
62 99 178
62 99 180
61 99 180
62 99 180
61 99 180
62 99 179
62 99 179
62 99 179
62 99 180
61 98 176
61 98 176
62 99 179
62 99 179
62 99 176
62 98 177
62 99 181
62 99 177
61 98 175
61 98 175
61 98 175
62 99 177
62 98 176
62 98 175
62 98 175
62 98 170
61 98 173
62 91 145
54 74 76
52 69 64
54 71 67
52 70 65
51 69 67
51 69 64
51 68 64
53 71 69
51 69 66
51 69 67
53 71 68
53 71 69
53 72 71
53 71 68
52 71 70
54 73 71
53 73 72
54 73 71
53 72 71
53 73 73
54 73 72
55 74 74
55 75 75
54 75 77
61 79 79
125 127 95
176 170 112
181 174 114
181 174 114
180 174 114
180 174 114
180 174 114
180 174 114
179 174 114
179 173 114
179 173 114
179 173 114
178 173 114
178 173 114
178 173 114
178 173 114
178 173 114
177 173 114
177 173 114
177 173 114
177 172 114
177 172 114
177 172 114
177 172 114
177 172 114
177 172 114
176 172 114
176 172 114
176 172 114
176 172 114
176 172 114
176 172 114
176 172 114
176 172 114
176 172 114
176 172 114
176 172 114
176 172 114
176 172 114
176 172 114
177 172 114
177 172 114
177 172 114
177 172 114
177 172 114
177 172 114
177 173 114
177 173 114
178 173 114
178 173 114
178 173 114
178 173 114
178 173 114
179 173 114
179 173 114
179 173 114
179 173 114
180 174 114
180 174 114
180 174 114
180 174 114
181 174 114
181 174 114
181 174 114
182 175 114
182 175 114
182 175 114
183 175 114
183 175 114
184 176 114
184 176 114
184 176 114
185 176 114
185 176 114
186 177 114
186 177 114
187 177 114
187 177 114
188 177 114
188 178 114
189 178 114
189 178 114
190 178 114
190 179 114
191 179 114
192 179 114
192 180 114
193 180 114
194 180 114
194 181 114
195 181 114
196 181 114
196 182 114
197 182 114
198 182 114
199 183 114
199 183 114
200 183 114
201 184 114
194 179 103
157 154 0
155 153 0
154 152 0
157 153 0
155 153 0
154 152 0
157 153 0
154 151 0
172 193 0
173 196 0
174 196 0
173 195 0
173 197 0
173 197 0
172 193 0
174 197 0
173 196 0
175 198 0
171 195 0
172 196 0
175 197 0
171 195 0
174 197 0
174 197 0
174 197 0
174 198 0
174 197 0
174 198 0
175 198 0
172 196 0
172 196 0
174 197 0
173 197 0
174 197 0
174 197 0
175 198 0
174 197 0
172 195 0
174 197 0
176 198 0
173 196 0
174 197 0
172 195 0
174 197 0
174 197 0
172 195 0
175 198 0
173 196 0
172 196 0
174 197 0
174 197 0
172 195 0
174 197 0
175 197 0
173 196 0
172 195 0
171 195 0
176 199 0
173 196 0
173 196 0
174 198 0
175 198 0
171 194 0
175 197 0
171 195 0
174 197 0
174 197 0
173 196 0
171 194 0
171 193 0
172 195 0
173 196 0
173 196 0
174 197 0
172 196 0
173 196 0
173 195 0
172 195 0
171 194 0
172 196 0
173 196 0
173 197 0
173 196 0
172 195 0
175 197 0
175 198 0
172 195 0
173 197 0
172 195 0
173 197 0
173 196 0
173 196 0
172 196 0
173 196 0
173 195 0
169 192 0
173 196 0
171 195 0
173 195 0
173 196 0
172 195 0
171 195 0
172 195 0
173 196 0
173 196 0
171 193 0
175 198 0
173 196 0
173 196 0
172 195 0
170 194 0
171 195 0
174 197 0
170 194 0
170 194 0
172 195 0
171 193 0
173 197 0
172 195 0
172 195 0
171 194 0
172 195 0
173 196 0
170 194 0
174 197 0
172 195 0
171 193 0
173 196 0
173 197 0
173 197 0
174 197 0
175 198 0
173 196 0
173 196 0
171 193 0
171 195 0
169 194 0
172 195 0
171 195 0
171 195 0
170 192 0
172 196 0
170 193 0
174 197 0
168 192 0
170 194 0
171 195 0
173 196 0
173 196 0
174 197 0
171 194 0
172 194 0
164 187 57
89 119 151
62 98 170
63 99 175
62 99 174
62 99 177
62 99 179
62 99 178
62 99 176
62 99 178
62 99 176
62 99 179
62 99 177
62 99 178
62 99 180
62 99 177
62 99 179
63 100 180
62 99 181
62 99 177
62 99 178
62 99 181
62 99 180
62 99 180
62 99 180
61 99 180
62 99 181
62 99 179
62 99 181
62 99 180
62 99 180
61 99 179
62 99 181
61 99 179
62 99 180
61 99 181
62 99 181
61 99 181
62 99 181
62 99 180
62 99 181
62 99 181
61 99 181
62 99 180
62 99 181
62 99 181
61 99 181
61 99 181
61 99 181
62 99 181
61 99 181
62 99 181
61 98 181
61 98 181
62 99 181
62 99 180
62 99 181
61 99 181
61 98 181
62 99 181
62 99 181
62 99 181
61 99 181
61 99 181
61 99 181
61 98 181
61 99 181
61 99 181
61 99 181
62 99 181
61 99 181
61 99 181
62 99 181
62 99 180
62 99 180
62 99 181
61 98 180
62 99 181
62 99 181
61 98 181
62 99 181
61 98 181
61 98 179
61 99 181
62 99 181
62 99 181
62 99 181
61 99 181
62 99 180
62 99 181
61 98 180
61 99 180
61 99 181
61 99 180
61 98 179
61 99 178
63 100 181
62 99 180
62 99 179
62 99 180
61 98 179
61 98 178
62 99 179
62 99 178
62 99 179
62 99 179
62 99 176
62 99 177
62 99 177
61 99 180
62 99 179
62 99 178
62 99 179
62 99 177
62 99 177
62 99 177
62 98 175
62 98 176
62 98 174
62 98 175
62 98 175
61 97 173
61 96 167
60 93 157
53 72 76
51 69 63
52 69 66
53 70 66
52 69 63
53 71 68
52 69 66
50 67 62
53 71 68
52 70 69
52 70 68
52 70 69
53 70 68
53 70 67
54 73 71
53 72 70
53 72 71
53 72 71
54 73 71
53 72 72
54 74 75
54 74 73
56 75 76
55 75 77
55 75 76
72 86 81
153 150 103
181 174 114
181 174 114
181 174 114
181 174 114
180 174 114
180 174 114
180 174 114
180 174 114
179 173 114
179 173 114
179 173 114
179 173 114
178 173 114
178 173 114
178 173 114
178 173 114
178 173 114
178 173 114
178 173 114
178 173 114
177 173 114
177 173 114
177 173 114
177 173 114
177 172 114
177 172 114
177 172 114
177 172 114
177 172 114
177 172 114
177 172 114
177 172 114
177 172 114
177 172 114
177 172 114
177 172 114
177 173 114
177 173 114
177 173 114
177 173 114
178 173 114
178 173 114
178 173 114
178 173 114
178 173 114
178 173 114
178 173 114
179 173 114
179 173 114
179 173 114
179 173 114
179 174 114
180 174 114
180 174 114
180 174 114
180 174 114
181 174 114
181 174 114
181 174 114
182 175 114
182 175 114
182 175 114
183 175 114
183 175 114
183 175 114
184 176 114
184 176 114
185 176 114
185 176 114
185 176 114
186 177 114
186 177 114
187 177 114
187 177 114
188 177 114
188 178 114
189 178 114
189 178 114
190 178 114
190 179 114
191 179 114
192 179 114
192 180 114
193 180 114
193 180 114
194 180 114
195 181 114
195 181 114
196 181 114
197 182 114
197 182 114
198 182 114
199 183 114
200 183 114
200 184 114
201 184 114
180 169 80
155 153 0
156 153 0
157 154 0
157 153 0
155 152 0
157 153 0
155 152 0
156 153 0
170 190 0
173 195 0
172 194 0
173 196 0
175 196 0
174 196 0
173 196 0
172 196 0
173 196 0
173 196 0
172 196 0
174 198 0
172 196 0
174 196 0
170 193 0
175 198 0
174 197 0
173 197 0
172 196 0
172 195 0
174 197 0
173 196 0
172 195 0
173 197 0
174 198 0
172 196 0
174 197 0
173 197 0
173 196 0
171 195 0
175 198 0
173 197 0
171 195 0
172 197 0
175 198 0
173 197 0
173 196 0
173 197 0
174 197 0
174 197 0
173 196 0
172 195 0
173 196 0
174 196 0
171 194 0
173 195 0
172 196 0
167 191 0
172 196 0
174 197 0
172 195 0
172 195 0
173 196 0
174 196 0
174 197 0
174 198 0
173 196 0
170 194 0
172 196 0
173 196 0
174 197 0
173 196 0
175 198 0
172 196 0
171 195 0
170 194 0
172 196 0
172 195 0
173 196 0
172 195 0
173 196 0
172 195 0
173 197 0
172 196 0
175 198 0
172 196 0
173 196 0
173 196 0
172 195 0
173 196 0
173 197 0
172 195 0
173 195 0
173 195 0
172 195 0
172 196 0
174 197 0
173 196 0
173 196 0
172 195 0
172 195 0
174 196 0
172 195 0
171 194 0
172 195 0
172 196 0
172 196 0
171 195 0
172 196 0
175 197 0
170 193 0
171 195 0
171 194 0
173 196 0
172 195 0
170 194 0
171 195 0
172 195 0
173 196 0
172 195 0
172 196 0
172 195 0
170 195 0
174 197 0
172 195 0
172 195 0
172 196 0
171 195 0
173 195 0
173 196 0
173 195 0
170 193 0
170 193 0
172 195 0
173 196 0
173 196 0
173 196 0
173 196 0
173 196 0
174 197 0
172 195 0
168 191 0
170 194 0
172 195 0
174 197 0
172 195 0
173 194 0
173 195 0
169 193 0
174 196 0
174 196 0
171 195 0
174 197 0
161 184 62
89 119 163
62 99 168
62 99 174
62 99 174
62 99 177
62 99 171
63 99 178
62 99 175
62 99 177
62 99 179
62 99 180
62 99 175
62 99 177
61 99 180
62 99 180
62 99 178
62 99 180
62 99 177
62 99 181
62 99 181
62 99 180
62 99 181
62 99 181
62 99 178
62 99 181
62 99 180
62 99 180
62 99 179
62 99 181
61 99 181
61 99 181
62 99 181
61 99 180
61 98 180
62 99 181
62 99 181
61 99 181
62 99 181
62 99 181
62 99 181
61 99 180
62 99 180
62 99 181
61 99 180
62 99 180
62 99 181
61 99 181
62 99 181
61 99 181
62 99 181
61 99 181
62 99 181
62 99 181
61 99 181
62 99 181
61 98 181
61 99 181
62 99 181
62 99 181
61 99 181
62 99 181
62 99 181
61 98 181
61 99 181
62 99 181
62 99 181
61 99 181
62 99 181
61 99 181
62 99 181
62 99 181
62 99 181
62 99 180
61 99 181
62 99 181
61 99 181
62 99 181
62 99 179
62 99 181
62 99 181
61 99 181
62 99 181
61 99 181
61 99 181
62 99 181
62 99 181
62 99 180
62 99 181
62 99 181
61 98 179
62 99 181
62 99 179
62 99 181
63 100 181
62 99 179
61 99 179
62 99 180
62 99 180
61 99 180
62 99 179
62 99 180
62 99 179
62 99 179
61 99 179
62 99 180
62 99 180
62 99 178
61 98 180
62 99 178
61 99 179
62 99 176
61 98 175
62 99 178
62 99 178
62 99 179
62 98 175
62 98 177
61 98 177
61 98 174
61 98 176
62 98 174
62 99 175
62 98 173
61 96 163
60 94 156
51 71 79
52 70 66
51 67 65
52 70 67
52 68 61
52 69 66
51 68 65
52 69 65
52 69 66
53 72 71
52 70 68
52 70 68
53 71 68
52 70 67
52 70 70
53 71 69
53 71 70
53 72 70
53 71 70
54 73 73
54 74 74
54 73 73
54 74 75
54 74 75
54 74 73
55 75 75
118 121 93
179 172 113
181 175 114
181 174 114
181 174 114
181 174 114
180 174 114
180 174 114
180 174 114
180 174 114
180 174 114
179 174 114
179 173 114
179 173 114
179 173 114
179 173 114
179 173 114
178 173 114
178 173 114
178 173 114
178 173 114
178 173 114
178 173 114
178 173 114
178 173 114
178 173 114
178 173 114
178 173 114
178 173 114
178 173 114
178 173 114
178 173 114
178 173 114
178 173 114
178 173 114
178 173 114
178 173 114
178 173 114
178 173 114
178 173 114
178 173 114
178 173 114
178 173 114
179 173 114
179 173 114
179 173 114
179 173 114
179 173 114
179 174 114
180 174 114
180 174 114
180 174 114
180 174 114
181 174 114
181 174 114
181 174 114
181 174 114
182 175 114
182 175 114
182 175 114
183 175 114
183 175 114
183 175 114
184 176 114
184 176 114
184 176 114
185 176 114
185 176 114
186 176 114
186 177 114
186 177 114
187 177 114
187 177 114
188 178 114
188 178 114
189 178 114
189 178 114
190 178 114
190 179 114
191 179 114
191 179 114
192 180 114
193 180 114
193 180 114
194 180 114
194 181 114
195 181 114
196 181 114
196 182 114
197 182 114
198 182 114
198 183 114
199 183 114
200 183 114
201 184 114
201 184 113
159 155 28
158 154 0
154 152 0
156 153 0
156 153 0
155 151 0
156 153 0
156 153 0
154 151 0
171 189 0
174 197 0
172 195 0
174 195 0
173 196 0
173 195 0
173 195 0
171 195 0
173 197 0
175 198 0
172 196 0
171 194 0
173 197 0
173 196 0
176 199 0
173 196 0
174 198 0
172 194 0
174 197 0
171 194 0
171 195 0
172 196 0
175 198 0
172 196 0
174 197 0
172 195 0
172 195 0
174 197 0
173 196 0
174 197 0
172 196 0
173 196 0
172 196 0
175 197 0
172 195 0
173 197 0
174 197 0
171 194 0
173 196 0
172 194 0
172 195 0
172 195 0
173 196 0
174 197 0
174 198 0
174 197 0
172 195 0
173 196 0
172 196 0
171 194 0
174 197 0
175 197 0
173 197 0
173 197 0
174 197 0
173 196 0
173 196 0
172 196 0
171 195 0
172 195 0
173 196 0
174 197 0
172 195 0
173 197 0
173 197 0
174 198 0
172 196 0
172 195 0
173 197 0
173 196 0
173 197 0
176 198 0
172 195 0
174 197 0
171 194 0
172 196 0
172 195 0
172 195 0
172 196 0
172 195 0
175 197 0
173 196 0
172 194 0
174 196 0
171 195 0
174 197 0
173 196 0
172 196 0
173 197 0
174 197 0
171 194 0
172 195 0
170 194 0
171 194 0
174 198 0
173 197 0
172 195 0
172 195 0
173 196 0
172 195 0
172 196 0
173 196 0
173 195 0
173 196 0
175 198 0
174 197 0
167 190 0
169 192 0
172 195 0
171 194 0
170 194 0
172 195 0
171 195 0
173 196 0
175 197 0
172 196 0
171 193 0
174 198 0
170 194 0
172 195 0
171 195 0
176 197 0
173 196 0
171 194 0
170 193 0
174 197 0
169 191 0
169 192 0
171 195 0
172 195 0
174 197 0
171 194 0
170 194 0
171 194 0
175 198 0
175 197 0
173 196 0
170 193 0
172 194 0
171 194 0
171 195 0
170 192 0
154 177 84
79 111 161
62 99 176
62 99 172
62 99 175
62 99 176
62 99 174
62 99 179
62 99 174
62 99 178
62 98 174
61 98 177
61 98 175
63 100 179
62 99 179
62 99 180
62 99 175
62 99 178
61 98 179
62 99 177
63 100 180
62 99 178
62 99 179
62 99 180
62 99 180
62 99 177
62 99 180
62 99 181
62 99 181
62 99 180
61 98 179
62 99 181
62 99 180
61 98 181
62 99 181
62 99 181
62 99 179
62 99 181
62 99 181
61 99 180
62 99 181
62 99 181
62 99 180
62 99 181
62 99 181
62 99 181
62 99 181
62 99 181
62 99 181
62 99 180
61 99 181
62 99 181
61 99 181
61 99 180
61 99 181
61 98 181
61 99 181
61 99 181
62 99 180
61 98 180
62 99 181
62 99 181
62 99 181
61 99 181
62 99 181
61 99 181
61 99 181
61 99 181
61 99 181
61 98 181
61 98 181
62 99 180
62 99 181
61 99 180
62 99 181
61 99 181
61 99 181
62 99 181
62 99 180
62 99 181
62 99 181
62 99 181
62 99 181
62 99 180
62 99 181
61 99 181
62 99 181
61 98 179
62 99 180
61 99 180
61 99 179
62 99 179
62 99 180
62 99 179
62 99 181
62 99 180
62 99 181
61 99 181
61 99 180
61 99 181
61 99 180
62 99 180
62 99 179
62 99 180
62 99 179
62 99 179
61 98 178
61 98 178
62 99 179
62 98 176
62 99 180
62 99 180
62 99 178
62 99 181
62 98 172
62 99 176
61 98 176
62 99 177
61 98 174
62 99 175
62 99 178
61 98 177
61 98 176
61 98 175
61 97 171
61 97 174
62 98 176
60 95 166
52 71 83
50 67 63
51 68 65
50 66 62
49 66 61
51 69 65
48 64 58
51 69 66
52 70 67
52 70 68
52 71 69
51 68 62
52 70 67
53 71 69
53 71 69
53 71 69
53 72 70
52 70 68
54 73 73
53 72 70
53 73 73
54 73 72
53 73 72
54 74 73
54 75 77
54 74 74
85 96 85
174 168 111
182 175 114
182 175 114
181 174 114
181 174 114
181 174 114
181 174 114
180 174 114
180 174 114
180 174 114
180 174 114
180 174 114
180 174 114
179 174 114
179 173 114
179 173 114
179 173 114
179 173 114
179 173 114
179 173 114
179 173 114
179 173 114
179 173 114
178 173 114
178 173 114
178 173 114
178 173 114
178 173 114
178 173 114
178 173 114
178 173 114
178 173 114
178 173 114
179 173 114
179 173 114
179 173 114
179 173 114
179 173 114
179 173 114
179 173 114
179 173 114
179 174 114
179 174 114
180 174 114
180 174 114
180 174 114
180 174 114
180 174 114
181 174 114
181 174 114
181 174 114
181 174 114
181 175 114
182 175 114
182 175 114
182 175 114
183 175 114
183 175 114
183 175 114
184 175 114
184 176 114
184 176 114
185 176 114
185 176 114
185 176 114
186 177 114
186 177 114
187 177 114
187 177 114
187 177 114
188 178 114
188 178 114
189 178 114
189 178 114
190 178 114
190 179 114
191 179 114
191 179 114
192 179 114
192 180 114
193 180 114
194 180 114
194 181 114
195 181 114
195 181 114
196 182 114
197 182 114
197 182 114
198 182 114
199 183 114
200 183 114
200 184 114
201 184 114
187 174 91
156 153 0
157 153 0
157 153 0
156 153 0
156 153 0
157 154 0
154 152 0
155 153 0
156 153 0
169 187 0
172 195 0
173 195 0
174 197 0
173 195 0
173 196 0
173 196 0
173 197 0
175 198 0
173 197 0
174 198 0
172 196 0
173 196 0
175 198 0
176 199 0
173 197 0
173 196 0
173 196 0
173 197 0
174 197 0
174 198 0
173 196 0
174 197 0
172 195 0
174 197 0
173 197 0
171 195 0
171 193 0
174 198 0
174 198 0
171 194 0
174 197 0
174 198 0
173 196 0
173 197 0
174 197 0
170 193 0
172 194 0
173 196 0
171 195 0
175 197 0
172 196 0
169 194 0
169 193 0
173 196 0
172 196 0
173 196 0
173 197 0
175 198 0
170 194 0
172 196 0
171 194 0
173 196 0
174 197 0
170 194 0
173 196 0
172 195 0
173 196 0
173 196 0
173 196 0
172 195 0
173 197 0
171 195 0
172 195 0
173 196 0
172 195 0
173 197 0
172 196 0
174 197 0
173 196 0
172 196 0
170 193 0
172 195 0
172 196 0
172 196 0
173 196 0
171 193 0
173 196 0
174 197 0
171 195 0
174 197 0
172 196 0
173 197 0
174 195 0
174 196 0
171 194 0
174 198 0
173 196 0
171 194 0
172 196 0
174 197 0
169 192 0
172 195 0
173 196 0
172 195 0
175 197 0
173 196 0
172 196 0
172 195 0
174 197 0
174 197 0
169 192 0
172 195 0
172 194 0
173 196 0
174 197 0
173 197 0
174 197 0
172 195 0
171 194 0
170 193 0
172 195 0
170 193 0
173 195 0
172 195 0
172 195 0
173 196 0
170 195 0
170 193 0
171 195 0
170 193 0
173 196 0
173 196 0
172 196 0
172 196 0
173 196 0
171 195 0
171 194 0
174 197 0
172 195 0
172 195 0
173 196 0
172 195 0
171 194 0
168 191 0
168 190 0
171 195 0
170 192 0
169 192 0
173 196 0
171 194 0
152 175 88
70 105 171
61 98 172
62 99 176
62 99 174
62 99 175
61 98 174
62 99 175
62 99 176
62 99 178
61 99 177
62 99 175
62 99 176
62 99 176
62 99 177
62 99 178
62 99 175
61 99 179
62 99 180
62 99 180
61 98 177
63 100 179
62 99 177
62 99 180
62 99 180
61 99 180
62 99 180
62 99 181
62 99 180
63 100 181
62 99 181
62 99 179
62 99 180
62 99 180
62 99 181
62 99 181
62 99 180
62 99 181
62 99 181
62 99 181
61 99 181
61 99 181
61 98 179
61 99 181
61 99 181
62 99 181
61 99 181
62 99 181
61 99 181
61 98 181
62 99 180
61 99 181
62 99 181
61 98 180
62 99 180
62 99 180
62 99 181
62 99 181
61 99 181
62 99 181
62 99 181
61 98 180
62 99 181
61 99 181
61 98 181
62 99 181
62 99 181
62 99 181
61 99 181
62 99 181
61 99 181
61 99 180
61 99 181
62 99 181
61 99 180
62 99 181
62 99 181
62 99 181
61 99 181
61 99 180
61 98 181
62 99 180
62 99 180
62 99 181
62 99 181
62 99 181
62 99 181
62 99 180
62 99 181
62 99 181
62 99 180
61 99 181
63 99 179
61 98 179
61 98 177
62 99 179
62 99 181
62 99 178
62 99 181
61 99 180
62 99 180
62 99 181
62 99 180
62 99 179
62 99 179
62 99 180
62 99 181
63 100 179
61 98 178
62 99 179
62 99 178
63 100 181
61 99 180
62 99 180
63 99 177
62 99 180
62 99 175
62 98 174
62 99 177
61 98 174
61 98 175
61 98 174
62 99 176
62 98 172
62 99 175
62 99 176
61 97 170
61 97 171
61 97 170
60 94 163
52 74 98
49 66 63
50 67 64
50 67 63
52 70 67
51 68 66
49 66 61
50 66 60
52 69 66
51 69 66
51 68 63
53 70 67
53 71 68
52 70 69
53 72 71
52 70 68
53 70 67
53 71 68
53 71 69
53 72 72
54 73 73
54 73 70
54 73 72
55 75 75
54 74 75
55 75 76
73 87 80
162 158 107
182 175 114
182 175 114
182 175 114
182 175 114
181 174 114
181 174 114
181 174 114
181 174 114
181 174 114
180 174 114
180 174 114
180 174 114
180 174 114
180 174 114
180 174 114
180 174 114
180 174 114
179 174 114
179 174 114
179 173 114
179 173 114
179 173 114
179 173 114
179 173 114
179 173 114
179 173 114
179 173 114
179 173 114
179 173 114
179 173 114
179 173 114
179 173 114
179 174 114
179 174 114
179 174 114
180 174 114
180 174 114
180 174 114
180 174 114
180 174 114
180 174 114
180 174 114
180 174 114
181 174 114
181 174 114
181 174 114
181 174 114
181 175 114
182 175 114
182 175 114
182 175 114
182 175 114
183 175 114
183 175 114
183 175 114
184 175 114
184 176 114
184 176 114
185 176 114
185 176 114
185 176 114
186 176 114
186 177 114
186 177 114
187 177 114
187 177 114
188 177 114
188 178 114
188 178 114
189 178 114
189 178 114
190 178 114
190 179 114
191 179 114
191 179 114
192 179 114
192 180 114
193 180 114
194 180 114
194 181 114
195 181 114
195 181 114
196 181 114
197 182 114
197 182 114
198 182 114
199 183 114
199 183 114
200 183 114
201 184 114
201 184 114
170 163 62
156 153 0
157 153 0
156 153 0
156 153 0
155 153 0
156 153 0
156 153 0
157 154 0
156 153 0
170 189 0
174 197 0
173 196 0
174 197 0
172 194 0
173 196 0
173 195 0
175 198 0
174 197 0
176 198 0
175 198 0
173 196 0
172 194 0
173 197 0
175 198 0
176 199 0
172 196 0
174 197 0
171 195 0
170 194 0
174 197 0
173 197 0
174 198 0
174 197 0
172 196 0
174 197 0
173 197 0
172 196 0
172 195 0
173 196 0
174 198 0
174 197 0
174 197 0
176 199 0
174 197 0
173 196 0
173 196 0
173 196 0
173 196 0
170 194 0
173 196 0
174 197 0
173 196 0
172 196 0
172 195 0
174 196 0
173 196 0
173 197 0
173 196 0
172 195 0
173 197 0
173 196 0
175 198 0
174 198 0
175 198 0
173 196 0
170 194 0
172 195 0
172 196 0
173 196 0
171 195 0
172 196 0
174 197 0
173 196 0
171 195 0
175 198 0
174 198 0
173 197 0
171 195 0
171 194 0
172 195 0
171 194 0
171 194 0
171 195 0
173 196 0
170 193 0
175 198 0
173 196 0
171 195 0
171 195 0
173 197 0
174 197 0
174 197 0
174 197 0
172 195 0
173 197 0
172 195 0
172 196 0
171 194 0
171 195 0
169 192 0
173 197 0
171 195 0
171 193 0
172 195 0
171 194 0
170 192 0
168 192 0
172 197 0
174 197 0
171 194 0
170 194 0
173 196 0
166 189 0
174 197 0
171 193 0
173 196 0
173 197 0
172 195 0
172 194 0
173 196 0
173 195 0
174 197 0
173 195 0
173 196 0
175 198 0
174 196 0
174 197 0
169 192 0
169 192 0
169 192 0
173 195 0
172 196 0
172 195 0
171 194 0
173 196 0
169 193 0
170 193 0
171 194 0
171 195 0
172 194 0
171 194 0
171 193 0
171 194 0
171 195 0
172 194 0
168 191 0
173 195 0
170 194 0
167 190 0
156 179 70
73 107 165
62 99 172
62 99 172
62 99 171
62 99 174
63 100 176
62 99 177
62 99 173
62 99 180
62 99 178
62 99 179
62 99 176
62 99 176
62 98 174
62 99 177
62 99 177
62 99 179
62 99 180
62 99 180
62 99 180
62 99 178
62 99 181
62 99 180
62 99 180
62 99 181
62 99 181
62 99 180
62 99 180
62 99 180
62 99 180
62 99 181
61 99 180
62 99 181
62 99 180
61 98 179
61 98 177
62 99 181
62 99 181
62 99 181
62 99 181
61 99 181
62 99 181
62 99 181
62 99 181
61 99 181
62 99 181
62 99 181
62 99 181
61 98 181
61 99 181
62 99 181
61 99 181
62 99 181
61 99 180
62 99 181
62 99 180
62 99 180
62 99 181
61 98 180
62 99 181
62 99 181
62 99 181
61 99 181
62 99 181
62 99 179
62 99 181
61 99 181
62 99 181
61 98 181
62 99 181
61 99 181
62 99 180
62 99 181
62 99 181
62 99 181
62 99 181
62 99 181
62 99 181
62 99 181
62 99 181
61 99 179
61 99 181
61 99 181
62 99 181
61 99 181
62 99 181
61 99 181
62 99 180
62 99 180
62 99 181
62 99 181
62 99 180
62 99 179
61 99 181
62 99 181
62 99 181
62 99 181
61 99 180
62 99 179
62 99 181
62 99 179
61 98 180
62 99 179
62 99 178
62 99 178
63 100 181
62 99 181
61 99 180
62 99 178
62 99 181
62 99 179
62 99 177
62 99 179
62 99 176
62 99 180
63 99 180
62 99 174
62 99 180
62 99 176
63 99 177
62 99 176
62 98 175
62 99 176
62 98 176
61 98 177
62 99 175
62 99 175
62 98 172
61 97 170
61 97 170
61 95 164
53 74 95
49 66 62
50 67 62
48 63 58
49 65 61
48 64 61
50 67 64
50 68 66
52 68 63
52 69 66
51 68 65
51 68 65
53 72 70
52 69 66
53 70 67
52 70 67
52 70 68
53 71 68
52 69 66
54 73 73
54 73 71
55 74 74
54 74 74
54 74 72
54 74 72
55 75 76
62 80 78
154 151 104
183 175 114
182 175 114
182 175 114
182 175 114
182 175 114
182 175 114
182 175 114
181 174 114
181 174 114
181 174 114
181 174 114
181 174 114
181 174 114
181 174 114
180 174 114
180 174 114
180 174 114
180 174 114
180 174 114
180 174 114
180 174 114
180 174 114
180 174 114
180 174 114
180 174 114
180 174 114
180 174 114
180 174 114
180 174 114
180 174 114
180 174 114
180 174 114
180 174 114
180 174 114
180 174 114
180 174 114
180 174 114
181 174 114
181 174 114
181 174 114
181 174 114
181 174 114
181 174 114
181 175 114
182 175 114
182 175 114
182 175 114
182 175 114
183 175 114
183 175 114
183 175 114
183 175 114
184 176 114
184 176 114
184 176 114
185 176 114
185 176 114
185 176 114
186 176 114
186 177 114
186 177 114
187 177 114
187 177 114
187 177 114
188 177 114
188 178 114
189 178 114
189 178 114
189 178 114
190 179 114
190 179 114
191 179 114
191 179 114
192 179 114
192 180 114
193 180 114
193 180 114
194 181 114
195 181 114
195 181 114
196 181 114
196 182 114
197 182 114
198 182 114
198 183 114
199 183 114
200 183 114
200 184 114
201 184 114
193 178 102
158 154 0
155 153 0
156 153 0
156 153 0
155 152 0
157 153 0
156 153 0
156 153 0
156 152 0
155 152 0
170 190 0
174 197 0
173 196 0
174 197 0
173 195 0
173 195 0
174 196 0
175 198 0
172 196 0
175 198 0
171 195 0
174 197 0
174 198 0
172 196 0
173 195 0
174 197 0
173 196 0
176 198 0
174 197 0
173 197 0
173 196 0
175 198 0
172 195 0
172 195 0
175 198 0
172 196 0
171 195 0
171 195 0
173 197 0
173 197 0
173 196 0
171 194 0
170 194 0
172 195 0
172 196 0
173 196 0
172 196 0
172 196 0
172 195 0
173 196 0
173 196 0
172 196 0
174 197 0
173 196 0
172 196 0
172 196 0
171 194 0
174 197 0
174 197 0
174 198 0
170 195 0
173 197 0
171 195 0
171 195 0
172 196 0
174 196 0
172 195 0
175 198 0
171 196 0
169 194 0
174 198 0
173 197 0
174 197 0
171 195 0
173 196 0
173 197 0
173 197 0
174 196 0
173 197 0
172 195 0
173 196 0
174 197 0
170 193 0
174 196 0
173 197 0
173 196 0
173 196 0
172 196 0
173 196 0
171 195 0
171 194 0
173 195 0
171 194 0
173 195 0
173 195 0
173 196 0
170 194 0
171 196 0
172 196 0
173 197 0
171 194 0
173 197 0
173 195 0
172 195 0
169 192 0
173 196 0
172 195 0
173 197 0
172 194 0
172 194 0
171 195 0
173 196 0
173 197 0
174 197 0
174 197 0
171 195 0
173 196 0
170 193 0
174 197 0
171 195 0
174 197 0
172 196 0
170 193 0
173 196 0
172 195 0
170 193 0
173 196 0
172 195 0
174 197 0
168 192 0
170 194 0
172 195 0
172 195 0
172 196 0
171 195 0
171 194 0
173 196 0
171 194 0
170 194 0
174 197 0
171 194 0
171 194 0
169 191 0
171 194 0
171 194 0
172 195 0
171 196 0
172 195 0
170 194 0
161 184 62
74 106 162
63 99 173
62 99 172
62 99 175
62 99 175
62 99 173
62 99 177
62 99 177
61 98 175
62 99 177
62 99 175
62 99 176
62 99 178
62 99 179
61 98 176
61 98 179
62 99 177
62 99 181
62 99 176
62 99 180
63 99 178
62 99 181
62 99 179
61 99 180
61 99 179
62 99 179
62 99 179
62 99 181
62 99 181
61 98 178
62 99 179
62 99 178
62 99 181
62 99 181
62 99 181
62 99 181
61 99 181
62 99 180
62 99 179
62 99 181
61 99 180
62 99 181
61 99 181
62 99 181
61 98 180
62 99 179
62 99 180
62 99 181
62 99 181
61 99 179
62 99 181
62 99 181
61 99 181
62 99 181
61 98 181
61 99 181
61 98 181
62 99 180
62 99 180
62 99 181
62 99 181
62 99 180
61 99 180
62 99 180
62 99 181
62 99 180
61 98 181
61 99 181
61 99 181
62 99 181
62 99 181
61 99 179
62 99 181
62 99 181
61 99 181
62 99 181
61 99 181
61 98 180
62 99 180
61 99 181
61 99 179
61 99 181
62 99 181
62 99 181
61 98 180
61 99 181
61 99 181
62 99 181
61 98 178
62 99 179
61 99 178
62 99 180
62 99 180
61 99 178
62 99 180
61 99 180
62 99 181
62 99 180
61 99 179
62 99 181
62 99 181
62 99 181
62 99 180
62 99 181
62 99 179
62 99 180
63 99 179
62 99 178
62 99 179
62 99 180
62 99 179
61 98 176
62 99 176
63 99 179
62 99 178
62 99 179
62 99 179
62 99 179
62 99 176
61 98 176
62 99 178
62 99 178
62 98 176
62 98 176
62 99 178
62 98 176
62 99 174
62 99 174
62 98 177
62 99 174
62 99 174
61 97 169
60 94 161
51 70 81
50 66 61
47 62 56
49 65 59
50 66 61
51 68 66
51 68 64
50 67 63
51 68 65
50 66 62
49 66 62
49 66 62
51 69 66
52 69 64
52 70 68
53 71 69
51 70 68
53 71 69
53 72 71
53 72 69
54 73 72
54 73 72
54 74 74
55 74 72
54 74 74
55 75 75
69 84 77
161 157 106
183 175 114
183 175 114
183 175 114
183 175 114
182 175 114
182 175 114
182 175 114
182 175 114
182 175 114
182 175 114
181 175 114
181 174 114
181 174 114
181 174 114
181 174 114
181 174 114
181 174 114
181 174 114
181 174 114
181 174 114
181 174 114
181 174 114
181 174 114
181 174 114
181 174 114
181 174 114
181 174 114
181 174 114
181 174 114
181 174 114
181 174 114
181 174 114
181 174 114
181 174 114
181 174 114
181 174 114
181 174 114
181 174 114
182 175 114
182 175 114
182 175 114
182 175 114
182 175 114
182 175 114
183 175 114
183 175 114
183 175 114
183 175 114
184 175 114
184 176 114
184 176 114
184 176 114
185 176 114
185 176 114
185 176 114
185 176 114
186 177 114
186 177 114
186 177 114
187 177 114
187 177 114
188 177 114
188 178 114
188 178 114
189 178 114
189 178 114
190 178 114
190 179 114
191 179 114
191 179 114
191 179 114
192 179 114
192 180 114
193 180 114
193 180 114
194 180 114
195 181 114
195 181 114
196 181 114
196 182 114
197 182 114
197 182 114
198 182 114
199 183 114
199 183 114
200 183 114
201 184 114
201 184 114
172 164 64
156 153 0
156 153 0
157 153 0
155 152 0
157 154 0
157 153 0
156 153 0
155 153 0
156 152 0
155 152 0
170 189 0
172 195 0
173 196 0
172 195 0
172 195 0
172 195 0
173 196 0
173 197 0
175 198 0
174 198 0
173 196 0
173 197 0
171 196 0
174 197 0
172 195 0
174 197 0
169 193 0
173 197 0
173 197 0
173 196 0
172 195 0
171 195 0
172 196 0
174 197 0
172 196 0
174 198 0
173 196 0
174 197 0
175 198 0
172 195 0
172 195 0
173 197 0
172 196 0
175 197 0
170 194 0
174 197 0
174 198 0
172 196 0
173 196 0
174 197 0
173 197 0
174 197 0
175 198 0
173 197 0
173 196 0
174 197 0
173 196 0
170 193 0
173 197 0
171 195 0
173 196 0
174 196 0
173 197 0
172 196 0
175 197 0
171 194 0
173 196 0
174 197 0
173 197 0
171 194 0
172 195 0
175 197 0
173 197 0
174 197 0
173 197 0
172 195 0
172 195 0
172 196 0
174 198 0
173 197 0
172 195 0
172 196 0
172 195 0
174 197 0
172 195 0
169 193 0
171 194 0
172 196 0
173 196 0
173 196 0
174 197 0
172 196 0
173 197 0
172 195 0
174 196 0
173 195 0
174 197 0
172 195 0
173 196 0
171 195 0
170 193 0
172 195 0
172 195 0
170 192 0
169 192 0
175 197 0
170 193 0
171 194 0
171 195 0
173 195 0
173 197 0
168 192 0
173 196 0
170 194 0
172 196 0
171 195 0
171 194 0
172 196 0
171 194 0
171 195 0
170 194 0
169 193 0
171 194 0
174 197 0
173 196 0
170 192 0
173 195 0
173 195 0
172 195 0
172 196 0
171 194 0
170 194 0
171 194 0
169 193 0
173 196 0
171 195 0
173 196 0
172 195 0
171 194 0
171 194 0
172 195 0
173 196 0
168 191 0
168 191 0
171 195 0
170 193 0
172 196 0
172 195 0
160 184 60
83 114 155
62 99 173
62 99 174
62 99 176
62 98 174
63 99 176
62 99 174
62 99 177
62 99 175
63 99 179
63 99 178
62 99 179
62 99 177
62 99 177
62 99 180
61 98 176
63 99 180
62 99 179
62 99 178
62 99 178
62 99 178
62 99 179
62 99 179
62 99 179
62 99 179
62 99 181
61 98 179
63 100 180
62 99 181
62 99 178
61 99 179
62 99 180
62 99 181
62 99 181
62 99 180
62 99 181
61 99 181
62 99 180
63 100 180
62 99 181
62 99 179
61 99 180
62 99 180
61 99 180
62 99 180
61 99 181
62 99 181
61 98 180
62 99 181
62 99 180
62 99 181
62 99 180
62 99 181
62 99 181
62 99 181
62 99 180
62 99 181
62 99 181
62 99 181
62 99 181
62 99 180
62 99 181
62 99 181
61 99 181
62 99 181
61 99 181
61 99 181
62 99 181
62 99 181
61 99 180
62 99 179
61 98 180
61 99 179
61 99 180
62 99 181
61 99 181
61 98 180
61 98 181
61 99 181
62 99 181
61 98 181
62 99 180
62 99 181
62 99 181
62 99 181
61 99 180
61 99 180
62 99 179
62 99 180
62 99 180
62 99 180
62 99 179
62 99 181
62 99 180
62 99 181
62 99 180
62 99 181
62 99 180
62 99 179
61 99 181
62 99 180
62 99 181
61 98 179
62 99 179
62 99 180
62 99 179
62 99 181
61 98 175
62 99 181
62 99 179
62 99 179
62 99 179
62 99 181
62 99 178
63 100 179
62 99 176
62 99 177
62 99 178
62 99 178
62 99 179
62 99 176
62 99 179
62 99 179
62 99 176
61 98 174
62 99 175
62 98 168
62 98 174
62 99 176
61 97 170
62 98 172
62 97 171
61 96 166
61 97 168
61 96 165
51 72 92
47 62 57
48 65 62
48 64 58
49 65 61
49 66 64
50 67 65
50 67 62
51 68 65
50 67 63
51 68 66
51 68 62
51 68 64
51 68 67
51 67 62
53 71 69
52 70 67
53 70 66
53 71 67
53 70 66
53 72 70
53 72 70
54 74 74
54 74 73
54 75 75
55 75 73
65 82 77
173 166 110
184 176 114
184 175 114
183 175 114
183 175 114
183 175 114
183 175 114
183 175 114
183 175 114
182 175 114
182 175 114
182 175 114
182 175 114
182 175 114
182 175 114
182 175 114
182 175 114
182 175 114
181 175 114
181 174 114
181 174 114
181 174 114
181 174 114
181 174 114
181 174 114
181 174 114
181 174 114
181 174 114
181 174 114
181 174 114
181 175 114
182 175 114
182 175 114
182 175 114
182 175 114
182 175 114
182 175 114
182 175 114
182 175 114
182 175 114
183 175 114
183 175 114
183 175 114
183 175 114
183 175 114
184 175 114
184 176 114
184 176 114
184 176 114
184 176 114
185 176 114
185 176 114
185 176 114
186 176 114
186 177 114
186 177 114
186 177 114
187 177 114
187 177 114
187 177 114
188 178 114
188 178 114
189 178 114
189 178 114
189 178 114
190 178 114
190 179 114
191 179 114
191 179 114
192 179 114
192 180 114
192 180 114
193 180 114
193 180 114
194 180 114
195 181 114
195 181 114
196 181 114
196 182 114
197 182 114
197 182 114
198 182 114
199 183 114
199 183 114
200 183 114
200 184 114
201 184 114
190 176 96
156 153 0
157 153 0
157 154 0
156 153 0
156 153 0
156 153 0
155 153 0
156 153 0
155 152 0
156 152 0
155 152 0
171 191 0
171 194 0
172 194 0
174 196 0
174 196 0
173 195 0
170 192 0
172 196 0
174 196 0
171 194 0
171 194 0
171 195 0
172 196 0
173 197 0
173 196 0
174 197 0
174 198 0
172 194 0
174 197 0
171 195 0
175 198 0
173 197 0
172 195 0
172 195 0
174 197 0
174 197 0
173 197 0
175 197 0
174 197 0
172 196 0
172 196 0
174 197 0
175 198 0
173 196 0
173 196 0
173 196 0
175 197 0
174 197 0
172 194 0
174 197 0
174 197 0
170 195 0
172 196 0
172 196 0
173 196 0
173 196 0
171 195 0
171 194 0
173 196 0
173 196 0
174 197 0
173 197 0
172 195 0
172 195 0
173 196 0
173 196 0
174 197 0
173 196 0
171 194 0
175 198 0
172 196 0
171 195 0
173 196 0
172 195 0
171 194 0
175 198 0
171 193 0
174 197 0
171 194 0
173 196 0
172 196 0
172 195 0
172 195 0
172 196 0
171 195 0
173 196 0
172 196 0
172 196 0
173 197 0
173 195 0
171 195 0
172 194 0
171 194 0
174 197 0
172 194 0
172 195 0
174 197 0
170 194 0
170 194 0
171 193 0
171 194 0
174 196 0
175 198 0
171 194 0
170 193 0
173 195 0
170 193 0
172 195 0
169 192 0
171 194 0
170 193 0
172 196 0
171 195 0
172 195 0
171 195 0
168 192 0
171 194 0
173 196 0
170 194 0
172 196 0
171 195 0
173 196 0
171 195 0
173 196 0
172 195 0
173 197 0
174 197 0
172 195 0
171 193 0
174 197 0
170 193 0
168 192 0
173 196 0
171 195 0
171 193 0
172 196 0
173 195 0
173 197 0
171 194 0
171 195 0
172 195 0
171 194 0
172 196 0
174 197 0
173 196 0
172 195 0
172 195 0
157 181 76
76 109 167
63 99 174
62 98 171
63 99 175
62 99 175
62 99 175
62 99 179
62 99 173
62 99 177
62 99 176
63 99 175
62 99 176
62 98 172
62 99 176
61 98 177
62 99 179
62 99 176
62 99 178
62 99 180
62 99 178
63 100 180
62 99 180
61 99 179
61 99 178
62 99 178
62 99 177
61 98 178
62 99 179
62 99 180
62 99 179
62 99 180
61 99 178
62 99 179
62 99 178
62 99 181
62 99 179
61 99 180
62 99 181
61 98 179
61 99 181
61 99 181
62 99 180
62 99 181
62 99 178
62 99 180
62 99 180
61 99 180
62 99 179
62 99 181
62 99 180
62 99 180
62 99 180
61 99 180
62 99 181
61 98 180
62 99 181
62 99 180
62 99 181
62 99 180
62 99 180
61 99 181
61 99 180
61 99 180
62 99 181
61 99 181
62 99 180
61 98 179
62 99 181
62 99 181
61 99 180
61 99 181
62 99 181
62 99 180
61 98 179
62 99 180
61 99 181
62 99 181
61 99 181
61 99 181
61 99 181
61 99 181
61 99 180
62 99 179
61 99 180
62 99 181
62 99 180
62 99 181
62 99 181
62 99 181
62 99 181
62 99 180
61 99 181
62 99 181
62 99 181
62 99 180
61 99 181
62 99 180
62 99 181
61 99 181
62 99 181
62 99 181
62 99 181
61 99 180
62 99 180
62 99 177
62 99 181
61 99 180
62 99 180
62 99 181
62 99 179
62 99 177
62 99 177
62 99 179
61 99 178
62 99 178
61 98 176
62 99 174
61 98 175
62 99 177
62 99 175
62 98 173
62 99 177
62 98 172
62 99 175
62 98 175
61 98 173
61 98 176
62 98 173
62 98 173
62 99 175
61 97 168
62 98 174
62 98 172
62 99 174
61 97 168
62 98 169
60 94 157
49 69 92
47 61 54
48 63 59
49 65 58
48 63 56
49 64 58
49 65 60
51 68 64
50 66 61
50 67 63
51 67 60
51 68 64
53 71 69
52 70 67
52 69 65
53 70 66
51 69 64
52 70 69
52 71 69
53 72 70
54 72 69
54 72 70
54 73 71
54 74 72
55 76 77
55 75 75
78 91 81
181 173 113
184 176 114
184 176 114
184 176 114
184 176 114
184 175 114
183 175 114
183 175 114
183 175 114
183 175 114
183 175 114
183 175 114
183 175 114
183 175 114
182 175 114
182 175 114
182 175 114
182 175 114
182 175 114
182 175 114
182 175 114
182 175 114
182 175 114
182 175 114
182 175 114
182 175 114
182 175 114
182 175 114
182 175 114
182 175 114
182 175 114
182 175 114
182 175 114
183 175 114
183 175 114
183 175 114
183 175 114
183 175 114
183 175 114
183 175 114
183 175 114
184 176 114
184 176 114
184 176 114
184 176 114
184 176 114
185 176 114
185 176 114
185 176 114
185 176 114
186 176 114
186 177 114
186 177 114
187 177 114
187 177 114
187 177 114
187 177 114
188 177 114
188 178 114
189 178 114
189 178 114
189 178 114
190 178 114
190 179 114
190 179 114
191 179 114
191 179 114
192 179 114
192 180 114
193 180 114
193 180 114
194 180 114
194 180 114
195 181 114
195 181 114
196 181 114
196 181 114
197 182 114
197 182 114
198 182 114
198 183 114
199 183 114
200 183 114
200 184 114
201 184 114
200 183 112
163 158 42
154 152 0
154 152 0
157 154 0
157 154 0
157 154 0
154 152 0
156 153 0
155 152 0
154 152 0
155 151 0
156 152 0
172 195 0
173 195 0
173 193 0
174 195 0
173 194 0
172 195 0
174 197 0
172 195 0
172 196 0
174 197 0
174 197 0
174 197 0
173 196 0
173 197 0
174 197 0
172 195 0
172 196 0
174 198 0
174 197 0
173 197 0
174 197 0
170 194 0
174 198 0
171 194 0
172 196 0
172 196 0
175 197 0
173 197 0
174 197 0
170 194 0
176 198 0
176 199 0
174 197 0
173 196 0
172 195 0
173 196 0
171 194 0
173 197 0
175 198 0
175 198 0
173 196 0
173 196 0
171 194 0
171 195 0
173 196 0
172 195 0
173 197 0
172 196 0
173 197 0
172 195 0
173 196 0
174 197 0
172 196 0
169 193 0
175 197 0
174 197 0
172 195 0
173 196 0
171 194 0
173 196 0
173 196 0
173 196 0
172 196 0
173 197 0
173 196 0
173 196 0
173 196 0
174 197 0
172 195 0
170 194 0
174 197 0
172 194 0
169 193 0
172 195 0
172 196 0
172 196 0
174 197 0
172 195 0
172 196 0
173 196 0
170 192 0
173 196 0
173 195 0
173 197 0
173 196 0
171 195 0
175 197 0
170 194 0
171 194 0
173 195 0
172 195 0
172 196 0
173 196 0
173 196 0
172 195 0
175 198 0
173 196 0
171 195 0
173 195 0
174 197 0
172 196 0
170 193 0
172 196 0
173 196 0
174 197 0
172 195 0
169 193 0
171 195 0
169 192 0
172 195 0
174 197 0
172 195 0
175 198 0
169 193 0
171 195 0
171 194 0
170 193 0
173 195 0
171 193 0
174 197 0
171 194 0
173 195 0
174 197 0
173 196 0
172 195 0
171 195 0
171 193 0
169 193 0
172 194 0
172 195 0
172 195 0
172 194 0
173 195 0
169 191 0
171 193 0
172 196 0
163 187 54
90 119 150
62 98 170
63 99 176
63 99 174
62 99 173
63 99 177
62 99 170
62 98 172
63 99 177
62 98 170
62 99 177
62 99 177
62 99 176
62 99 178
62 99 175
62 99 179
62 99 176
62 99 178
62 99 177
62 99 179
62 99 177
62 99 177
62 99 179
62 99 180
62 99 180
63 100 181
62 99 180
62 99 180
62 99 175
61 99 179
62 99 178
62 99 180
62 99 179
62 99 178
62 99 179
62 99 181
62 99 180
62 99 179
61 98 179
61 99 180
62 99 180
62 99 181
62 99 181
62 99 179
62 99 180
62 99 180
62 99 181
62 99 180
61 98 180
62 99 179
61 99 180
62 99 181
62 99 180
62 99 179
62 99 181
62 99 181
63 100 181
62 99 181
62 99 181
62 99 181
62 99 181
61 98 181
62 99 178
62 99 180
62 99 181
62 99 181
61 99 180
62 99 180
61 98 180
62 99 181
62 99 181
61 99 181
61 99 181
62 99 181
62 99 180
62 99 181
62 99 180
61 99 181
62 99 181
61 99 180
62 99 181
62 99 181
62 99 181
62 99 181
61 99 180
62 99 180
62 99 181
62 99 180
62 99 181
62 99 181
61 99 179
61 99 180
62 99 179
62 99 181
63 100 181
62 99 180
62 99 180
62 99 179
61 99 179
62 99 180
62 99 181
62 99 180
62 99 177
62 99 177
62 99 175
62 99 178
62 99 177
62 99 180
62 99 176
62 99 178
62 99 177
62 99 179
61 98 177
62 99 178
62 99 179
62 99 178
62 99 177
62 99 175
61 98 173
62 99 178
62 99 177
62 98 175
61 98 176
62 98 175
62 99 177
62 99 176
62 99 176
62 99 178
62 98 174
62 99 175
62 98 174
63 99 172
62 99 175
62 99 176
62 98 172
62 98 168
61 97 169
62 97 168
58 90 149
46 63 71
49 64 58
47 62 55
47 62 56
48 64 61
50 65 59
47 63 57
47 63 59
50 67 63
49 66 61
49 65 62
52 69 66
52 70 66
51 68 66
52 70 66
53 71 70
51 68 62
53 72 69
53 72 70
54 72 70
53 71 68
55 73 71
54 73 69
54 74 73
55 75 73
54 74 73
90 99 83
184 175 114
185 176 114
185 176 114
184 176 114
184 176 114
184 176 114
184 176 114
184 176 114
184 176 114
184 175 114
183 175 114
183 175 114
183 175 114
183 175 114
183 175 114
183 175 114
183 175 114
183 175 114
183 175 114
183 175 114
183 175 114
183 175 114
183 175 114
183 175 114
183 175 114
183 175 114
183 175 114
183 175 114
183 175 114
183 175 114
183 175 114
183 175 114
183 175 114
183 175 114
184 175 114
184 176 114
184 176 114
184 176 114
184 176 114
184 176 114
184 176 114
185 176 114
185 176 114
185 176 114
185 176 114
185 176 114
186 176 114
186 177 114
186 177 114
186 177 114
187 177 114
187 177 114
187 177 114
187 177 114
188 177 114
188 178 114
188 178 114
189 178 114
189 178 114
189 178 114
190 178 114
190 179 114
191 179 114
191 179 114
191 179 114
192 179 114
192 180 114
193 180 114
193 180 114
194 180 114
194 181 114
195 181 114
195 181 114
196 181 114
196 181 114
197 182 114
197 182 114
198 182 114
198 183 114
199 183 114
199 183 114
200 183 114
201 184 114
201 184 114
174 165 70
156 153 0
155 153 0
155 153 0
157 153 0
158 154 0
157 153 0
155 153 0
155 152 0
155 153 0
156 153 0
155 152 0
156 155 0
173 195 0
172 195 0
173 195 0
174 196 0
172 194 0
173 197 0
171 194 0
171 195 0
171 194 0
172 196 0
175 198 0
173 197 0
173 197 0
172 196 0
175 198 0
174 198 0
171 194 0
173 197 0
171 195 0
173 196 0
174 197 0
172 196 0
173 197 0
173 196 0
174 198 0
175 198 0
172 196 0
175 198 0
170 194 0
172 196 0
173 197 0
170 194 0
173 196 0
173 197 0
172 196 0
174 196 0
171 194 0
173 196 0
171 194 0
172 196 0
171 195 0
172 194 0
171 195 0
173 196 0
172 193 0
173 197 0
174 196 0
169 193 0
172 195 0
171 194 0
172 196 0
171 195 0
174 197 0
174 197 0
173 196 0
173 196 0
174 198 0
173 196 0
171 194 0
173 196 0
173 196 0
170 194 0
176 199 0
173 196 0
173 196 0
170 193 0
171 195 0
172 195 0
174 196 0
171 194 0
173 197 0
172 195 0
172 196 0
169 193 0
171 194 0
171 195 0
173 196 0
173 196 0
174 197 0
171 195 0
172 195 0
167 191 0
172 194 0
172 195 0
173 196 0
174 197 0
171 194 0
174 197 0
173 195 0
174 196 0
173 196 0
172 196 0
172 195 0
169 192 0
172 196 0
172 196 0
172 196 0
172 195 0
172 195 0
172 195 0
173 196 0
172 195 0
173 196 0
168 190 0
172 195 0
172 195 0
170 191 0
173 196 0
171 195 0
170 193 0
171 195 0
170 194 0
170 194 0
171 194 0
173 196 0
170 192 0
171 193 0
170 194 0
171 194 0
169 191 0
172 195 0
172 195 0
172 195 0
172 196 0
169 192 0
171 193 0
170 193 0
170 194 0
172 194 0
172 195 0
171 194 0
170 193 0
170 194 0
171 194 0
170 194 0
169 192 36
101 129 149
61 98 171
62 98 169
62 99 172
61 98 174
62 99 175
62 98 171
62 99 176
63 100 180
62 99 178
62 99 175
62 99 175
62 99 177
62 99 176
62 99 178
63 99 177
63 100 180
62 99 177
61 98 173
62 99 178
62 99 181
62 99 180
62 99 178
62 99 177
62 99 179
61 98 175
61 98 178
62 99 178
62 99 179
62 99 178
62 99 179
62 99 180
63 99 178
61 99 179
62 99 180
62 99 179
62 99 180
62 99 180
62 99 181
62 99 181
62 99 179
62 99 179
61 99 181
62 99 181
61 98 180
62 99 181
61 99 180
62 99 181
61 98 177
62 99 180
62 100 181
62 99 180
62 99 181
62 99 180
62 99 181
62 99 180
61 99 181
62 99 181
62 99 179
61 99 181
61 99 181
62 99 180
62 99 181
62 99 180
62 99 180
62 99 181
61 99 179
62 99 179
61 99 178
62 99 180
62 99 180
61 98 179
61 99 180
62 99 181
62 99 181
62 99 181
62 99 180
61 98 180
62 99 181
62 99 181
62 99 181
62 99 181
62 99 180
62 99 181
62 99 180
62 99 180
61 99 180
62 99 181
62 99 181
61 99 179
62 99 181
61 98 179
62 99 179
62 99 180
62 99 179
62 99 181
62 99 179
62 100 181
62 99 181
61 98 178
61 99 181
62 99 181
62 99 178
62 99 181
62 99 177
62 99 179
62 99 180
62 99 176
62 99 178
62 99 177
61 98 178
61 98 175
63 100 180
62 99 178
62 99 179
62 99 180
62 98 175
62 99 177
62 99 179
63 99 176
62 99 179
61 98 175
62 98 174
61 99 178
62 99 178
62 99 176
62 99 177
62 98 175
62 99 176
62 99 173
61 97 170
62 98 173
62 99 178
62 98 171
62 99 175
61 98 170
61 97 171
62 98 174
61 97 169
62 97 170
57 87 143
45 61 56
46 61 55
47 62 56
48 63 58
48 63 55
49 64 57
48 64 59
49 64 58
50 67 63
50 67 64
51 68 65
50 66 60
52 68 61
52 69 63
52 70 66
53 71 67
52 70 66
53 72 68
53 71 68
53 72 69
54 73 72
55 74 73
53 72 69
55 74 74
55 75 74
55 75 74
129 129 94
186 176 114
185 176 114
185 176 114
185 176 114
185 176 114
185 176 114
185 176 114
184 176 114
184 176 114
184 176 114
184 176 114
184 176 114
184 176 114
184 176 114
184 176 114
184 176 114
184 176 114
184 176 114
184 176 114
184 176 114
184 175 114
184 175 114
184 175 114
184 176 114
184 176 114
184 176 114
184 176 114
184 176 114
184 176 114
184 176 114
184 176 114
184 176 114
184 176 114
184 176 114
184 176 114
184 176 114
185 176 114
185 176 114
185 176 114
185 176 114
185 176 114
185 176 114
186 176 114
186 177 114
186 177 114
186 177 114
187 177 114
187 177 114
187 177 114
187 177 114
188 177 114
188 178 114
188 178 114
188 178 114
189 178 114
189 178 114
189 178 114
190 178 114
190 179 114
190 179 114
191 179 114
191 179 114
192 179 114
192 180 114
192 180 114
193 180 114
193 180 114
194 180 114
194 181 114
195 181 114
195 181 114
196 181 114
196 181 114
197 182 114
197 182 114
198 182 114
198 183 114
199 183 114
199 183 114
200 183 114
201 184 114
201 184 114
189 175 95
155 153 0
157 154 0
156 153 0
156 153 0
156 153 0
157 154 0
155 152 0
155 153 0
154 152 0
155 152 0
155 152 0
155 152 0
157 155 0
172 195 0
173 196 0
172 195 0
174 194 0
173 195 0
173 196 0
172 195 0
172 196 0
172 195 0
173 197 0
171 195 0
170 194 0
173 196 0
175 198 0
174 197 0
174 197 0
172 195 0
172 196 0
172 196 0
172 195 0
174 197 0
176 199 0
174 197 0
174 197 0
173 196 0
174 197 0
172 195 0
174 197 0
172 195 0
172 196 0
173 197 0
173 196 0
174 197 0
172 196 0
173 196 0
173 196 0
172 195 0
174 197 0
173 196 0
173 196 0
172 196 0
172 195 0
171 195 0
172 196 0
172 196 0
172 195 0
172 196 0
174 197 0
173 196 0
171 195 0
174 197 0
172 196 0
172 195 0
174 197 0
171 194 0
172 196 0
174 197 0
173 197 0
172 195 0
170 194 0
175 198 0
172 195 0
173 196 0
173 196 0
173 196 0
174 197 0
172 195 0
172 195 0
173 196 0
172 196 0
173 196 0
173 196 0
173 196 0
172 195 0
174 197 0
173 196 0
175 198 0
174 197 0
170 194 0
170 194 0
174 197 0
174 197 0
172 195 0
169 192 0
173 196 0
169 193 0
172 194 0
169 193 0
171 195 0
171 194 0
171 194 0
171 195 0
172 195 0
173 196 0
171 195 0
171 194 0
169 192 0
172 196 0
171 194 0
174 197 0
170 194 0
172 196 0
169 193 0
172 194 0
171 195 0
171 194 0
171 195 0
171 194 0
168 190 0
173 197 0
170 194 0
170 194 0
172 195 0
171 195 0
171 194 0
173 196 0
172 195 0
172 194 0
171 193 0
170 193 0
173 195 0
170 194 0
172 196 0
171 194 0
172 194 0
172 195 0
173 196 0
169 192 0
169 192 0
171 194 0
169 192 0
171 194 0
173 196 0
171 193 0
172 195 0
111 138 140
62 98 165
61 98 168
63 99 169
62 99 171
62 99 170
62 99 176
62 99 173
62 99 173
62 99 172
62 99 174
62 99 179
63 99 178
62 98 175
61 98 174
62 99 175
62 99 179
62 99 178
62 99 178
62 99 177
63 99 180
61 99 178
62 99 178
62 99 178
62 99 178
62 99 179
62 99 179
62 99 180
62 99 177
62 99 179
62 99 181
62 99 176
61 99 179
62 99 179
62 99 180
62 99 177
62 99 181
62 99 179
62 99 180
62 99 179
61 99 180
62 99 179
61 99 181
62 99 179
61 98 180
61 99 181
62 99 179
61 99 178
62 99 179
62 99 180
62 99 181
61 99 180
62 99 179
61 99 181
61 99 178
62 99 180
61 99 180
61 99 180
62 99 179
62 99 181
62 99 181
62 99 181
62 99 181
63 100 180
61 99 179
61 98 179
62 99 180
62 99 180
61 99 180
61 98 180
62 99 181
62 99 180
62 99 178
63 100 181
62 99 181
62 99 181
62 99 181
62 99 181
61 99 179
61 99 180
61 99 179
62 99 180
62 99 181
61 99 181
62 99 179
62 99 181
62 99 181
62 99 180
62 99 180
62 99 180
61 99 181
61 99 180
62 99 180
62 99 180
62 99 181
62 99 179
61 98 180
62 99 181
62 99 181
62 99 180
62 99 180
62 99 180
61 99 180
62 99 180
62 99 179
62 99 181
62 99 181
62 99 181
62 99 178
62 99 181
61 98 176
61 98 178
62 99 179
62 99 180
62 99 179
62 99 174
62 99 178
62 99 176
62 99 179
62 99 179
62 99 179
62 99 175
62 99 179
62 99 178
62 99 178
62 99 174
61 98 174
62 99 179
62 98 176
62 99 174
62 98 174
62 99 174
61 97 171
61 98 174
62 98 173
62 99 176
62 98 171
61 98 173
62 98 174
62 98 171
62 98 171
62 97 170
59 90 144
45 58 48
46 62 56
47 62 58
50 68 65
47 64 60
49 64 58
47 62 56
50 65 57
48 65 62
49 65 58
51 67 63
50 67 64
51 68 62
51 69 65
52 69 66
52 70 67
52 71 67
53 71 68
53 72 69
54 72 69
54 73 71
54 73 71
55 74 71
55 75 74
55 75 74
55 76 74
173 166 109
186 177 114
186 177 114
186 177 114
186 177 114
185 176 114
185 176 114
185 176 114
185 176 114
185 176 114
185 176 114
185 176 114
185 176 114
185 176 114
185 176 114
184 176 114
184 176 114
184 176 114
184 176 114
184 176 114
184 176 114
184 176 114
184 176 114
184 176 114
184 176 114
184 176 114
184 176 114
184 176 114
185 176 114
185 176 114
185 176 114
185 176 114
185 176 114
185 176 114
185 176 114
185 176 114
185 176 114
186 176 114
186 176 114
186 177 114
186 177 114
186 177 114
186 177 114
187 177 114
187 177 114
187 177 114
187 177 114
187 177 114
188 177 114
188 178 114
188 178 114
189 178 114
189 178 114
189 178 114
189 178 114
190 178 114
190 179 114
190 179 114
191 179 114
191 179 114
191 179 114
192 179 114
192 180 114
193 180 114
193 180 114
193 180 114
194 180 114
194 181 114
195 181 114
195 181 114
196 181 114
196 182 114
197 182 114
197 182 114
198 182 114
198 183 114
199 183 114
199 183 114
200 183 114
200 184 114
201 184 114
196 180 106
160 156 32
156 153 0
156 153 0
156 153 0
157 154 0
155 153 0
157 153 0
157 153 0
155 153 0
156 153 0
156 153 0
155 152 0
155 152 0
156 158 0
174 197 0
173 196 0
171 193 0
173 195 0
174 196 0
174 196 0
172 195 0
172 195 0
174 197 0
172 197 0
172 196 0
172 196 0
175 197 0
171 195 0
172 196 0
174 197 0
175 197 0
174 197 0
172 196 0
174 197 0
170 194 0
174 197 0
172 196 0
172 194 0
170 193 0
172 196 0
173 196 0
173 196 0
173 197 0
173 197 0
171 195 0
172 195 0
174 197 0
175 198 0
174 197 0
172 196 0
173 196 0
173 195 0
172 196 0
173 196 0
170 194 0
170 195 0
171 195 0
172 194 0
174 197 0
172 195 0
174 197 0
171 194 0
171 194 0
174 197 0
171 195 0
174 197 0
171 194 0
173 197 0
170 193 0
170 193 0
175 198 0
173 196 0
171 195 0
170 193 0
173 197 0
173 197 0
171 194 0
171 194 0
170 193 0
172 195 0
173 197 0
171 194 0
173 196 0
174 196 0
173 196 0
173 196 0
172 195 0
172 196 0
174 197 0
170 194 0
171 195 0
173 196 0
171 195 0
174 197 0
173 197 0
174 197 0
174 196 0
171 195 0
174 197 0
173 197 0
168 193 0
172 195 0
172 195 0
171 195 0
168 192 0
170 193 0
170 193 0
170 192 0
171 195 0
171 195 0
174 198 0
171 195 0
167 190 0
173 196 0
174 196 0
173 195 0
169 193 0
168 192 0
173 197 0
170 195 0
173 196 0
174 197 0
172 196 0
172 195 0
173 196 0
173 196 0
170 193 0
171 194 0
173 195 0
171 194 0
169 192 0
171 195 0
170 194 0
173 196 0
173 195 0
170 193 0
172 195 0
171 195 0
170 192 0
170 194 0
166 189 0
169 192 0
172 195 0
172 195 0
169 192 0
170 193 0
170 193 0
170 193 0
130 154 110
63 99 169
62 99 172
62 99 174
62 99 175
62 99 171
62 99 174
62 99 176
62 99 175
62 99 177
62 99 176
63 99 177
61 98 173
63 99 177
62 99 178
62 99 177
63 99 178
62 99 179
62 99 174
62 99 179
63 99 179
62 99 176
62 99 181
62 99 179
62 99 175
61 99 178
62 99 180
61 99 179
62 99 181
63 100 179
61 98 176
62 99 179
62 99 180
62 99 179
62 99 179
61 98 179
61 99 181
62 99 179
62 99 179
62 99 181
61 99 179
62 99 180
61 99 181
62 99 180
63 100 181
61 98 178
63 100 180
61 99 181
62 99 180
61 98 178
62 99 179
62 99 180
62 99 181
61 99 181
62 99 181
62 99 181
61 99 180
62 99 179
62 99 180
61 99 181
62 99 181
62 99 181
62 99 179
61 98 181
62 99 180
62 99 180
62 99 181
61 98 181
62 99 181
62 99 181
61 99 181
61 98 181
62 99 179
61 98 180
62 99 181
62 99 181
62 99 181
62 99 181
62 99 180
62 99 179
62 99 181
62 99 181
61 99 178
62 99 180
62 99 181
61 99 179
61 98 177
62 99 180
61 99 180
62 99 179
62 99 180
62 99 180
62 99 179
62 99 179
62 99 181
62 99 180
61 99 177
62 99 180
62 99 181
62 99 180
62 99 177
62 99 180
62 99 180
62 99 180
62 99 178
62 99 180
61 98 176
62 99 179
62 99 179
62 99 179
62 99 177
62 99 175
62 99 179
62 99 179
62 99 176
62 99 179
63 99 179
62 99 176
62 99 179
62 99 178
62 99 180
62 99 177
62 99 175
62 99 174
62 99 175
62 99 177
62 98 174
61 98 173
62 98 172
62 99 176
62 99 175
62 99 177
62 99 174
62 98 174
61 98 172
62 99 178
62 99 174
62 98 172
61 98 174
62 98 174
61 98 170
62 97 169
62 98 171
61 96 162
53 79 121
48 63 58
48 64 58
47 64 60
48 63 58
48 63 55
48 65 60
46 61 58
49 65 58
49 64 58
49 65 60
50 67 65
49 67 64
50 67 63
52 69 65
53 70 64
52 69 63
53 71 67
53 72 67
53 71 67
52 70 67
54 73 70
55 74 73
54 73 71
54 74 72
55 75 73
86 96 79
186 176 114
187 177 114
187 177 114
186 177 114
186 177 114
186 177 114
186 177 114
186 177 114
186 177 114
186 176 114
186 176 114
185 176 114
185 176 114
185 176 114
185 176 114
185 176 114
185 176 114
185 176 114
185 176 114
185 176 114
185 176 114
185 176 114
185 176 114
185 176 114
185 176 114
185 176 114
185 176 114
185 176 114
185 176 114
185 176 114
186 176 114
186 176 114
186 177 114
186 177 114
186 177 114
186 177 114
186 177 114
186 177 114
187 177 114
187 177 114
187 177 114
187 177 114
187 177 114
188 177 114
188 177 114
188 178 114
188 178 114
188 178 114
189 178 114
189 178 114
189 178 114
190 178 114
190 178 114
190 179 114
190 179 114
191 179 114
191 179 114
191 179 114
192 179 114
192 180 114
192 180 114
193 180 114
193 180 114
194 180 114
194 181 114
195 181 114
195 181 114
195 181 114
196 181 114
196 182 114
197 182 114
197 182 114
198 182 114
198 183 114
199 183 114
199 183 114
200 183 114
200 184 114
201 184 114
201 184 113
168 161 54
158 154 0
156 153 0
156 153 0
154 152 0
156 153 0
156 153 0
156 153 0
156 153 0
156 153 0
156 153 0
155 153 0
156 152 0
157 153 0
161 164 0
175 196 0
173 194 0
174 196 0
174 195 0
176 196 0
173 195 0
174 196 0
173 197 0
175 197 0
171 195 0
173 196 0
175 198 0
172 195 0
173 196 0
175 198 0
171 195 0
173 197 0
173 197 0
171 195 0
171 194 0
174 196 0
176 198 0
174 198 0
173 197 0
173 196 0
173 196 0
173 197 0
170 193 0
173 197 0
172 196 0
172 196 0
172 195 0
173 196 0
172 195 0
172 195 0
172 195 0
173 196 0
172 195 0
173 197 0
169 192 0
173 197 0
172 196 0
172 195 0
173 196 0
172 195 0
173 196 0
172 196 0
169 193 0
172 196 0
171 194 0
174 198 0
172 196 0
172 195 0
174 197 0
172 194 0
171 196 0
174 198 0
173 195 0
170 193 0
174 197 0
169 192 0
172 195 0
174 197 0
171 195 0
173 197 0
170 194 0
172 195 0
170 194 0
172 195 0
172 194 0
172 195 0
173 196 0
174 197 0
173 196 0
173 196 0
172 196 0
169 194 0
172 194 0
173 197 0
171 194 0
172 195 0
171 195 0
172 196 0
172 195 0
172 196 0
173 197 0
171 195 0
171 195 0
172 195 0
171 194 0
170 193 0
171 194 0
174 196 0
173 195 0
174 196 0
171 194 0
172 195 0
174 197 0
170 193 0
171 195 0
173 195 0
171 193 0
174 197 0
172 195 0
172 195 0
172 195 0
172 195 0
171 193 0
171 195 0
173 197 0
170 193 0
172 195 0
171 194 0
172 195 0
172 195 0
170 193 0
171 194 0
170 194 0
174 197 0
170 193 0
171 193 0
172 194 0
170 193 0
171 195 0
170 194 0
172 195 0
169 193 0
173 196 0
172 195 0
174 196 0
169 192 0
171 194 0
172 194 0
150 175 82
64 100 168
63 99 170
62 99 169
63 99 175
62 98 172
61 98 172
62 99 175
63 99 178
63 100 179
62 99 174
62 99 179
62 99 174
62 99 178
62 99 177
62 99 179
61 98 173
62 99 179
62 99 177
62 99 179
62 99 176
62 99 179
62 99 178
62 99 177
62 99 179
62 99 181
62 99 176
62 99 179
62 99 179
62 99 180
63 99 180
62 99 181
62 99 177
62 99 179
62 99 178
62 99 179
62 99 181
63 100 179
62 99 181
62 99 181
62 99 181
62 99 178
62 99 181
62 99 181
62 99 181
62 99 180
61 98 179
62 99 180
61 99 180
62 99 180
62 99 181
63 99 176
63 100 181
62 99 181
61 99 180
62 99 181
63 100 181
61 98 179
62 99 179
62 99 180
62 99 180
62 99 181
61 99 180
62 99 181
62 99 181
62 99 178
62 99 181
62 99 181
62 99 179
61 99 178
61 99 180
62 99 181
61 99 179
62 99 180
61 99 181
62 99 181
62 99 179
62 99 179
62 99 181
62 99 181
62 99 181
62 99 180
62 99 180
62 99 180
62 99 181
62 99 179
62 99 177
62 99 179
62 99 180
62 99 181
62 99 180
62 99 180
62 99 180
62 99 180
61 98 176
61 98 178
62 99 179
61 99 179
62 99 180
62 99 178
63 100 180
62 99 180
62 99 178
62 99 179
62 99 180
62 99 179
62 99 177
62 99 179
62 99 181
62 99 179
62 99 181
62 99 178
62 99 177
62 99 177
62 99 180
63 99 175
62 99 181
62 99 179
62 99 176
62 99 176
62 99 176
62 98 175
62 99 179
62 99 177
61 98 176
62 98 176
61 99 177
62 99 176
62 99 175
62 99 178
61 98 174
62 98 174
62 99 176
62 98 172
63 99 174
62 98 174
61 97 169
61 97 170
62 98 173
62 99 174
61 96 164
62 98 171
62 98 171
62 97 164
62 97 167
61 96 161
52 75 104
47 63 56
47 61 52
47 62 55
48 63 56
48 64 59
49 65 62
48 63 57
50 65 56
50 68 64
51 67 61
52 70 67
50 65 58
50 67 62
51 68 64
52 69 60
53 71 66
52 69 64
54 73 70
53 71 67
53 70 63
54 73 70
55 74 72
54 73 70
55 75 74
55 75 74
122 124 92
188 177 114
187 177 114
187 177 114
187 177 114
187 177 114
187 177 114
187 177 114
187 177 114
186 177 114
186 177 114
186 177 114
186 177 114
186 177 114
186 177 114
186 177 114
186 177 114
186 177 114
186 177 114
186 177 114
186 177 114
186 177 114
186 177 114
186 177 114
186 177 114
186 177 114
186 177 114
186 177 114
186 177 114
186 177 114
186 177 114
186 177 114
187 177 114
187 177 114
187 177 114
187 177 114
187 177 114
187 177 114
187 177 114
187 177 114
188 177 114
188 178 114
188 178 114
188 178 114
188 178 114
189 178 114
189 178 114
189 178 114
189 178 114
190 178 114
190 179 114
190 179 114
190 179 114
191 179 114
191 179 114
191 179 114
192 179 114
192 180 114
192 180 114
193 180 114
193 180 114
194 180 114
194 180 114
194 181 114
195 181 114
195 181 114
196 181 114
196 181 114
196 182 114
197 182 114
197 182 114
198 182 114
198 183 114
199 183 114
199 183 114
200 183 114
200 184 114
201 184 114
201 184 114
179 168 77
155 153 0
155 153 0
156 153 0
155 153 0
155 153 0
157 154 0
155 152 0
157 153 0
155 152 0
157 153 0
156 153 0
158 153 0
155 152 0
155 153 0
163 171 0
173 194 0
173 195 0
172 196 0
172 194 0
172 195 0
172 196 0
173 196 0
174 197 0
172 196 0
174 197 0
171 195 0
172 196 0
173 196 0
172 195 0
174 197 0
174 196 0
173 196 0
174 197 0
172 194 0
171 193 0
171 195 0
172 196 0
173 197 0
173 197 0
175 198 0
172 195 0
172 197 0
175 198 0
171 195 0
175 198 0
172 196 0
173 197 0
173 197 0
171 194 0
173 197 0
174 197 0
171 195 0
173 197 0
174 197 0
172 196 0
171 195 0
172 195 0
172 196 0
173 197 0
171 195 0
174 197 0
173 196 0
172 196 0
173 196 0
174 197 0
174 197 0
174 197 0
173 196 0
171 195 0
174 198 0
170 193 0
172 195 0
175 198 0
172 195 0
173 195 0
174 197 0
174 198 0
173 196 0
173 196 0
172 193 0
171 195 0
172 196 0
170 194 0
172 194 0
172 195 0
172 195 0
171 195 0
171 195 0
173 196 0
171 195 0
171 195 0
173 196 0
172 196 0
172 195 0
173 196 0
174 197 0
169 193 0
174 196 0
172 195 0
174 196 0
171 195 0
170 194 0
173 196 0
173 196 0
172 195 0
171 195 0
169 192 0
173 196 0
171 195 0
170 193 0
173 196 0
172 194 0
172 194 0
172 195 0
169 191 0
171 195 0
169 191 0
169 191 0
169 193 0
172 196 0
170 193 0
170 194 0
170 193 0
171 194 0
174 197 0
172 196 0
171 194 0
171 193 0
171 194 0
172 195 0
169 192 0
174 197 0
171 194 0
174 197 0
169 192 0
173 196 0
171 194 0
167 190 0
172 196 0
172 195 0
170 193 0
169 192 0
170 193 0
171 194 0
169 191 0
172 193 0
171 193 0
162 186 62
69 104 166
62 99 169
62 98 169
62 99 173
62 98 171
62 98 169
62 99 172
62 98 171
62 98 170
63 99 173
62 99 179
62 99 177
62 99 175
62 99 177
62 99 179
62 99 176
62 99 177
62 99 175
62 99 177
62 99 177
62 99 174
63 100 179
62 99 180
62 99 177
62 99 179
62 99 177
62 99 180
62 99 179
63 100 179
62 99 178
62 99 180
62 99 177
62 99 179
62 99 181
62 99 179
62 99 181
62 99 177
62 99 179
62 99 177
61 99 179
62 99 178
62 99 180
62 99 180
62 99 181
62 99 181
62 99 180
62 99 178
61 99 178
61 99 179
62 99 181
62 99 181
62 99 181
62 99 180
62 99 180
62 99 180
61 99 179
61 98 179
61 98 179
62 99 180
62 99 181
62 99 179
62 99 181
61 99 180
62 99 179
62 99 179
62 99 180
62 99 179
62 99 180
61 98 178
62 99 180
62 99 178
62 99 181
61 98 179
62 99 180
62 99 180
62 99 180
62 99 180
62 99 179
62 99 180
62 99 181
62 99 181
62 99 181
62 99 181
61 99 179
62 99 180
62 99 181
61 99 180
62 99 179
62 99 181
62 99 180
62 99 179
62 99 180
61 99 178
63 100 181
62 99 176
61 99 178
62 99 181
61 98 181
62 99 179
62 99 178
62 99 180
62 99 177
63 100 181
63 99 178
62 99 177
62 99 179
62 99 179
62 99 178
62 99 178
62 99 175
62 99 179
62 99 179
62 99 179
61 98 176
63 99 178
62 99 176
62 99 177
62 99 180
62 99 177
62 99 177
62 99 180
62 98 174
62 99 175
62 99 176
62 99 176
62 99 176
62 99 179
62 99 175
62 99 180
63 100 177
62 98 176
61 98 175
62 99 175
62 98 174
62 99 172
62 99 174
62 98 172
62 99 173
61 98 173
61 98 169
62 98 167
60 96 165
61 97 167
62 98 169
61 96 164
60 95 162
60 93 152
44 60 66
45 59 54
47 62 54
45 59 51
48 63 57
50 66 62
48 63 58
49 66 61
50 66 61
49 65 59
49 64 56
52 68 64
52 68 63
51 67 58
50 67 60
52 70 67
51 68 62
52 70 65
53 71 66
53 72 69
53 71 68
54 73 69
54 73 69
54 74 70
54 74 72
63 80 76
178 169 110
188 178 114
188 178 114
188 178 114
188 177 114
188 177 114
187 177 114
187 177 114
187 177 114
187 177 114
187 177 114
187 177 114
187 177 114
187 177 114
187 177 114
187 177 114
187 177 114
187 177 114
187 177 114
187 177 114
187 177 114
187 177 114
187 177 114
187 177 114
187 177 114
187 177 114
187 177 114
187 177 114
187 177 114
187 177 114
187 177 114
187 177 114
187 177 114
188 177 114
188 177 114
188 178 114
188 178 114
188 178 114
188 178 114
188 178 114
189 178 114
189 178 114
189 178 114
189 178 114
189 178 114
190 178 114
190 178 114
190 179 114
190 179 114
191 179 114
191 179 114
191 179 114
191 179 114
192 179 114
192 180 114
192 180 114
193 180 114
193 180 114
193 180 114
194 180 114
194 181 114
195 181 114
195 181 114
195 181 114
196 181 114
196 182 114
197 182 114
197 182 114
197 182 114
198 182 114
198 183 114
199 183 114
199 183 114
200 183 114
200 184 114
201 184 114
201 184 114
176 166 71
156 153 0
155 153 0
155 153 0
154 152 0
157 154 0
156 153 0
155 152 0
155 153 0
156 152 0
155 152 0
156 153 0
156 153 0
154 151 0
156 153 0
157 152 0
164 173 0
172 195 0
172 195 0
175 196 0
172 194 0
174 195 0
174 196 0
173 196 0
173 196 0
174 197 0
173 197 0
175 198 0
172 196 0
173 197 0
172 195 0
174 197 0
174 197 0
172 195 0
172 195 0
175 198 0
174 197 0
174 197 0
174 198 0
175 198 0
173 197 0
172 195 0
172 195 0
173 197 0
174 197 0
173 196 0
175 198 0
172 196 0
175 198 0
174 197 0
170 194 0
174 197 0
172 195 0
174 197 0
174 197 0
173 197 0
172 196 0
173 196 0
174 197 0
174 197 0
173 197 0
172 196 0
172 196 0
173 196 0
173 196 0
173 197 0
174 197 0
169 194 0
175 198 0
173 195 0
173 195 0
173 196 0
170 194 0
172 196 0
174 197 0
172 196 0
171 194 0
172 196 0
171 195 0
174 197 0
171 195 0
173 196 0
172 195 0
172 195 0
174 197 0
171 194 0
173 196 0
172 195 0
169 193 0
171 195 0
171 194 0
173 197 0
173 196 0
171 195 0
174 196 0
173 196 0
167 191 0
170 193 0
172 194 0
174 197 0
169 192 0
172 195 0
173 196 0
173 196 0
172 195 0
174 197 0
171 195 0
174 197 0
172 195 0
172 196 0
172 194 0
173 196 0
173 197 0
170 193 0
173 195 0
171 194 0
170 193 0
170 194 0
172 195 0
171 194 0
172 194 0
170 194 0
168 192 0
169 193 0
167 190 0
169 191 0
173 196 0
172 195 0
170 193 0
172 195 0
166 191 0
172 195 0
166 189 0
173 196 0
173 196 0
170 194 0
173 196 0
170 193 0
169 193 0
170 193 0
172 195 0
170 193 0
173 195 0
173 196 0
172 194 0
171 195 0
173 195 0
172 194 0
169 192 36
102 130 144
62 98 171
62 99 174
63 99 173
61 98 166
62 98 172
62 98 171
63 99 174
62 99 174
62 99 179
62 99 177
62 98 172
62 99 172
63 99 179
61 98 174
62 99 172
61 98 175
61 98 175
62 99 178
62 99 175
61 98 177
61 98 174
62 99 178
62 99 175
62 99 177
61 98 177
63 99 177
62 99 179
61 99 177
62 99 179
63 99 179
61 98 179
62 99 179
62 99 178
61 99 180
62 99 178
62 99 180
62 99 178
62 99 179
62 99 177
61 98 176
62 99 179
61 99 179
62 99 178
62 99 179
62 99 180
62 99 178
62 99 180
62 99 181
62 99 181
62 99 181
61 99 180
62 99 179
61 98 181
62 99 181
61 98 178
61 99 180
62 99 181
62 99 180
61 99 180
62 99 179
61 99 181
62 99 181
62 99 181
62 99 181
62 99 178
62 99 180
62 99 179
62 99 179
62 99 180
61 98 179
62 99 180
62 99 179
62 99 178
62 99 181
62 99 181
61 99 177
62 99 179
62 99 177
62 99 181
62 99 180
62 99 176
62 99 181
62 99 180
62 99 179
62 99 178
61 98 178
62 99 181
62 99 179
62 99 178
61 99 180
62 99 180
61 99 180
61 98 177
62 99 179
62 99 181
61 99 180
62 99 180
63 100 181
62 99 177
63 100 179
62 99 181
62 99 181
62 99 181
62 99 179
61 99 178
62 99 181
61 98 176
61 99 179
63 100 180
61 98 178
61 99 179
62 99 176
61 98 178
61 98 175
62 99 176
62 99 178
61 98 178
63 100 178
61 98 176
62 99 179
62 99 174
63 99 177
62 99 176
62 99 178
62 99 175
62 99 171
63 99 178
62 99 177
62 99 177
62 99 173
62 99 171
61 98 170
63 99 174
63 99 179
61 98 174
62 99 174
61 98 171
62 99 178
62 98 174
62 99 174
62 98 171
62 98 168
63 99 175
61 97 164
62 98 173
62 98 170
61 97 169
58 88 141
46 62 62
45 59 50
47 62 55
46 61 52
47 62 53
48 64 57
49 65 58
50 67 63
49 65 59
49 64 56
49 65 58
50 66 59
51 67 60
51 68 61
51 68 64
52 69 62
52 70 64
51 69 65
53 71 65
53 71 67
53 72 66
55 74 72
55 74 73
55 75 74
55 75 73
120 122 91
189 178 114
189 178 114
189 178 114
188 178 114
188 178 114
188 178 114
188 178 114
188 178 114
188 178 114
188 178 114
188 177 114
188 177 114
188 177 114
188 177 114
188 177 114
188 177 114
187 177 114
187 177 114
187 177 114
187 177 114
187 177 114
187 177 114
188 177 114
188 177 114
188 177 114
188 177 114
188 177 114
188 178 114
188 178 114
188 178 114
188 178 114
188 178 114
188 178 114
188 178 114
189 178 114
189 178 114
189 178 114
189 178 114
189 178 114
189 178 114
190 178 114
190 178 114
190 179 114
190 179 114
190 179 114
191 179 114
191 179 114
191 179 114
191 179 114
192 179 114
192 179 114
192 180 114
192 180 114
193 180 114
193 180 114
193 180 114
194 180 114
194 181 114
194 181 114
195 181 114
195 181 114
196 181 114
196 181 114
196 182 114
197 182 114
197 182 114
198 182 114
198 182 114
198 183 114
199 183 114
199 183 114
200 183 114
200 184 114
201 184 114
201 184 114
181 169 80
156 153 0
157 153 0
156 153 0
155 153 0
157 154 0
156 153 0
156 153 0
156 153 0
156 153 0
155 152 0
156 153 0
157 154 0
155 152 0
155 152 0
157 153 0
154 151 0
163 176 0
173 195 0
171 193 0
173 195 0
174 196 0
172 194 0
174 197 0
174 196 0
171 195 0
172 195 0
173 197 0
174 196 0
174 197 0
172 196 0
172 196 0
171 195 0
173 196 0
173 196 0
172 195 0
175 197 0
173 195 0
171 194 0
174 197 0
171 195 0
171 195 0
174 197 0
174 198 0
169 193 0
172 196 0
171 195 0
173 196 0
174 197 0
172 196 0
170 194 0
173 196 0
170 193 0
172 196 0
172 195 0
173 197 0
172 196 0
174 197 0
171 195 0
172 196 0
172 195 0
175 198 0
173 196 0
172 195 0
173 197 0
174 197 0
172 193 0
172 196 0
172 195 0
173 196 0
173 196 0
173 196 0
173 196 0
172 196 0
172 196 0
169 193 0
173 196 0
173 196 0
173 196 0
174 197 0
171 193 0
171 194 0
173 196 0
174 197 0
173 196 0
173 195 0
171 194 0
170 193 0
171 194 0
174 197 0
174 197 0
172 196 0
171 194 0
173 196 0
171 194 0
174 197 0
173 196 0
173 195 0
169 192 0
172 195 0
173 196 0
172 195 0
172 195 0
171 194 0
173 194 0
172 196 0
169 193 0
170 194 0
173 197 0
173 196 0
173 197 0
174 197 0
170 193 0
170 194 0
172 195 0
168 191 0
173 197 0
170 194 0
173 196 0
172 195 0
170 193 0
172 195 0
172 195 0
174 196 0
170 193 0
172 195 0
172 196 0
171 195 0
172 195 0
173 196 0
172 195 0
173 196 0
168 192 0
171 194 0
169 192 0
167 190 0
171 195 0
168 192 0
173 196 0
172 195 0
171 194 0
173 196 0
170 194 0
173 195 0
172 195 0
172 195 0
173 196 0
168 191 0
173 195 0
119 145 124
63 100 176
62 98 166
62 99 170
62 99 171
62 99 173
62 99 171
62 98 166
62 99 175
62 99 173
63 100 176
63 99 175
62 99 173
62 99 174
62 99 178
62 99 178
62 99 176
62 99 178
62 99 179
61 98 176
63 99 180
62 99 179
62 99 178
62 99 177
62 99 176
63 100 179
61 98 176
62 99 176
62 99 177
62 99 180
62 99 179
62 99 177
62 99 178
62 99 179
62 99 180
62 99 181
62 99 179
62 99 180
63 100 178
61 99 179
62 99 181
61 99 179
62 99 180
62 99 180
62 99 177
62 99 181
62 99 180
61 99 179
62 99 180
62 99 180
62 99 180
62 99 180
61 99 181
62 99 179
62 99 180
62 99 180
62 99 180
61 99 181
62 99 180
62 99 181
61 98 180
62 99 181
62 99 180
62 99 179
62 99 178
62 99 178
63 100 180
62 99 181
63 100 181
62 99 180
62 99 181
61 99 181
62 99 180
61 99 180
62 99 181
62 99 181
61 99 181
62 99 181
62 99 180
62 99 177
62 99 178
62 99 178
62 99 180
62 99 179
62 99 180
62 99 179
62 99 179
62 99 181
62 99 179
62 99 181
62 99 177
62 99 180
61 99 179
62 99 180
62 99 181
62 99 181
61 98 179
62 99 178
61 99 178
62 99 179
61 99 179
62 99 180
61 98 177
62 99 180
62 99 179
62 99 179
62 99 178
62 99 180
62 99 178
62 99 177
62 99 179
62 99 179
61 99 178
63 100 181
61 99 180
62 99 180
62 99 179
62 99 175
62 99 177
61 99 178
62 99 177
62 99 179
62 99 175
62 99 176
62 99 179
62 98 174
62 99 176
63 99 177
62 98 172
61 98 175
62 99 172
62 98 174
62 99 174
62 99 176
62 98 171
62 99 176
61 98 171
62 99 176
62 98 171
62 99 175
63 99 174
62 99 172
61 98 172
61 98 170
61 97 169
62 98 170
61 97 165
62 98 171
62 98 172
61 97 168
54 81 123
44 59 54
45 59 50
47 62 54
45 59 51
48 63 55
48 64 57
48 62 52
49 65 59
47 63 57
51 68 64
49 66 59
50 68 66
51 67 63
50 67 62
52 69 63
53 71 66
52 70 66
53 71 66
53 72 68
53 71 68
54 72 65
55 75 74
54 74 70
54 74 71
55 75 73
176 167 108
190 178 114
189 178 114
189 178 114
189 178 114
189 178 114
189 178 114
189 178 114
189 178 114
189 178 114
189 178 114
188 178 114
188 178 114
188 178 114
188 178 114
188 178 114
188 178 114
188 178 114
188 178 114
188 178 114
188 178 114
188 178 114
188 178 114
188 178 114
188 178 114
188 178 114
189 178 114
189 178 114
189 178 114
189 178 114
189 178 114
189 178 114
189 178 114
189 178 114
189 178 114
189 178 114
190 178 114
190 178 114
190 179 114
190 179 114
190 179 114
190 179 114
191 179 114
191 179 114
191 179 114
191 179 114
192 179 114
192 179 114
192 180 114
192 180 114
193 180 114
193 180 114
193 180 114
193 180 114
194 180 114
194 181 114
194 181 114
195 181 114
195 181 114
195 181 114
196 181 114
196 182 114
197 182 114
197 182 114
197 182 114
198 182 114
198 183 114
199 183 114
199 183 114
200 183 114
200 183 114
200 184 114
201 184 114
201 184 113
178 168 77
156 153 0
155 153 0
155 153 0
157 153 0
156 153 0
155 152 0
155 153 0
156 153 0
155 152 0
155 153 0
155 152 0
155 152 0
156 153 0
155 152 0
156 152 0
156 153 0
156 151 0
169 185 0
173 195 0
172 193 0
174 196 0
171 193 0
173 196 0
174 195 0
174 196 0
173 197 0
174 197 0
174 197 0
172 196 0
173 197 0
173 196 0
173 196 0
173 197 0
174 197 0
175 198 0
174 196 0
173 197 0
172 195 0
172 195 0
172 195 0
171 194 0
175 198 0
171 195 0
173 195 0
173 196 0
174 198 0
172 196 0
173 196 0
172 195 0
175 197 0
174 197 0
173 197 0
170 194 0
172 195 0
172 195 0
171 195 0
173 196 0
174 197 0
175 197 0
171 195 0
174 198 0
173 196 0
173 196 0
172 195 0
173 196 0
172 196 0
173 197 0
173 197 0
172 195 0
173 197 0
175 198 0
172 195 0
174 196 0
171 194 0
171 193 0
174 197 0
172 196 0
172 195 0
173 196 0
171 195 0
171 194 0
170 194 0
173 195 0
171 195 0
171 194 0
171 195 0
171 195 0
171 195 0
173 197 0
172 194 0
170 193 0
171 194 0
172 195 0
171 195 0
171 195 0
172 195 0
168 191 0
174 197 0
171 195 0
173 197 0
171 194 0
170 194 0
173 197 0
171 194 0
170 194 0
168 192 0
173 197 0
171 194 0
173 196 0
171 194 0
172 195 0
170 193 0
173 196 0
170 194 0
172 196 0
171 194 0
170 193 0
170 193 0
175 197 0
170 193 0
172 194 0
172 195 0
169 192 0
174 197 0
172 195 0
170 194 0
171 194 0
168 193 0
171 195 0
171 194 0
170 194 0
169 193 0
169 192 0
169 193 0
172 195 0
172 195 0
174 197 0
174 197 0
171 193 0
170 193 0
169 193 0
170 193 0
170 194 0
170 193 0
172 194 0
173 196 0
168 192 0
170 193 0
142 165 103
62 99 165
62 98 168
61 98 166
62 98 168
62 99 168
62 99 173
62 99 169
62 99 174
62 99 172
62 99 174
62 99 174
61 98 172
62 98 172
62 99 174
62 99 175
62 99 175
62 99 174
62 99 174
62 99 176
62 99 177
62 99 180
62 99 179
61 98 174
62 99 176
62 99 178
62 99 177
61 99 178
62 99 177
62 100 181
62 99 178
62 99 177
63 99 177
61 99 178
62 99 177
62 99 181
62 99 177
62 99 180
62 99 180
62 99 180
61 98 179
62 99 180
62 99 180
63 99 176
62 99 181
62 99 181
62 99 179
62 99 179
62 99 179
62 99 177
61 98 177
62 99 177
62 99 180
62 99 181
62 99 179
62 99 180
62 99 180
61 99 181
63 100 181
62 99 178
62 99 181
62 99 179
61 99 180
61 99 181
62 99 180
62 99 178
62 99 180
62 99 180
63 100 180
62 99 179
62 99 177
62 99 179
63 100 181
62 99 180
63 100 180
62 99 180
62 99 180
62 99 180
61 98 180
62 99 179
62 99 180
61 98 175
62 99 177
62 99 179
62 99 178
62 99 181
62 99 181
62 99 180
63 100 180
62 99 180
62 99 179
62 99 176
61 98 176
62 99 181
62 99 179
62 99 178
61 99 179
62 99 180
62 99 179
62 99 179
62 99 179
62 99 180
62 99 181
62 99 180
62 99 179
62 99 178
63 100 180
62 99 180
62 99 180
62 99 179
62 99 181
62 100 181
62 99 176
62 99 178
62 99 177
63 99 177
62 99 176
62 99 179
62 99 174
63 99 179
62 99 178
63 100 179
62 99 178
62 99 178
62 99 175
62 99 176
62 99 175
61 98 172
63 99 176
61 98 172
63 99 174
62 99 175
62 99 175
62 99 171
63 99 176
62 99 173
62 99 175
63 99 178
61 98 172
62 99 171
62 98 166
62 99 174
62 99 172
62 98 166
62 98 170
62 98 169
62 98 168
61 98 169
62 97 169
61 97 165
61 97 167
62 97 165
51 73 101
45 60 54
46 60 50
46 61 52
46 61 53
50 65 58
47 62 56
47 63 55
48 63 56
49 64 59
51 67 58
50 67 59
49 66 59
51 68 59
51 69 63
51 68 59
51 68 63
52 70 65
53 71 68
53 72 69
53 71 64
54 73 70
53 71 67
55 74 72
54 73 66
140 137 94
190 179 114
190 179 114
190 179 114
190 179 114
190 178 114
190 178 114
190 178 114
190 178 114
189 178 114
189 178 114
189 178 114
189 178 114
189 178 114
189 178 114
189 178 114
189 178 114
189 178 114
189 178 114
189 178 114
189 178 114
189 178 114
189 178 114
189 178 114
189 178 114
189 178 114
189 178 114
189 178 114
189 178 114
190 178 114
190 178 114
190 178 114
190 178 114
190 179 114
190 179 114
190 179 114
190 179 114
191 179 114
191 179 114
191 179 114
191 179 114
191 179 114
191 179 114
192 179 114
192 179 114
192 180 114
192 180 114
193 180 114
193 180 114
193 180 114
193 180 114
194 180 114
194 180 114
194 181 114
194 181 114
195 181 114
195 181 114
195 181 114
196 181 114
196 181 114
196 182 114
197 182 114
197 182 114
198 182 114
198 182 114
198 183 114
199 183 114
199 183 114
200 183 114
200 183 114
201 184 114
201 184 114
199 182 110
168 161 56
155 153 0
155 152 0
156 153 0
156 153 0
156 153 0
155 153 0
157 153 0
156 153 0
155 153 0
156 153 0
156 153 0
155 153 0
155 151 0
155 152 0
156 153 0
155 152 0
155 152 0
154 151 0
172 194 0
172 195 0
174 196 0
171 192 0
173 196 0
172 194 0
172 195 0
171 193 0
173 197 0
174 197 0
172 195 0
172 196 0
172 196 0
172 196 0
174 198 0
172 196 0
173 196 0
174 197 0
171 196 0
174 197 0
171 194 0
173 196 0
173 197 0
173 196 0
174 197 0
173 196 0
173 196 0
173 196 0
172 195 0
172 196 0
172 195 0
173 197 0
171 194 0
172 196 0
173 196 0
170 193 0
172 196 0
173 196 0
174 197 0
173 196 0
170 192 0
175 198 0
173 197 0
173 196 0
173 197 0
174 197 0
171 195 0
174 197 0
174 197 0
171 194 0
173 197 0
174 197 0
171 194 0
171 195 0
170 194 0
173 196 0
172 195 0
172 196 0
171 194 0
172 195 0
173 196 0
172 195 0
169 192 0
170 193 0
174 197 0
170 193 0
170 193 0
173 197 0
170 194 0
173 196 0
173 196 0
171 194 0
170 194 0
170 193 0
169 192 0
171 194 0
172 195 0
173 196 0
173 197 0
174 197 0
168 191 0
173 197 0
171 195 0
170 194 0
174 196 0
170 194 0
172 196 0
174 197 0
173 196 0
171 195 0
170 194 0
174 197 0
172 196 0
172 196 0
172 195 0
171 194 0
168 192 0
173 196 0
173 196 0
169 192 0
171 194 0
173 195 0
171 194 0
172 195 0
171 194 0
173 195 0
171 194 0
169 192 0
171 194 0
172 196 0
173 196 0
170 192 0
170 194 0
170 193 0
171 194 0
173 196 0
170 193 0
170 193 0
172 195 0
170 194 0
168 191 0
169 192 0
171 193 0
171 195 0
170 194 0
168 192 0
170 193 0
173 195 0
170 193 0
172 195 0
168 191 40
77 109 158
62 99 169
62 98 164
62 98 169
62 99 173
62 98 170
62 98 171
62 99 174
62 99 174
61 98 172
62 99 173
62 99 175
63 99 175
62 99 175
62 99 175
62 99 176
63 99 178
62 99 177
62 99 175
62 99 177
62 99 174
62 99 177
62 99 178
61 98 174
63 100 179
61 99 177
62 99 179
62 99 176
63 99 179
63 100 179
62 99 181
61 98 178
63 99 178
62 99 176
63 100 180
62 99 175
62 99 180
62 99 179
62 99 180
62 99 179
62 99 179
62 99 179
61 98 179
62 99 179
62 99 180
62 99 177
62 99 181
62 99 180
63 99 178
62 99 177
62 99 181
61 99 181
61 99 179
62 99 177
62 99 181
62 99 180
62 99 180
61 99 180
62 99 180
62 99 180
63 100 181
62 99 180
62 99 180
61 98 179
63 100 180
62 99 180
62 99 181
62 99 179
61 99 181
62 99 181
62 99 181
62 99 180
62 99 180
62 99 180
62 99 179
61 99 180
62 99 181
62 99 180
62 99 178
62 99 179
62 99 180
62 99 179
62 99 178
61 99 179
62 99 180
62 99 180
62 99 179
61 99 179
62 99 179
62 99 179
62 99 178
62 99 178
61 99 178
62 99 180
62 99 178
62 99 179
62 99 179
62 99 180
62 99 180
62 99 181
62 99 178
62 99 178
62 99 179
62 99 179
62 99 179
63 99 179
63 100 180
62 99 178
62 99 178
62 99 181
62 99 179
62 99 176
62 99 179
61 98 176
62 99 178
62 99 177
61 99 178
62 99 178
63 99 179
62 99 177
62 99 178
62 99 174
62 99 179
62 99 179
62 99 176
63 99 177
62 99 177
62 99 180
61 98 172
62 99 174
62 99 178
63 99 177
62 99 174
63 99 173
62 98 171
62 99 179
61 98 171
62 99 179
62 99 174
62 98 174
62 98 175
61 97 170
61 98 174
62 99 173
60 97 172
61 98 171
62 98 170
61 96 162
61 97 167
62 97 163
60 94 153
62 98 167
60 94 159
45 61 67
44 57 49
46 61 56
47 61 55
46 62 59
48 63 56
49 66 59
48 63 56
50 67 63
51 68 59
50 66 61
50 66 60
51 67 61
52 70 64
52 69 60
54 72 68
54 72 67
53 71 65
52 70 65
52 71 65
54 73 69
54 73 65
54 73 68
56 75 72
66 81 72
186 174 112
191 179 114
191 179 114
191 179 114
191 179 114
190 179 114
190 179 114
190 179 114
190 179 114
190 179 114
190 179 114
190 179 114
190 179 114
190 179 114
190 179 114
190 178 114
190 178 114
190 178 114
190 178 114
190 178 114
190 179 114
190 178 114
190 179 114
190 179 114
190 179 114
190 179 114
190 179 114
190 179 114
190 179 114
190 179 114
190 179 114
191 179 114
191 179 114
191 179 114
191 179 114
191 179 114
191 179 114
191 179 114
192 179 114
192 179 114
192 179 114
192 180 114
192 180 114
193 180 114
193 180 114
193 180 114
193 180 114
194 180 114
194 180 114
194 181 114
194 181 114
195 181 114
195 181 114
195 181 114
195 181 114
196 181 114
196 181 114
196 182 114
197 182 114
197 182 114
197 182 114
198 182 114
198 183 114
199 183 114
199 183 114
199 183 114
200 183 114
200 184 114
201 184 114
201 184 114
193 178 103
163 158 41
156 153 0
155 153 0
157 154 0
155 152 0
156 153 0
156 153 0
154 152 0
155 153 0
156 153 0
156 153 0
156 153 0
156 153 0
156 153 0
156 152 0
156 153 0
156 152 0
155 152 0
155 152 0
157 155 0
173 194 0
172 194 0
172 194 0
173 196 0
172 194 0
172 194 0
173 195 0
173 195 0
174 198 0
172 195 0
170 194 0
173 196 0
174 197 0
171 195 0
172 195 0
173 196 0
173 197 0
172 196 0
172 195 0
173 197 0
173 196 0
172 195 0
171 195 0
173 197 0
175 197 0
173 196 0
174 197 0
172 196 0
172 196 0
172 196 0
173 195 0
173 196 0
172 194 0
168 192 0
170 194 0
173 195 0
173 196 0
174 197 0
170 193 0
171 194 0
171 195 0
173 196 0
173 196 0
172 195 0
173 195 0
171 193 0
174 197 0
174 198 0
172 195 0
171 195 0
174 197 0
173 197 0
173 196 0
174 197 0
170 193 0
171 195 0
172 195 0
172 195 0
173 196 0
173 196 0
172 196 0
170 192 0
169 192 0
172 194 0
171 194 0
170 193 0
169 192 0
173 196 0
171 195 0
170 193 0
171 194 0
170 194 0
174 196 0
171 194 0
173 196 0
172 196 0
172 196 0
175 197 0
170 194 0
174 196 0
169 192 0
171 194 0
174 197 0
173 196 0
170 193 0
173 196 0
170 192 0
173 196 0
172 195 0
173 196 0
173 195 0
172 195 0
171 194 0
172 196 0
173 195 0
171 194 0
171 195 0
170 193 0
172 195 0
172 195 0
170 194 0
171 195 0
169 192 0
172 196 0
173 196 0
173 196 0
169 193 0
171 193 0
170 193 0
170 193 0
170 192 0
168 190 0
174 197 0
175 198 0
173 197 0
171 195 0
171 194 0
169 193 0
170 192 0
170 193 0
170 194 0
172 194 0
168 192 0
171 195 0
170 193 0
173 196 0
170 193 0
172 195 0
170 194 0
174 196 0
122 147 124
62 98 168
62 98 170
62 99 168
62 99 172
62 99 176
62 98 171
62 99 176
62 98 170
63 99 173
62 99 175
62 98 173
63 100 176
63 100 179
62 99 173
62 99 176
62 99 174
63 99 179
63 99 177
62 99 177
62 99 172
62 99 177
62 99 177
62 99 176
62 99 178
62 99 179
62 99 177
62 99 174
62 99 176
62 99 177
62 99 180
63 99 178
63 100 179
63 99 178
62 99 180
62 99 180
62 99 177
62 99 175
62 99 178
62 99 179
62 99 178
62 99 180
63 100 178
62 99 178
62 99 180
63 100 181
62 99 179
62 99 178
62 99 179
62 99 179
61 98 177
62 99 178
62 99 179
61 99 180
62 99 178
62 99 177
62 99 181
62 99 179
62 99 179
62 99 180
62 99 181
62 99 180
61 98 177
62 99 181
61 98 180
62 99 177
62 99 180
62 99 179
62 99 181
62 99 180
61 98 178
62 99 180
62 99 181
62 99 179
62 99 178
62 99 180
62 99 179
61 98 178
63 100 179
62 99 178
62 99 178
62 99 181
62 99 180
61 98 178
62 99 179
62 99 179
62 99 179
62 99 178
62 99 180
62 99 180
62 99 180
62 99 180
62 99 178
62 99 180
61 98 176
62 99 178
61 99 179
62 99 178
62 99 178
61 98 176
62 99 178
62 99 179
61 98 177
62 99 178
62 99 177
61 98 178
62 99 177
62 99 178
61 99 178
62 99 181
61 99 178
61 99 177
62 99 179
62 99 180
62 99 180
62 99 176
62 99 176
62 99 177
61 98 176
62 99 174
62 99 179
62 99 177
62 99 181
62 99 172
62 99 179
62 99 174
62 99 175
62 99 178
62 98 174
62 99 179
61 98 171
62 99 172
62 99 176
62 99 177
62 99 172
62 99 174
62 99 171
63 99 178
61 98 170
61 98 170
62 98 170
62 99 174
62 98 162
62 98 172
62 98 171
62 98 170
62 98 169
62 98 171
63 99 169
61 97 165
62 97 168
62 98 168
61 97 166
61 95 164
56 85 138
44 58 51
43 57 49
45 59 51
48 64 58
45 61 56
48 64 55
49 65 59
50 65 59
50 66 58
50 66 60
50 65 57
51 68 58
50 68 60
50 67 61
52 69 64
52 69 61
53 71 67
52 69 60
53 71 66
53 71 64
53 71 63
53 72 67
55 74 68
55 75 73
154 147 99
192 179 114
192 179 114
192 179 114
191 179 114
191 179 114
191 179 114
191 179 114
191 179 114
191 179 114
191 179 114
191 179 114
191 179 114
191 179 114
191 179 114
191 179 114
191 179 114
191 179 114
191 179 114
191 179 114
191 179 114
191 179 114
191 179 114
191 179 114
191 179 114
191 179 114
191 179 114
191 179 114
191 179 114
191 179 114
191 179 114
191 179 114
192 179 114
192 179 114
192 179 114
192 179 114
192 180 114
192 180 114
192 180 114
193 180 114
193 180 114
193 180 114
193 180 114
193 180 114
194 180 114
194 180 114
194 180 114
194 181 114
195 181 114
195 181 114
195 181 114
195 181 114
196 181 114
196 181 114
196 182 114
196 182 114
197 182 114
197 182 114
197 182 114
198 182 114
198 183 114
199 183 114
199 183 114
199 183 114
200 183 114
200 183 114
200 184 114
201 184 114
201 184 114
186 173 90
158 154 19
156 153 0
156 153 0
156 153 0
155 153 0
156 153 0
157 153 0
156 153 0
155 152 0
155 152 0
157 153 0
157 153 0
155 152 0
156 152 0
155 151 0
155 152 0
154 151 0
157 153 0
154 151 0
155 152 0
161 166 0
172 194 0
173 195 0
175 197 0
173 194 0
173 194 0
173 195 0
173 195 0
172 195 0
176 198 0
172 195 0
170 193 0
170 193 0
170 194 0
176 198 0
173 197 0
175 198 0
172 196 0
173 196 0
174 197 0
173 196 0
174 197 0
173 196 0
173 197 0
173 197 0
171 195 0
172 196 0
172 196 0
176 198 0
173 195 0
173 196 0
172 195 0
171 194 0
174 197 0
170 194 0
171 195 0
170 195 0
174 197 0
172 196 0
173 196 0
173 196 0
170 194 0
171 195 0
174 197 0
173 197 0
171 195 0
172 195 0
171 194 0
171 195 0
171 194 0
175 197 0
173 196 0
172 196 0
170 194 0
171 195 0
171 195 0
170 194 0
172 194 0
171 194 0
169 193 0
171 195 0
173 196 0
172 196 0
171 194 0
171 195 0
174 197 0
172 195 0
171 194 0
173 196 0
170 193 0
173 197 0
173 196 0
173 196 0
170 192 0
172 196 0
172 196 0
173 196 0
170 194 0
172 196 0
171 194 0
171 194 0
171 195 0
173 196 0
173 197 0
171 193 0
171 195 0
172 195 0
173 197 0
171 196 0
174 198 0
172 196 0
170 194 0
171 195 0
172 195 0
172 196 0
173 196 0
173 196 0
173 196 0
168 191 0
172 195 0
169 191 0
170 194 0
171 194 0
171 195 0
170 194 0
172 194 0
172 194 0
173 196 0
172 196 0
171 194 0
173 196 0
170 193 0
170 193 0
169 192 0
172 194 0
170 194 0
170 192 0
172 195 0
172 195 0
174 197 0
172 194 0
172 195 0
170 192 0
168 190 0
172 195 0
173 196 0
172 194 0
171 194 0
170 192 0
169 192 0
138 163 105
62 98 165
62 99 168
63 99 165
61 97 161
62 98 174
63 99 175
62 99 172
63 100 175
62 99 174
62 99 177
62 98 171
63 99 172
63 99 175
61 98 169
62 99 173
62 99 174
62 99 173
61 98 173
62 99 177
62 99 175
62 99 176
62 99 179
62 99 178
62 99 178
62 99 174
62 99 177
62 99 177
62 99 175
62 99 179
63 99 176
62 99 176
62 99 177
62 99 178
63 100 179
62 99 180
63 100 180
62 99 179
62 99 180
62 99 178
62 99 180
61 99 180
62 99 175
62 99 180
62 99 181
63 100 181
62 99 178
62 99 178
62 99 180
62 99 179
61 98 179
63 100 180
62 99 180
62 99 178
62 99 179
62 99 178
62 99 180
62 99 178
63 99 178
62 99 181
61 99 180
62 99 181
62 99 179
62 99 181
62 99 178
62 99 178
62 99 180
62 99 176
61 98 175
62 99 180
62 99 177
62 99 179
62 99 179
62 99 180
61 98 177
61 99 181
62 99 179
62 99 179
62 99 180
62 99 180
62 99 177
62 99 180
62 99 181
62 99 178
62 99 178
62 99 179
62 99 178
62 99 178
62 99 177
61 98 179
62 99 180
61 98 178
62 99 179
62 99 179
61 98 179
62 99 180
62 99 180
63 99 178
62 99 180
62 99 180
62 99 179
62 99 177
61 99 178
62 99 177
62 99 178
61 98 177
62 99 178
62 99 178
62 99 177
62 99 177
63 100 180
61 98 178
61 99 177
61 98 177
62 99 177
62 99 178
62 99 176
61 98 174
62 99 174
61 98 178
62 99 177
62 99 177
62 99 179
62 99 179
62 99 178
62 99 176
63 99 174
62 99 177
62 98 173
62 99 176
61 98 174
62 99 178
63 99 180
62 99 176
61 98 175
63 100 180
62 99 175
62 99 171
62 99 174
62 99 179
61 98 170
62 98 172
62 99 173
62 98 171
62 99 180
62 98 174
62 98 172
62 98 168
61 97 165
62 99 171
62 98 165
62 98 167
62 98 169
61 97 166
62 98 165
61 97 166
49 70 90
45 60 52
46 61 55
45 59 52
48 63 55
48 64 55
48 64 57
47 62 56
50 67 59
50 66 59
50 66 57
50 67 61
50 67 58
51 67 58
51 69 62
52 70 65
52 69 62
52 68 58
55 73 68
52 70 64
53 71 63
54 73 69
54 73 68
54 73 70
113 115 84
193 180 114
192 180 114
192 180 114
192 180 114
192 180 114
192 180 114
192 179 114
192 179 114
192 179 114
192 179 114
192 179 114
192 179 114
192 179 114
192 179 114
191 179 114
191 179 114
191 179 114
191 179 114
191 179 114
192 179 114
191 179 114
192 179 114
192 179 114
192 179 114
192 179 114
192 179 114
192 179 114
192 179 114
192 180 114
192 180 114
192 180 114
192 180 114
192 180 114
193 180 114
193 180 114
193 180 114
193 180 114
193 180 114
193 180 114
193 180 114
194 180 114
194 180 114
194 181 114
194 181 114
195 181 114
195 181 114
195 181 114
195 181 114
195 181 114
196 181 114
196 181 114
196 182 114
197 182 114
197 182 114
197 182 114
197 182 114
198 182 114
198 182 114
198 183 114
199 183 114
199 183 114
199 183 114
200 183 114
200 184 114
201 184 114
201 184 114
198 182 109
172 164 66
157 153 0
155 153 0
156 153 0
155 153 0
156 153 0
156 153 0
156 153 0
155 152 0
154 152 0
154 152 0
154 152 0
155 153 0
154 152 0
156 153 0
155 152 0
155 151 0
156 153 0
156 153 0
155 152 0
154 151 0
155 151 0
163 171 0
172 194 0
175 196 0
172 193 0
173 195 0
172 193 0
173 195 0
171 194 0
174 197 0
173 196 0
173 197 0
172 195 0
171 194 0
173 196 0
171 195 0
174 197 0
172 196 0
172 195 0
171 195 0
171 195 0
173 196 0
173 196 0
172 195 0
172 195 0
171 194 0
173 196 0
172 195 0
173 196 0
175 198 0
172 195 0
174 197 0
173 197 0
174 197 0
172 196 0
172 195 0
172 195 0
171 194 0
172 194 0
170 195 0
170 194 0
168 191 0
171 194 0
174 197 0
171 195 0
172 195 0
175 198 0
171 193 0
171 194 0
174 198 0
173 196 0
172 195 0
171 195 0
173 197 0
170 194 0
173 197 0
173 196 0
173 196 0
173 196 0
172 196 0
172 195 0
172 195 0
173 196 0
173 196 0
174 196 0
172 195 0
174 197 0
171 194 0
172 194 0
173 196 0
171 194 0
173 196 0
172 195 0
173 196 0
174 198 0
169 193 0
173 196 0
173 196 0
170 194 0
171 195 0
172 196 0
170 193 0
172 195 0
173 196 0
171 196 0
173 197 0
170 193 0
169 193 0
175 197 0
170 194 0
169 193 0
169 192 0
171 194 0
172 196 0
171 193 0
171 194 0
171 195 0
172 194 0
172 196 0
173 196 0
171 194 0
173 197 0
172 196 0
172 195 0
172 195 0
172 195 0
171 195 0
173 196 0
173 195 0
171 194 0
171 195 0
169 192 0
170 194 0
173 197 0
172 195 0
171 194 0
170 192 0
172 194 0
172 194 0
171 195 0
169 192 0
172 194 0
168 191 0
173 195 0
171 194 0
170 192 0
172 195 0
172 195 0
166 190 0
169 192 0
165 187 44
82 113 155
61 98 165
63 99 170
61 98 169
62 98 169
62 98 168
62 98 169
62 98 172
61 98 170
61 98 174
61 98 170
62 99 174
63 99 173
61 98 174
62 99 179
62 99 176
62 99 174
62 99 175
62 99 177
62 99 174
62 99 175
62 99 175
62 99 176
62 99 174
62 99 176
62 99 174
63 100 178
62 99 179
62 99 178
61 98 177
62 99 176
62 99 177
62 99 176
62 99 179
62 99 178
62 99 179
62 99 178
62 99 178
62 99 178
62 99 180
62 99 176
62 99 179
62 99 177
61 98 173
62 99 178
62 99 181
62 99 176
62 99 180
62 99 177
63 100 179
62 99 180
62 99 179
62 99 178
62 99 177
62 99 180
62 99 180
62 99 179
62 99 176
62 99 178
62 99 176
62 99 177
61 98 173
62 99 181
62 99 178
61 99 179
62 99 180
62 99 179
62 99 181
62 99 179
62 99 177
62 99 178
61 99 178
62 99 177
62 99 180
62 99 179
61 99 180
61 99 180
62 99 180
62 99 181
62 99 179
61 98 178
61 99 180
62 99 180
62 99 179
62 99 179
63 100 180
62 99 179
62 99 178
62 99 179
62 99 180
62 99 177
62 99 181
62 99 181
62 99 178
61 98 176
62 99 179
62 99 179
63 99 178
62 99 179
62 99 178
62 99 180
62 99 177
62 99 176
62 99 176
62 99 175
63 100 179
62 99 178
62 99 181
62 99 177
62 99 177
62 99 180
62 99 176
62 99 178
62 99 180
62 99 180
62 99 178
62 99 175
62 99 178
62 99 181
62 99 179
62 99 180
62 99 176
63 100 180
62 99 179
62 99 179
62 99 173
62 99 175
62 99 174
63 99 176
62 99 175
62 99 174
62 99 177
62 99 178
62 99 174
62 99 176
62 99 175
62 99 176
62 99 174
62 99 177
62 99 176
62 98 170
62 99 173
63 99 173
62 98 174
62 99 174
62 99 173
62 99 174
62 98 165
63 99 171
62 98 170
62 97 167
61 97 164
62 98 170
62 97 165
61 96 164
62 97 166
59 92 153
47 63 65
45 59 50
45 59 53
44 58 53
43 55 45
48 64 60
49 63 54
47 62 53
48 64 57
48 63 55
50 65 54
50 65 59
51 68 63
51 68 61
52 68 59
53 70 66
53 70 63
53 71 66
52 70 60
54 72 67
55 75 71
53 72 66
54 74 71
55 74 67
185 173 111
193 180 114
193 180 114
193 180 114
193 180 114
193 180 114
193 180 114
193 180 114
193 180 114
193 180 114
192 180 114
192 180 114
192 180 114
192 180 114
192 180 114
192 180 114
192 180 114
192 180 114
192 180 114
192 180 114
192 180 114
192 180 114
192 180 114
192 180 114
192 180 114
193 180 114
193 180 114
193 180 114
193 180 114
193 180 114
193 180 114
193 180 114
193 180 114
193 180 114
193 180 114
194 180 114
194 180 114
194 180 114
194 180 114
194 181 114
194 181 114
195 181 114
195 181 114
195 181 114
195 181 114
195 181 114
196 181 114
196 181 114
196 182 114
196 182 114
197 182 114
197 182 114
197 182 114
198 182 114
198 182 114
198 182 114
198 183 114
199 183 114
199 183 114
199 183 114
200 183 114
200 183 114
201 184 114
201 184 114
201 184 113
188 175 94
159 155 28
155 153 0
156 153 0
155 153 0
155 153 0
156 153 0
154 152 0
155 152 0
157 153 0
155 152 0
152 151 0
155 153 0
156 153 0
156 153 0
155 153 0
155 152 0
155 152 0
156 152 0
154 151 0
155 153 0
154 152 0
155 151 0
155 152 0
169 185 0
172 194 0
172 194 0
172 195 0
173 195 0
173 196 0
173 195 0
173 195 0
173 195 0
172 196 0
171 196 0
173 196 0
173 196 0
174 197 0
175 197 0
172 195 0
170 194 0
174 197 0
173 196 0
172 196 0
172 196 0
171 196 0
173 197 0
173 196 0
174 197 0
171 193 0
172 196 0
169 193 0
170 193 0
171 194 0
172 195 0
172 196 0
171 194 0
173 196 0
174 197 0
175 198 0
171 193 0
173 196 0
172 195 0
175 197 0
171 194 0
172 196 0
172 195 0
173 196 0
171 194 0
172 196 0
173 196 0
174 197 0
173 196 0
171 193 0
172 196 0
172 195 0
173 196 0
172 196 0
172 196 0
171 194 0
173 196 0
168 192 0
174 197 0
171 194 0
172 195 0
173 195 0
173 196 0
170 193 0
172 196 0
171 194 0
170 194 0
172 194 0
172 196 0
172 196 0
171 194 0
169 193 0
171 194 0
170 193 0
168 192 0
170 193 0
171 195 0
173 197 0
170 193 0
173 197 0
172 195 0
167 191 0
171 193 0
171 194 0
172 196 0
173 196 0
174 197 0
167 190 0
174 197 0
170 192 0
174 197 0
169 192 0
173 196 0
170 193 0
171 194 0
171 194 0
172 196 0
171 195 0
171 195 0
172 196 0
172 195 0
173 196 0
171 194 0
168 190 0
173 197 0
172 195 0
169 192 0
172 196 0
173 196 0
175 197 0
171 194 0
173 196 0
171 194 0
171 194 0
172 195 0
174 196 0
170 193 0
171 194 0
174 197 0
167 190 0
170 193 0
168 192 0
168 191 0
170 192 0
172 196 0
169 193 0
169 192 0
172 195 0
172 195 0
115 141 136
62 98 171
62 99 170
62 99 169
62 98 168
62 99 169
63 99 171
61 98 168
61 98 163
62 99 173
63 100 179
62 98 168
62 99 173
61 98 174
62 99 176
62 98 174
62 99 179
62 98 173
63 99 176
62 99 176
62 99 170
62 99 179
62 99 178
62 99 176
62 99 177
61 98 174
62 99 176
62 99 177
62 99 178
62 99 178
62 99 179
62 99 177
62 99 178
62 99 178
63 100 180
63 99 176
62 99 176
62 99 177
62 99 179
62 99 177
62 99 179
62 99 180
62 99 178
61 98 176
62 99 178
62 99 178
62 99 180
62 99 181
62 99 177
61 98 175
62 99 177
62 99 181
63 100 181
63 100 179
62 99 180
63 100 179
61 98 176
62 99 179
62 99 181
63 100 180
61 98 179
62 99 179
62 99 179
62 99 180
62 99 177
62 99 179
62 99 179
62 99 181
62 99 179
62 99 179
62 99 180
62 99 181
62 99 179
62 99 179
62 99 180
62 99 181
62 99 175
63 100 180
62 99 180
61 98 177
61 99 177
62 99 177
61 98 177
62 99 179
61 99 179
62 99 177
62 99 179
62 99 180
63 100 180
62 99 180
62 99 176
62 99 176
61 98 178
62 99 180
61 98 173
62 99 178
62 99 179
62 99 181
62 99 178
62 99 178
61 99 179
62 99 179
62 99 177
63 100 180
62 99 177
61 98 173
62 99 179
62 99 176
61 98 176
62 99 177
62 99 179
62 99 179
63 99 176
62 99 181
62 99 178
61 98 177
62 99 177
63 99 178
61 98 175
61 99 179
62 99 179
62 99 181
62 99 175
63 100 179
62 99 177
62 99 178
63 100 179
62 99 176
63 99 177
62 99 178
62 99 174
62 99 175
62 99 174
62 99 174
63 99 175
62 99 174
62 99 173
62 99 172
61 98 171
62 99 173
62 99 177
62 99 175
62 98 173
62 99 172
62 98 174
62 98 171
63 99 176
62 98 172
63 99 177
63 99 173
62 98 172
62 98 171
62 98 168
61 97 168
61 97 166
61 96 162
62 97 165
62 97 166
56 85 129
43 57 49
44 57 44
45 60 52
45 60 52
49 65 57
48 63 56
47 62 54
49 64 54
48 64 56
50 66 59
49 64 54
52 68 59
49 65 55
51 69 62
51 68 60
51 68 57
53 71 66
53 70 64
54 73 66
53 71 64
53 72 68
53 72 65
53 72 65
165 156 101
194 181 114
194 180 114
194 180 114
194 180 114
194 180 114
194 180 114
193 180 114
193 180 114
193 180 114
193 180 114
193 180 114
193 180 114
193 180 114
193 180 114
193 180 114
193 180 114
193 180 114
193 180 114
193 180 114
193 180 114
193 180 114
193 180 114
193 180 114
193 180 114
193 180 114
193 180 114
193 180 114
194 180 114
194 180 114
194 180 114
194 180 114
194 180 114
194 181 114
194 181 114
194 181 114
194 181 114
195 181 114
195 181 114
195 181 114
195 181 114
195 181 114
196 181 114
196 181 114
196 181 114
196 182 114
196 182 114
197 182 114
197 182 114
197 182 114
197 182 114
198 182 114
198 182 114
198 183 114
199 183 114
199 183 114
199 183 114
199 183 114
200 183 114
200 183 114
200 184 114
201 184 114
201 184 114
194 179 104
166 160 49
155 153 0
155 153 0
156 153 0
156 153 0
156 153 0
155 153 0
155 153 0
156 153 0
155 153 0
156 153 0
156 153 0
156 153 0
155 152 0
157 153 0
156 153 0
156 153 0
155 153 0
155 153 0
156 153 0
154 152 0
154 151 0
155 152 0
155 151 0
155 151 0
171 190 0
172 193 0
172 194 0
173 196 0
171 192 0
173 196 0
170 191 0
171 193 0
173 195 0
173 197 0
174 197 0
173 196 0
171 194 0
174 197 0
174 197 0
172 195 0
172 196 0
171 195 0
176 198 0
174 197 0
172 196 0
173 196 0
173 197 0
174 197 0
174 197 0
176 198 0
172 196 0
173 196 0
171 194 0
169 193 0
171 194 0
175 198 0
174 196 0
172 196 0
170 193 0
172 195 0
171 194 0
171 195 0
172 195 0
174 197 0
171 195 0
172 196 0
175 198 0
173 195 0
172 195 0
173 196 0
172 195 0
171 196 0
172 195 0
172 196 0
171 195 0
173 196 0
171 194 0
174 197 0
170 195 0
172 196 0
170 193 0
173 196 0
173 196 0
172 196 0
171 194 0
174 197 0
171 194 0
174 197 0
168 192 0
171 194 0
172 196 0
171 195 0
173 197 0
171 194 0
173 196 0
174 197 0
172 196 0
173 196 0
172 197 0
173 196 0
173 196 0
171 194 0
172 195 0
171 194 0
171 194 0
174 196 0
172 196 0
171 196 0
171 195 0
168 192 0
170 193 0
171 194 0
170 193 0
169 192 0
172 195 0
170 193 0
171 195 0
171 195 0
172 195 0
171 195 0
168 192 0
172 195 0
170 194 0
172 195 0
173 196 0
170 193 0
170 193 0
172 195 0
171 193 0
169 193 0
169 192 0
173 195 0
170 193 0
168 190 0
173 196 0
173 196 0
173 196 0
170 193 0
170 193 0
173 197 0
170 194 0
173 194 0
167 191 0
170 194 0
168 192 0
172 195 0
165 188 0
167 189 0
170 193 0
168 192 0
172 195 0
171 195 0
154 178 74
64 100 168
61 98 163
62 98 165
63 99 168
62 98 169
61 98 165
61 98 171
63 99 172
61 98 168
61 98 170
62 98 171
62 99 172
62 99 169
62 99 173
62 99 176
62 99 173
62 99 176
63 99 176
62 99 172
62 99 176
61 98 167
62 99 179
62 99 175
62 99 175
62 99 178
62 99 179
62 99 175
62 99 177
63 99 176
63 99 179
62 99 178
62 99 177
62 99 176
62 99 176
62 99 177
62 99 176
62 99 173
62 99 179
62 99 178
62 99 178
62 99 179
62 99 177
63 99 180
62 99 178
62 99 178
62 99 180
62 99 178
63 100 180
63 99 176
62 99 179
62 99 179
62 99 180
62 99 179
62 99 181
62 99 179
62 99 178
61 98 178
62 99 176
62 99 180
62 99 178
62 99 177
62 99 179
62 99 178
62 99 179
62 99 181
62 99 178
63 100 179
62 99 179
61 98 173
62 99 180
62 99 177
61 99 178
62 99 178
62 99 180
62 99 179
62 99 179
62 99 178
62 99 181
62 99 181
62 99 180
62 99 177
62 99 179
62 99 178
61 98 176
62 99 178
62 99 177
62 99 178
61 99 179
62 99 174
62 99 178
62 99 179
62 99 177
63 99 178
62 99 177
62 99 179
62 99 178
62 99 180
62 99 175
62 99 175
62 99 178
62 99 179
62 99 177
62 99 177
62 99 178
62 99 179
62 99 177
62 99 180
62 99 180
62 99 176
62 99 179
62 99 176
62 99 177
62 99 174
62 99 178
62 99 177
62 99 177
63 99 177
62 99 176
62 99 178
62 99 176
62 99 179
62 99 178
61 98 171
62 99 179
62 99 176
62 99 175
62 99 176
61 98 175
62 99 178
62 98 173
62 99 172
63 100 178
61 98 175
63 100 178
62 99 174
62 98 173
62 99 173
62 99 175
63 99 176
63 100 175
62 99 176
62 99 170
63 99 175
62 98 172
62 99 172
62 99 173
62 98 171
62 99 169
62 99 176
61 98 168
62 99 175
62 98 168
62 98 166
61 97 166
62 97 166
62 98 168
62 98 169
60 96 156
61 96 160
47 68 94
47 62 54
45 59 52
48 63 56
46 60 51
45 60 53
48 63 55
46 61 49
49 65 57
48 61 47
48 64 55
50 65 55
53 70 62
52 68 61
52 69 61
52 69 64
52 69 62
52 70 61
53 72 64
54 73 67
54 73 69
54 73 66
54 74 68
125 124 89
195 181 114
195 181 114
195 181 114
195 181 114
194 181 114
194 181 114
194 181 114
194 181 114
194 181 114
194 181 114
194 180 114
194 180 114
194 180 114
194 180 114
194 180 114
194 180 114
194 180 114
194 180 114
194 180 114
194 180 114
194 180 114
194 180 114
194 181 114
194 181 114
194 181 114
194 181 114
194 181 114
194 181 114
194 181 114
195 181 114
195 181 114
195 181 114
195 181 114
195 181 114
195 181 114
195 181 114
195 181 114
196 181 114
196 181 114
196 181 114
196 182 114
196 182 114
197 182 114
197 182 114
197 182 114
197 182 114
197 182 114
198 182 114
198 182 114
198 182 114
198 183 114
199 183 114
199 183 114
199 183 114
199 183 114
200 183 114
200 183 114
200 184 114
201 184 114
201 184 114
196 180 106
174 165 65
156 153 11
155 153 0
156 153 0
156 153 0
154 152 0
155 153 0
156 153 0
155 153 0
156 153 0
155 152 0
156 153 0
156 153 0
156 153 0
156 153 0
156 153 0
154 152 0
154 152 0
156 152 0
154 152 0
156 153 0
154 152 0
155 152 0
155 152 0
155 152 0
155 152 0
159 161 0
171 191 0
172 194 0
172 195 0
172 195 0
174 196 0
172 194 0
171 193 0
171 193 0
173 195 0
171 195 0
172 196 0
173 197 0
170 194 0
170 194 0
171 195 0
171 194 0
173 196 0
172 196 0
173 196 0
173 196 0
172 196 0
175 197 0
170 194 0
170 194 0
172 195 0
173 196 0
172 196 0
173 196 0
171 195 0
173 196 0
172 195 0
172 195 0
175 198 0
171 195 0
174 196 0
174 197 0
172 194 0
169 192 0
172 195 0
171 195 0
171 194 0
171 195 0
171 195 0
172 196 0
172 196 0
169 193 0
172 196 0
174 197 0
173 196 0
171 193 0
172 196 0
172 195 0
173 197 0
173 196 0
172 195 0
172 195 0
172 196 0
173 196 0
172 195 0
173 196 0
173 196 0
174 197 0
174 197 0
173 197 0
175 198 0
172 196 0
172 195 0
171 194 0
174 196 0
170 193 0
170 194 0
174 197 0
171 195 0
171 194 0
174 197 0
174 198 0
172 195 0
172 196 0
171 194 0
171 194 0
172 197 0
169 193 0
171 195 0
170 193 0
174 196 0
170 194 0
170 194 0
173 196 0
169 192 0
173 196 0
173 195 0
170 193 0
173 196 0
171 194 0
173 196 0
171 194 0
170 194 0
171 194 0
172 194 0
172 195 0
169 192 0
171 194 0
173 196 0
170 193 0
173 196 0
170 193 0
169 193 0
171 194 0
173 196 0
173 196 0
166 190 0
170 193 0
171 195 0
168 191 0
170 193 0
169 192 0
168 192 0
174 197 0
170 193 0
173 195 0
171 192 0
171 194 0
168 190 0
169 191 0
173 196 0
170 193 0
172 194 0
170 194 0
88 118 148
62 98 159
62 98 167
62 98 165
61 97 160
63 99 170
63 99 176
62 99 174
62 99 173
62 98 171
61 98 171
62 98 166
62 99 177
62 99 172
63 100 177
62 99 176
62 99 175
62 99 174
62 99 174
62 99 174
62 99 176
62 99 175
62 99 172
63 99 176
62 99 178
63 99 177
62 99 179
63 99 176
62 99 175
63 100 178
62 99 180
62 99 176
63 100 179
62 99 176
62 99 176
62 99 178
62 99 179
62 99 178
62 99 180
62 99 179
62 99 179
61 98 176
61 98 173
62 99 178
62 99 178
62 99 180
62 99 179
62 99 180
62 99 176
62 99 178
62 99 178
63 100 180
62 99 178
62 99 178
63 99 178
62 99 179
62 99 177
62 99 178
62 99 181
62 99 179
63 100 179
62 99 179
62 99 177
62 99 179
61 98 177
62 99 179
62 99 179
61 99 180
62 99 175
62 99 178
62 99 178
61 98 176
62 99 180
63 100 178
62 99 180
62 99 178
62 99 177
62 99 180
62 99 180
62 99 177
62 99 178
61 99 179
62 99 177
61 99 181
62 99 178
62 99 178
62 99 179
62 99 179
62 99 180
62 99 178
63 100 180
62 100 181
62 99 180
62 99 178
62 99 177
61 98 175
62 99 179
62 99 180
63 99 178
61 98 173
62 99 176
62 99 177
62 99 179
62 99 179
62 99 179
62 99 180
62 99 178
62 99 177
61 99 177
62 99 180
62 99 181
62 99 176
62 99 176
62 99 176
63 99 177
62 99 179
62 99 177
62 99 176
61 98 175
63 99 179
62 99 176
62 99 177
62 99 178
62 99 177
62 99 174
61 98 173
63 100 180
63 99 175
62 99 173
62 99 177
62 99 178
62 99 175
61 98 173
63 100 178
61 98 172
62 99 175
62 99 173
62 99 178
62 99 174
62 99 178
62 99 176
62 99 174
62 99 174
62 98 173
62 99 172
62 98 169
62 98 171
62 99 174
61 98 169
62 99 173
62 98 168
62 98 171
63 99 174
62 98 171
62 97 168
61 98 171
62 97 165
62 98 171
62 97 166
62 97 161
59 90 145
45 59 50
43 56 48
45 58 49
45 60 50
48 63 55
47 61 53
48 63 53
50 65 55
47 62 52
49 66 56
50 66 57
51 68 62
52 69 64
51 68 60
53 71 64
52 70 64
52 69 60
52 70 61
53 72 64
54 72 62
54 73 66
54 74 70
84 93 74
196 181 114
196 181 114
195 181 114
195 181 114
195 181 114
195 181 114
195 181 114
195 181 114
195 181 114
195 181 114
195 181 114
195 181 114
195 181 114
195 181 114
195 181 114
195 181 114
195 181 114
195 181 114
195 181 114
195 181 114
195 181 114
195 181 114
195 181 114
195 181 114
195 181 114
195 181 114
195 181 114
195 181 114
195 181 114
195 181 114
195 181 114
196 181 114
196 181 114
196 181 114
196 181 114
196 181 114
196 182 114
196 182 114
197 182 114
197 182 114
197 182 114
197 182 114
197 182 114
198 182 114
198 182 114
198 182 114
198 182 114
198 183 114
199 183 114
199 183 114
199 183 114
199 183 114
200 183 114
200 183 114
200 184 114
201 184 114
201 184 114
201 184 114
195 179 104
175 165 69
155 153 11
154 152 0
156 153 0
156 153 0
155 153 0
156 153 0
156 153 0
155 152 0
156 153 0
155 152 0
154 152 0
155 153 0
155 153 0
154 152 0
154 151 0
154 151 0
154 152 0
155 152 0
156 153 0
156 152 0
156 152 0
156 152 0
154 152 0
155 152 0
152 149 0
155 152 0
154 150 0
163 171 0
173 194 0
173 195 0
171 193 0
174 195 0
174 194 0
174 194 0
172 194 0
172 192 0
172 194 0
173 196 0
174 198 0
174 197 0
174 197 0
171 195 0
174 196 0
171 195 0
171 195 0
170 194 0
173 197 0
174 196 0
174 197 0
172 195 0
170 194 0
174 198 0
174 197 0
171 194 0
170 193 0
172 195 0
173 197 0
173 196 0
172 196 0
175 198 0
171 195 0
170 194 0
175 197 0
172 196 0
171 194 0
171 195 0
172 195 0
170 195 0
172 195 0
173 197 0
173 196 0
174 197 0
173 196 0
170 194 0
172 195 0
172 196 0
170 194 0
172 195 0
171 195 0
171 195 0
175 197 0
172 196 0
173 196 0
172 195 0
171 194 0
173 196 0
172 195 0
173 197 0
176 198 0
171 194 0
175 198 0
171 194 0
171 194 0
169 192 0
174 198 0
172 195 0
170 194 0
173 197 0
172 195 0
171 195 0
170 194 0
171 194 0
169 192 0
170 193 0
174 197 0
171 194 0
172 195 0
170 194 0
173 197 0
172 195 0
173 196 0
172 195 0
173 196 0
171 194 0
170 192 0
170 194 0
172 195 0
170 193 0
173 196 0
169 193 0
171 194 0
171 194 0
171 194 0
170 193 0
172 194 0
172 195 0
170 193 0
170 193 0
171 195 0
170 194 0
171 194 0
170 193 0
172 194 0
171 194 0
170 193 0
169 192 0
173 195 0
172 195 0
171 195 0
170 193 0
172 196 0
172 195 0
172 196 0
169 192 0
169 192 0
171 193 0
169 192 0
171 194 0
171 194 0
172 195 0
171 194 0
169 193 0
171 194 0
170 193 0
172 196 0
140 163 97
60 97 155
62 98 167
61 98 165
63 99 172
62 99 172
62 99 172
62 99 171
63 99 172
63 99 175
61 98 173
62 98 167
63 99 174
62 99 173
62 99 172
63 99 176
62 99 176
62 99 178
61 98 175
62 99 175
62 99 174
62 99 177
63 100 180
61 98 170
62 99 179
62 99 176
61 98 173
62 99 179
62 99 172
63 99 176
62 99 176
63 99 178
62 99 178
62 99 180
62 99 178
63 100 179
62 99 176
62 99 178
62 99 179
63 99 175
62 99 179
62 99 178
62 99 176
62 99 179
62 99 178
62 99 178
63 100 179
62 99 179
62 99 179
62 99 178
63 100 179
62 99 178
62 99 180
62 99 178
62 99 176
62 99 176
62 99 176
61 98 176
62 99 179
62 99 179
62 99 180
62 99 180
62 99 178
62 99 180
62 99 177
62 99 177
62 99 179
62 99 179
62 99 181
62 99 180
62 99 178
62 99 179
62 99 179
62 99 179
62 99 180
62 99 181
62 99 177
62 99 177
62 99 177
62 99 180
61 99 178
62 99 177
62 99 177
61 98 177
62 99 179
62 99 179
62 99 179
61 98 178
61 98 178
61 98 177
62 99 178
62 99 176
62 99 174
62 99 181
62 99 178
62 99 176
62 99 180
62 99 178
62 99 180
62 99 179
62 99 179
61 98 177
62 99 178
62 99 177
61 99 179
62 99 178
62 99 177
62 99 178
61 98 175
62 99 176
62 99 177
62 99 179
62 99 177
62 99 175
62 99 175
61 99 178
62 99 174
62 99 176
63 99 175
62 99 177
61 98 174
61 98 175
62 99 179
62 98 170
62 99 176
62 99 177
62 99 175
62 99 175
61 98 175
62 99 176
62 99 171
62 99 172
63 100 176
63 100 176
63 99 176
62 99 176
62 99 178
61 98 176
62 99 178
62 99 173
61 98 171
62 99 177
62 98 168
61 98 170
62 99 171
62 99 175
62 99 170
62 99 170
63 99 174
62 98 171
62 98 170
62 98 170
62 99 172
62 98 170
62 98 168
62 98 167
62 98 166
61 97 165
62 98 170
61 96 162
62 98 164
61 96 157
52 78 120
47 61 52
45 59 50
49 64 56
46 60 52
48 62 54
48 64 57
48 64 56
50 66 56
49 64 55
51 67 59
52 68 58
50 67 58
52 70 62
51 68 59
52 69 58
53 71 63
52 70 61
53 71 61
53 71 65
53 70 60
55 75 67
54 73 63
184 172 109
196 182 114
196 182 114
196 182 114
196 181 114
196 181 114
196 181 114
196 181 114
196 181 114
196 181 114
196 181 114
196 181 114
196 181 114
196 181 114
196 181 114
196 181 114
196 181 114
196 181 114
196 181 114
196 181 114
196 181 114
196 181 114
196 181 114
196 181 114
196 181 114
196 181 114
196 181 114
196 181 114
196 181 114
196 182 114
196 182 114
196 182 114
196 182 114
197 182 114
197 182 114
197 182 114
197 182 114
197 182 114
197 182 114
197 182 114
198 182 114
198 182 114
198 182 114
198 183 114
198 183 114
199 183 114
199 183 114
199 183 114
199 183 114
200 183 114
200 183 114
200 183 114
200 184 114
201 184 114
201 184 114
201 184 114
189 175 95
172 164 65
156 153 11
156 153 0
157 154 0
156 153 0
156 153 0
157 154 0
156 153 0
156 153 0
156 153 0
155 153 0
154 152 0
156 153 0
156 153 0
155 152 0
156 153 0
156 153 0
155 152 0
156 153 0
155 152 0
156 153 0
153 150 0
156 153 0
155 151 0
154 151 0
155 151 0
156 152 0
154 151 0
155 152 0
154 149 0
168 182 0
173 195 0
173 195 0
172 193 0
170 192 0
171 193 0
172 195 0
173 195 0
173 194 0
173 195 0
173 196 0
172 197 0
172 195 0
175 198 0
172 195 0
174 197 0
173 197 0
172 196 0
173 196 0
173 196 0
173 197 0
173 197 0
172 195 0
173 197 0
172 196 0
173 197 0
170 194 0
173 196 0
173 196 0
173 197 0
172 196 0
173 197 0
171 196 0
172 195 0
173 196 0
171 195 0
170 195 0
173 196 0
171 194 0
173 196 0
174 196 0
172 195 0
172 196 0
173 196 0
171 195 0
173 195 0
169 193 0
171 195 0
171 195 0
173 196 0
173 196 0
172 195 0
171 195 0
172 196 0
169 193 0
174 197 0
174 197 0
170 193 0
173 196 0
173 196 0
172 195 0
168 191 0
173 196 0
176 198 0
170 194 0
171 195 0
176 199 0
171 194 0
172 195 0
174 197 0
173 196 0
173 196 0
170 193 0
170 193 0
172 196 0
172 196 0
171 194 0
170 194 0
171 195 0
171 194 0
171 194 0
171 195 0
171 195 0
173 195 0
171 194 0
169 191 0
167 191 0
170 193 0
169 192 0
171 194 0
170 194 0
168 192 0
170 193 0
171 195 0
169 192 0
168 192 0
171 194 0
169 192 0
170 193 0
171 194 0
167 190 0
171 194 0
172 194 0
172 195 0
172 195 0
171 193 0
171 193 0
167 191 0
169 192 0
171 194 0
172 195 0
172 196 0
170 191 0
174 197 0
171 194 0
170 193 0
168 191 0
174 197 0
169 193 0
171 194 0
171 195 0
170 193 0
171 194 0
168 191 0
171 194 0
169 192 0
171 193 0
169 192 25
90 120 150
62 98 168
61 98 164
63 100 171
63 99 176
63 99 173
61 97 161
62 99 172
63 99 174
62 98 170
61 98 164
62 99 173
62 99 170
62 98 175
63 99 174
62 99 175
62 99 172
62 99 176
63 100 180
62 98 172
62 98 173
62 99 177
62 99 175
62 99 172
62 98 173
63 100 179
63 99 177
63 100 178
62 99 178
62 99 179
63 100 179
62 99 173
62 99 176
62 99 176
63 99 177
62 99 177
62 98 177
62 99 180
62 99 178
62 99 178
62 99 179
62 99 176
61 98 178
62 99 176
62 99 174
62 98 173
62 99 176
62 99 177
62 99 176
63 100 179
62 99 176
62 99 177
62 99 177
62 99 178
62 99 179
62 99 175
62 99 179
62 99 178
62 99 178
62 99 179
62 99 180
62 99 178
62 99 178
62 99 176
62 99 180
62 99 179
62 99 179
62 99 179
62 99 177
62 99 179
62 99 179
62 99 180
62 99 179
62 98 173
62 99 177
62 99 180
62 99 177
62 99 177
61 99 178
62 99 177
62 99 180
62 99 178
62 99 178
62 99 179
61 98 176
62 99 180
61 98 176
61 98 176
61 98 178
62 99 179
62 99 181
62 99 176
62 99 176
62 99 181
62 99 179
61 99 177
62 99 178
63 100 181
62 99 177
62 99 178
63 99 175
62 99 180
62 98 174
62 99 179
62 99 181
62 99 175
62 99 181
62 99 178
62 99 178
62 99 178
62 99 177
62 99 180
61 98 173
62 99 178
62 99 175
62 99 176
62 99 177
62 99 178
63 99 178
62 99 176
61 98 175
62 99 173
62 99 174
62 99 178
62 99 173
62 99 175
63 99 176
62 99 178
62 99 176
62 99 175
63 99 173
62 99 178
62 99 173
62 99 180
62 99 173
62 99 175
62 99 175
62 99 174
62 99 173
62 99 177
62 99 174
63 99 176
62 99 177
63 99 175
61 98 169
62 99 174
62 98 171
62 98 175
63 99 173
61 98 169
62 98 165
62 98 170
62 99 172
62 99 174
62 97 159
62 98 170
60 96 162
62 98 170
62 98 170
62 98 171
62 98 169
62 97 164
60 93 149
45 60 56
44 58 51
44 58 46
46 61 53
47 62 51
48 63 51
50 66 58
50 65 56
49 64 52
49 65 57
50 65 56
51 67 58
50 65 54
52 69 59
52 70 61
52 69 60
54 72 65
52 70 62
53 71 65
54 73 67
54 73 67
55 74 69
163 154 101
197 182 114
197 182 114
197 182 114
197 182 114
197 182 114
197 182 114
197 182 114
197 182 114
197 182 114
197 182 114
196 182 114
196 182 114
196 182 114
196 182 114
196 182 114
196 182 114
196 182 114
196 182 114
196 182 114
196 182 114
196 182 114
196 182 114
196 182 114
197 182 114
197 182 114
197 182 114
197 182 114
197 182 114
197 182 114
197 182 114
197 182 114
197 182 114
197 182 114
198 182 114
198 182 114
198 182 114
198 182 114
198 182 114
198 183 114
198 183 114
199 183 114
199 183 114
199 183 114
199 183 114
199 183 114
200 183 114
200 183 114
200 183 114
200 184 114
201 184 114
201 184 114
201 184 114
198 182 110
180 169 82
160 156 28
155 152 0
154 152 0
156 153 0
155 153 0
156 153 0
158 154 0
157 154 0
155 153 0
154 152 0
155 153 0
155 153 0
155 152 0
154 152 0
156 153 0
156 153 0
155 152 0
154 151 0
155 153 0
156 153 0
156 152 0
154 152 0
153 150 0
155 153 0
155 152 0
157 153 0
155 151 0
156 152 0
155 152 0
155 152 0
154 151 0
155 152 0
171 192 0
172 195 0
173 196 0
171 194 0
172 195 0
171 193 0
172 195 0
174 196 0
173 196 0
171 193 0
171 194 0
172 196 0
173 196 0
173 196 0
172 196 0
175 198 0
174 197 0
171 195 0
170 195 0
172 196 0
174 197 0
174 197 0
173 196 0
171 195 0
174 198 0
172 196 0
172 196 0
172 196 0
173 196 0
172 196 0
172 195 0
172 196 0
169 192 0
175 198 0
173 196 0
171 194 0
173 196 0
173 197 0
172 195 0
171 194 0
171 195 0
175 198 0
171 195 0
174 197 0
171 195 0
171 194 0
174 197 0
171 195 0
170 194 0
172 195 0
171 195 0
170 194 0
172 195 0
171 195 0
171 195 0
170 194 0
174 197 0
172 195 0
171 193 0
172 195 0
170 194 0
171 194 0
170 193 0
172 196 0
171 195 0
171 195 0
174 196 0
173 196 0
174 197 0
173 195 0
168 193 0
170 194 0
170 193 0
171 195 0
172 193 0
170 194 0
171 194 0
171 194 0
172 195 0
171 194 0
173 196 0
168 192 0
172 196 0
170 193 0
172 195 0
173 195 0
169 192 0
171 195 0
172 195 0
172 195 0
166 190 0
174 196 0
172 195 0
173 196 0
171 195 0
173 196 0
171 194 0
168 192 0
170 194 0
170 194 0
170 192 0
170 193 0
170 193 0
168 191 0
168 191 0
173 196 0
171 194 0
171 195 0
173 196 0
170 194 0
171 193 0
168 191 0
169 192 0
171 193 0
166 188 0
167 189 0
167 191 0
172 195 0
168 192 0
170 192 0
170 193 0
170 192 0
169 192 0
171 194 0
171 194 0
170 192 0
170 195 0
120 146 131
62 98 163
62 98 164
62 98 164
62 98 164
61 98 167
61 97 168
62 99 170
63 99 170
61 97 161
62 99 173
62 98 168
62 99 176
62 99 173
62 99 170
62 98 171
63 99 174
63 99 175
61 98 172
63 99 177
63 99 174
63 99 177
62 99 175
62 99 180
62 99 174
61 99 179
63 100 181
63 100 179
62 99 179
62 99 178
62 99 177
61 98 171
62 99 174
62 99 180
62 99 175
62 99 180
62 99 176
62 99 178
61 98 176
62 99 179
62 99 175
62 99 180
62 99 179
62 99 179
62 99 176
62 99 177
62 99 176
62 99 176
62 99 180
62 99 177
62 99 175
62 99 179
62 99 176
62 99 178
62 99 180
62 99 178
62 99 179
62 99 178
62 99 178
61 98 178
62 99 177
62 99 178
62 99 177
62 99 177
62 99 178
62 99 178
61 99 178
62 99 178
62 99 178
62 99 180
62 99 178
61 98 178
62 99 180
62 99 180
62 99 176
62 99 180
62 99 179
62 99 178
62 99 175
62 99 177
61 98 176
62 99 176
62 99 176
62 99 180
62 99 179
63 100 181
62 99 176
62 99 175
62 99 179
61 98 176
62 99 175
63 100 180
62 99 178
62 99 174
62 99 175
62 99 178
62 99 179
62 99 176
62 99 180
61 99 177
62 99 175
62 99 180
62 99 180
61 98 176
63 100 180
62 99 177
63 99 180
62 99 176
62 99 174
63 100 180
62 99 177
62 99 175
63 100 178
62 99 176
61 99 178
62 99 175
63 100 180
62 99 178
62 99 177
62 98 171
62 99 177
62 99 174
62 99 180
62 98 172
63 99 176
63 99 178
62 99 175
62 98 171
62 99 176
62 99 176
62 99 177
62 99 178
62 99 177
62 99 173
62 99 174
61 98 174
62 99 172
62 99 175
62 99 177
62 99 175
62 99 176
62 99 175
62 99 175
62 99 173
63 99 175
62 99 171
62 99 174
62 98 172
61 98 164
62 98 173
61 98 168
63 99 172
62 98 171
62 98 170
62 99 174
61 98 165
62 98 166
62 98 167
62 98 168
62 98 164
62 98 165
61 97 161
60 95 157
63 99 170
52 77 118
43 56 47
45 58 45
45 60 54
47 63 58
45 58 45
47 62 51
47 62 51
49 64 56
48 63 51
49 64 53
50 66 55
51 67 59
51 67 59
51 68 58
52 70 63
54 71 63
53 71 61
53 70 61
52 70 56
54 73 66
55 74 67
154 146 98
198 182 114
198 182 114
198 182 114
198 182 114
198 182 114
198 182 114
197 182 114
197 182 114
197 182 114
197 182 114
197 182 114
197 182 114
197 182 114
197 182 114
197 182 114
197 182 114
197 182 114
197 182 114
197 182 114
197 182 114
197 182 114
197 182 114
197 182 114
197 182 114
197 182 114
197 182 114
198 182 114
198 182 114
198 182 114
198 182 114
198 182 114
198 182 114
198 182 114
198 183 114
198 183 114
199 183 114
199 183 114
199 183 114
199 183 114
199 183 114
199 183 114
200 183 114
200 183 114
200 183 114
200 183 114
200 184 114
201 184 114
201 184 114
201 184 114
198 182 110
189 175 95
167 160 53
157 154 16
156 153 0
156 153 0
157 153 0
156 153 0
155 153 0
154 152 0
154 152 0
156 153 0
156 153 0
154 152 0
156 153 0
156 153 0
155 152 0
155 152 0
154 151 0
156 153 0
155 153 0
156 152 0
155 152 0
156 153 0
155 151 0
154 151 0
154 151 0
155 152 0
155 152 0
155 152 0
154 152 0
155 151 0
155 152 0
156 153 0
154 151 0
155 151 0
158 160 0
172 192 0
173 194 0
169 192 0
170 192 0
171 194 0
172 192 0
171 193 0
172 193 0
175 196 0
171 193 0
174 197 0
169 192 0
173 195 0
174 197 0
173 196 0
172 196 0
175 197 0
173 196 0
172 196 0
173 196 0
175 197 0
173 196 0
170 194 0
173 196 0
172 196 0
174 197 0
171 194 0
171 195 0
174 197 0
173 196 0
171 195 0
173 196 0
170 194 0
173 197 0
172 195 0
171 194 0
171 195 0
172 195 0
174 197 0
171 194 0
173 196 0
173 197 0
173 196 0
171 195 0
170 193 0
172 195 0
170 194 0
170 194 0
171 194 0
171 194 0
171 194 0
173 195 0
174 197 0
170 194 0
173 196 0
171 194 0
174 197 0
171 195 0
170 193 0
172 195 0
169 193 0
170 192 0
173 196 0
171 195 0
170 194 0
173 196 0
169 192 0
171 194 0
171 194 0
169 192 0
168 192 0
172 195 0
172 196 0
170 193 0
169 192 0
171 194 0
171 195 0
168 191 0
172 195 0
168 190 0
172 196 0
172 195 0
172 195 0
173 196 0
173 196 0
171 194 0
170 194 0
169 193 0
168 191 0
167 190 0
170 194 0
171 195 0
171 194 0
172 196 0
171 194 0
171 194 0
171 195 0
169 192 0
171 194 0
170 193 0
168 192 0
171 195 0
173 195 0
169 192 0
171 194 0
172 195 0
166 189 0
171 194 0
169 192 0
170 193 0
171 194 0
169 193 0
169 192 0
171 194 0
171 193 0
168 192 0
171 195 0
168 191 0
171 194 0
172 194 0
169 191 0
168 192 0
171 194 0
172 195 0
171 194 0
169 193 0
167 190 25
78 110 160
61 98 162
62 99 165
62 98 167
61 97 165
61 98 167
62 98 168
62 99 169
62 99 171
62 98 169
62 98 170
62 98 170
61 98 168
62 99 169
63 99 175
62 99 167
62 99 174
62 99 174
63 99 174
63 100 176
62 99 177
62 99 177
63 99 173
61 98 170
61 98 174
62 99 175
63 100 176
62 99 175
62 99 175
62 99 177
62 98 173
62 98 169
62 99 177
62 99 174
62 99 177
62 99 175
63 99 177
62 99 174
62 98 171
62 99 174
61 99 177
62 99 176
62 99 176
62 99 174
62 99 177
62 99 177
62 99 178
61 98 175
62 99 178
62 99 173
62 99 178
62 99 178
62 99 179
62 99 181
62 99 178
63 99 178
62 99 180
62 99 177
61 99 177
62 99 178
62 99 177
62 99 177
62 99 179
62 99 180
62 99 178
62 99 176
62 99 178
62 99 177
62 99 179
62 99 178
62 99 174
62 99 174
62 99 180
62 99 178
62 99 177
62 99 180
62 99 179
62 99 179
62 99 178
62 99 179
62 99 180
62 99 176
63 100 180
63 100 181
61 98 177
62 99 179
61 99 178
62 99 175
62 99 178
62 99 178
61 98 178
61 99 178
61 98 177
62 99 179
62 99 177
62 99 177
62 99 178
62 99 180
62 99 177
62 99 178
63 100 177
62 99 179
62 99 177
62 98 174
61 98 176
63 100 179
62 99 181
61 98 175
62 99 180
62 99 176
62 99 177
62 99 175
62 99 176
62 99 177
62 99 175
62 99 175
62 99 181
62 99 177
62 99 173
61 98 177
62 99 177
63 99 175
62 99 176
62 99 175
62 99 178
62 99 173
63 99 176
63 100 178
62 99 178
62 99 174
63 100 176
62 99 175
63 100 176
62 99 171
63 99 177
61 98 175
62 99 171
62 99 173
62 99 173
62 99 173
62 98 174
62 99 178
62 98 170
63 100 176
62 99 174
62 98 174
62 98 170
62 98 169
62 98 168
63 99 172
62 99 170
61 98 169
62 98 169
62 98 164
61 98 169
62 98 169
61 97 167
62 98 169
61 97 167
62 98 164
61 97 162
62 97 163
62 97 162
61 97 163
60 94 151
47 64 66
46 60 49
43 56 45
47 60 47
48 62 53
47 62 53
49 64 53
49 64 52
48 63 52
49 66 56
49 64 55
50 65 53
50 67 54
51 68 59
50 67 58
51 68 57
51 68 55
52 70 63
53 73 68
54 72 62
54 73 65
130 126 86
199 183 114
199 183 114
199 183 114
199 183 114
198 183 114
198 183 114
198 183 114
198 183 114
198 182 114
198 182 114
198 182 114
198 182 114
198 182 114
198 182 114
198 182 114
198 182 114
198 182 114
198 182 114
198 182 114
198 182 114
198 182 114
198 182 114
198 182 114
198 183 114
198 183 114
198 183 114
198 183 114
198 183 114
199 183 114
199 183 114
199 183 114
199 183 114
199 183 114
199 183 114
199 183 114
199 183 114
199 183 114
200 183 114
200 183 114
200 183 114
200 183 114
200 184 114
200 184 114
201 184 114
201 184 114
201 184 114
197 181 108
185 172 89
169 162 60
158 154 16
156 153 0
157 154 0
156 153 0
156 153 0
155 153 0
155 153 0
156 153 0
155 153 0
156 153 0
157 154 0
155 153 0
157 153 0
156 153 0
155 153 0
156 153 0
156 152 0
155 153 0
156 153 0
155 153 0
155 153 0
155 152 0
154 151 0
157 153 0
157 153 0
155 152 0
155 152 0
153 151 0
154 151 0
155 152 0
153 150 0
155 151 0
154 151 0
154 150 0
153 151 0
154 150 0
163 176 0
173 194 0
172 192 0
172 195 0
171 191 0
173 195 0
172 193 0
172 193 0
171 194 0
171 193 0
174 195 0
170 193 0
174 196 0
175 198 0
171 194 0
174 198 0
174 197 0
172 196 0
170 193 0
174 197 0
174 197 0
170 194 0
171 195 0
172 196 0
172 195 0
174 198 0
171 196 0
172 196 0
172 195 0
170 193 0
171 194 0
175 198 0
173 196 0
171 194 0
172 195 0
176 198 0
170 194 0
173 196 0
173 195 0
171 195 0
173 197 0
173 196 0
173 196 0
173 197 0
172 194 0
173 196 0
173 196 0
174 197 0
173 196 0
173 196 0
171 195 0
168 191 0
171 195 0
173 196 0
173 197 0
172 195 0
171 194 0
171 194 0
170 193 0
176 198 0
170 193 0
173 196 0
172 195 0
173 196 0
172 196 0
172 196 0
171 195 0
170 194 0
172 195 0
171 194 0
170 194 0
171 195 0
171 194 0
173 196 0
173 196 0
173 196 0
172 195 0
171 195 0
173 196 0
170 194 0
169 193 0
172 195 0
173 196 0
174 197 0
172 195 0
173 197 0
172 195 0
170 194 0
172 195 0
172 194 0
173 196 0
170 193 0
170 193 0
170 193 0
173 197 0
173 195 0
171 195 0
172 196 0
170 194 0
173 196 0
172 196 0
168 192 0
171 194 0
171 193 0
171 194 0
172 194 0
171 194 0
174 197 0
171 194 0
173 196 0
169 192 0
171 194 0
170 192 0
174 196 0
173 195 0
170 193 0
170 192 0
169 193 0
171 193 0
168 191 0
169 192 0
167 190 0
168 191 0
173 195 0
168 192 0
170 193 0
168 192 0
121 147 121
62 98 163
63 100 173
62 98 162
62 98 164
63 99 170
63 99 172
62 99 169
62 98 166
61 97 162
62 99 171
62 98 172
63 99 173
62 99 170
62 99 174
62 99 170
62 99 175
63 99 174
62 99 172
62 99 177
62 99 177
62 99 177
62 99 177
62 99 178
61 98 170
63 99 176
62 98 172
63 99 172
62 99 175
62 98 175
62 99 174
62 99 175
63 100 179
62 99 176
62 99 178
62 99 177
62 99 174
63 99 179
62 99 178
61 98 176
62 99 178
62 99 177
62 99 179
62 99 177
62 99 178
62 99 175
62 99 179
61 98 178
62 99 179
62 99 175
62 98 176
62 99 177
62 99 179
61 98 177
62 99 179
62 99 179
63 100 178
62 99 178
62 99 180
62 99 176
62 99 177
61 99 176
62 99 177
62 99 180
62 99 181
62 99 177
62 99 177
62 99 177
62 99 178
61 98 174
62 99 179
62 99 178
61 98 175
62 98 175
62 99 177
62 99 176
62 99 179
62 99 178
61 98 176
62 99 176
62 99 177
62 99 175
62 99 176
62 99 178
63 99 179
61 98 178
62 99 178
62 99 177
63 99 180
61 99 179
62 99 179
62 99 180
62 99 179
62 99 174
62 99 180
61 99 176
62 99 178
62 99 176
61 98 174
61 98 175
62 99 179
62 99 177
61 98 175
62 99 174
62 99 179
62 99 177
63 100 180
62 99 174
62 98 173
63 99 179
62 99 179
62 99 180
62 99 176
62 98 174
62 99 175
62 99 180
61 98 171
62 99 177
63 100 179
62 99 178
62 99 179
62 99 177
62 99 179
63 100 178
63 99 178
62 99 177
62 99 174
62 99 174
62 99 174
61 98 173
61 98 171
63 99 174
61 98 170
62 99 175
62 99 177
62 99 176
62 99 175
61 99 176
61 98 170
62 99 177
62 99 177
62 99 178
62 99 175
62 99 176
62 98 170
62 99 174
62 99 172
62 98 170
63 99 171
62 98 167
62 99 172
62 98 167
63 99 173
62 98 168
62 99 172
62 98 171
63 100 176
62 98 169
62 98 170
62 98 168
62 98 166
62 98 172
62 99 169
61 97 161
62 97 162
62 96 163
54 79 111
43 56 44
44 57 43
46 59 46
49 64 53
46 61 49
47 62 47
47 62 49
48 63 52
50 65 51
50 67 55
50 67 57
50 67 56
50 66 57
53 70 59
54 72 63
51 68 57
54 72 62
53 71 63
53 72 63
55 74 67
117 116 83
200 183 114
200 183 114
199 183 114
199 183 114
199 183 114
199 183 114
199 183 114
199 183 114
199 183 114
199 183 114
199 183 114
199 183 114
199 183 114
199 183 114
199 183 114
199 183 114
199 183 114
199 183 114
199 183 114
199 183 114
199 183 114
199 183 114
199 183 114
199 183 114
199 183 114
199 183 114
199 183 114
199 183 114
199 183 114
199 183 114
200 183 114
200 183 114
200 183 114
200 183 114
200 183 114
200 183 114
200 184 114
200 184 114
201 184 114
201 184 114
201 184 114
201 184 114
197 181 109
188 175 95
177 167 75
163 158 42
157 153 11
155 153 0
157 154 0
157 154 0
155 153 0
156 153 0
156 153 0
155 153 0
155 152 0
157 154 0
155 153 0
157 153 0
156 153 0
156 153 0
157 153 0
156 153 0
155 153 0
156 153 0
157 153 0
155 152 0
155 153 0
156 153 0
156 153 0
154 152 0
154 152 0
155 152 0
154 151 0
154 151 0
155 152 0
155 152 0
154 152 0
156 152 0
155 152 0
155 151 0
153 149 0
153 149 0
153 150 0
155 152 0
155 152 0
170 187 0
174 195 0
171 192 0
170 190 0
173 193 0
173 193 0
172 194 0
174 195 0
172 192 0
174 195 0
172 194 0
171 194 0
174 197 0
173 196 0
173 196 0
174 197 0
173 196 0
174 197 0
172 195 0
172 195 0
170 193 0
171 195 0
173 196 0
171 195 0
172 195 0
173 197 0
172 195 0
174 197 0
172 196 0
172 195 0
174 196 0
173 196 0
172 195 0
174 197 0
170 193 0
172 195 0
171 194 0
172 196 0
172 196 0
172 195 0
167 191 0
172 195 0
172 196 0
170 194 0
172 196 0
173 197 0
171 195 0
171 194 0
173 196 0
173 197 0
172 196 0
171 195 0
172 195 0
170 193 0
171 194 0
173 196 0
172 195 0
170 193 0
172 196 0
172 195 0
173 196 0
173 197 0
170 193 0
172 196 0
172 195 0
171 194 0
174 196 0
172 194 0
172 195 0
173 197 0
172 195 0
172 195 0
172 196 0
172 195 0
174 196 0
172 195 0
172 195 0
171 194 0
171 194 0
170 193 0
173 196 0
173 196 0
171 194 0
172 195 0
170 194 0
170 194 0
171 194 0
173 195 0
170 193 0
174 196 0
171 194 0
171 195 0
171 193 0
171 193 0
169 192 0
170 194 0
171 194 0
173 196 0
169 192 0
168 190 0
171 193 0
171 193 0
169 192 0
169 192 0
170 193 0
171 194 0
168 192 0
170 193 0
167 190 0
169 192 0
170 192 0
169 192 0
171 195 0
169 192 0
172 195 0
169 191 0
173 196 0
171 194 0
173 196 0
166 188 0
167 190 0
170 193 0
170 194 0
169 191 0
169 192 0
171 194 0
165 188 40
75 107 152
62 98 166
62 98 165
62 99 169
62 98 167
62 98 163
62 98 167
62 98 169
63 99 173
62 98 171
62 98 167
62 99 175
62 99 172
62 99 172
62 99 177
62 99 171
62 99 169
62 99 172
63 99 173
62 99 174
62 99 174
62 98 167
62 99 175
63 100 179
62 99 174
62 99 175
62 99 177
62 98 169
62 99 177
62 99 178
61 98 173
62 98 173
61 98 174
62 99 175
62 99 175
61 98 176
62 99 177
63 100 179
62 99 174
61 98 173
63 99 179
62 99 178
62 99 178
62 99 178
62 99 177
62 99 179
62 99 177
62 99 180
62 99 176
63 100 178
62 99 178
62 99 177
62 99 180
62 99 179
62 99 177
62 99 178
62 99 176
62 99 176
62 99 178
61 98 176
62 99 178
62 99 178
62 99 180
62 99 181
62 99 179
62 99 177
62 99 179
62 99 178
62 99 177
62 99 179
62 99 181
62 99 174
62 99 180
62 99 177
62 99 175
61 99 179
62 99 178
62 99 174
62 99 176
62 99 178
63 99 177
62 99 174
62 99 179
62 99 180
62 99 177
62 99 179
62 99 176
62 99 177
61 98 175
62 99 175
62 99 178
62 99 177
62 99 179
62 99 178
62 99 177
62 99 177
62 99 175
62 99 177
62 99 177
62 98 175
61 98 178
62 99 174
62 99 179
61 98 175
61 98 173
62 99 176
63 100 179
62 99 173
62 99 180
62 99 177
62 99 177
62 99 176
62 99 174
62 99 178
62 99 179
62 99 177
62 99 173
62 99 177
62 99 176
63 100 176
63 100 179
62 99 176
62 99 176
63 100 179
63 99 177
62 99 174
62 98 173
63 100 180
62 98 171
62 98 176
62 99 175
62 99 174
62 99 176
62 99 173
62 99 177
62 99 175
62 99 176
62 98 171
62 99 172
62 99 176
62 99 171
62 98 168
62 98 172
63 99 173
63 99 172
62 98 171
62 99 170
61 98 168
62 98 170
61 98 170
62 98 172
62 98 167
62 99 171
63 99 172
62 98 165
61 98 170
63 100 174
61 98 165
62 98 170
63 99 170
62 98 171
62 97 163
62 98 165
61 96 162
62 97 164
61 96 158
59 92 147
43 56 50
46 59 46
45 58 43
44 58 47
46 59 42
48 63 53
50 64 51
45 60 50
47 63 54
49 65 52
49 65 53
50 65 52
51 67 54
52 69 59
53 72 65
51 68 58
53 71 59
51 69 53
52 70 62
52 70 58
119 118 83
200 184 114
200 184 114
200 184 114
200 184 114
200 183 114
200 183 114
200 183 114
200 183 114
200 183 114
200 183 114
200 183 114
200 183 114
200 183 114
200 183 114
200 183 114
200 183 114
200 183 114
200 183 114
200 183 114
200 183 114
200 183 114
200 183 114
200 183 114
200 183 114
200 183 114
200 183 114
200 183 114
200 183 114
200 183 114
200 184 114
200 184 114
200 184 114
201 184 114
201 184 114
201 184 114
201 184 114
201 184 114
200 183 112
193 178 103
180 169 80
170 163 60
164 159 47
155 153 11
157 153 0
154 152 0
157 153 0
156 153 0
156 153 0
154 152 0
155 153 0
156 153 0
156 153 0
156 153 0
156 153 0
156 153 0
154 152 0
155 153 0
154 152 0
156 153 0
155 153 0
156 153 0
155 152 0
155 153 0
155 152 0
156 153 0
156 153 0
154 152 0
158 154 0
155 152 0
154 152 0
155 153 0
154 151 0
154 152 0
154 152 0
154 152 0
154 150 0
157 153 0
155 152 0
157 153 0
156 153 0
154 150 0
154 151 0
155 151 0
153 149 0
158 162 0
172 192 0
171 191 0
172 194 0
172 194 0
172 194 0
173 194 0
171 191 0
172 194 0
171 194 0
173 196 0
173 193 0
175 198 0
172 194 0
174 197 0
172 195 0
171 194 0
170 193 0
170 194 0
173 196 0
171 195 0
174 196 0
171 195 0
172 196 0
172 196 0
172 195 0
172 195 0
174 197 0
169 193 0
172 196 0
173 196 0
174 196 0
170 193 0
171 194 0
171 195 0
173 196 0
172 194 0
173 196 0
172 196 0
171 195 0
170 194 0
173 196 0
171 195 0
170 193 0
173 196 0
173 196 0
173 196 0
170 194 0
171 195 0
172 194 0
170 193 0
172 195 0
169 192 0
171 194 0
173 196 0
171 194 0
171 195 0
171 195 0
172 196 0
172 195 0
174 197 0
172 196 0
173 196 0
171 195 0
171 194 0
170 193 0
171 194 0
172 196 0
169 193 0
172 195 0
169 193 0
170 193 0
170 193 0
169 192 0
170 194 0
171 195 0
169 192 0
168 191 0
172 195 0
171 194 0
172 195 0
170 193 0
172 196 0
171 195 0
171 195 0
170 192 0
169 192 0
173 196 0
170 193 0
172 195 0
171 193 0
170 194 0
170 193 0
173 196 0
167 190 0
171 194 0
171 194 0
170 192 0
173 196 0
172 195 0
171 194 0
174 196 0
170 193 0
171 194 0
173 196 0
168 191 0
171 194 0
170 193 0
169 192 0
172 195 0
169 193 0
173 196 0
172 195 0
170 193 0
171 194 0
172 193 0
170 194 0
170 193 0
168 192 0
168 191 0
173 195 0
170 193 0
167 190 0
171 194 0
169 192 0
170 194 0
170 193 0
131 154 100
62 99 166
61 97 157
63 99 167
62 98 165
62 98 163
62 98 169
61 98 169
62 99 172
62 98 166
62 99 173
62 98 165
62 99 171
63 99 168
62 98 168
62 98 167
62 99 171
62 99 168
62 99 176
63 100 178
62 99 173
62 99 171
61 98 166
62 99 175
62 99 175
62 99 175
62 99 175
63 100 178
63 100 176
62 99 176
62 99 176
63 99 174
62 99 178
61 98 173
62 98 172
62 98 175
62 99 174
62 99 176
62 99 178
62 98 173
62 99 173
63 99 175
62 99 178
61 98 176
62 99 179
62 99 178
62 99 179
62 99 178
62 99 178
62 99 175
62 99 174
62 99 175
63 100 179
62 99 179
62 99 177
62 99 177
62 99 179
62 99 175
62 99 178
62 99 179
63 99 178
62 99 179
62 99 179
62 99 177
62 99 179
62 99 178
62 99 177
62 99 173
62 98 173
62 99 180
62 99 177
62 99 179
62 99 175
63 100 180
62 99 177
62 99 179
62 99 178
62 99 181
63 99 177
61 98 171
62 99 179
61 99 180
62 99 180
62 99 177
63 100 180
62 99 178
61 99 180
61 99 178
63 100 180
63 99 176
62 99 178
61 98 175
62 99 177
62 99 177
62 99 179
62 98 174
62 99 180
62 99 179
62 99 176
62 99 179
62 99 176
61 99 180
61 98 176
62 99 177
62 99 179
61 98 172
62 99 181
62 99 177
62 99 177
62 99 175
62 99 176
63 100 179
61 99 177
62 98 174
62 99 176
61 98 171
63 100 180
61 98 172
62 99 175
61 98 177
62 99 180
62 98 173
62 99 175
62 99 177
63 99 178
62 98 175
62 99 174
61 98 172
62 99 174
62 99 173
61 98 174
63 100 175
61 98 171
61 98 170
62 99 177
62 99 175
62 99 173
62 99 180
62 99 174
62 99 173
63 99 176
62 99 173
61 98 166
62 98 169
62 98 167
63 99 172
62 99 172
63 99 172
62 99 173
62 98 173
63 99 170
62 98 168
62 98 171
63 99 171
63 99 174
61 97 164
62 98 169
63 99 170
63 99 168
61 98 166
61 97 165
63 99 170
62 98 167
62 98 170
62 97 159
61 96 159
61 97 162
61 96 155
53 78 116
44 56 43
48 62 48
45 60 47
51 66 55
47 63 54
47 62 49
47 62 46
49 64 51
50 65 54
48 64 51
51 67 55
50 67 56
50 67 52
51 68 57
52 69 58
52 69 59
53 71 60
56 74 68
54 72 61
97 103 67
184 172 88
186 174 93
192 178 101
196 180 106
199 182 111
201 184 114
201 184 114
201 184 114
201 184 114
201 184 114
201 184 114
201 184 114
200 184 114
200 184 114
200 184 114
200 184 114
200 184 114
200 184 114
200 184 114
200 184 114
200 184 114
200 184 114
201 184 114
201 184 114
201 184 114
201 184 114
201 184 114
201 184 114
201 184 114
201 184 114
199 183 112
197 181 108
192 177 99
184 171 85
183 172 86
169 162 59
164 159 44
156 153 16
155 153 0
155 153 0
157 153 0
156 153 0
156 153 0
155 153 0
157 153 0
155 153 0
155 153 0
156 153 0
156 153 0
156 153 0
157 154 0
155 153 0
156 153 0
156 153 0
156 153 0
156 153 0
156 152 0
154 152 0
156 153 0
157 153 0
155 152 0
155 153 0
155 152 0
157 153 0
155 152 0
155 152 0
154 152 0
156 153 0
155 152 0
155 152 0
155 153 0
155 153 0
153 151 0
153 151 0
153 151 0
154 152 0
154 151 0
153 150 0
154 151 0
153 151 0
153 150 0
156 151 0
153 149 0
154 150 0
165 178 0
171 192 0
172 193 0
174 196 0
173 192 0
173 195 0
173 193 0
173 195 0
173 194 0
174 195 0
173 192 0
172 193 0
172 195 0
173 196 0
174 197 0
173 196 0
170 194 0
172 196 0
171 194 0
172 196 0
172 195 0
170 194 0
173 197 0
174 197 0
173 196 0
174 197 0
172 195 0
171 194 0
173 197 0
172 195 0
173 197 0
173 196 0
171 195 0
171 195 0
174 197 0
174 197 0
170 194 0
173 197 0
171 195 0
170 194 0
173 197 0
172 194 0
172 196 0
174 197 0
172 195 0
170 193 0
170 193 0
170 194 0
174 197 0
169 193 0
173 196 0
174 198 0
174 197 0
171 194 0
172 195 0
174 197 0
172 196 0
171 195 0
170 194 0
172 195 0
173 196 0
173 196 0
173 195 0
170 192 0
172 195 0
173 196 0
170 193 0
171 194 0
171 194 0
169 193 0
169 193 0
172 195 0
172 195 0
171 195 0
173 196 0
173 195 0
168 191 0
171 194 0
172 195 0
170 192 0
174 197 0
167 191 0
172 195 0
172 195 0
172 194 0
171 195 0
171 194 0
170 192 0
170 193 0
172 196 0
172 194 0
173 196 0
169 192 0
166 191 0
171 194 0
170 194 0
167 191 0
171 194 0
171 194 0
168 191 0
169 193 0
169 193 0
170 193 0
172 195 0
171 194 0
169 192 0
170 193 0
170 194 0
167 189 0
169 192 0
170 193 0
171 194 0
170 193 0
169 193 0
169 193 0
167 191 0
168 191 0
172 194 0
171 195 0
168 191 0
171 194 0
171 195 0
167 190 0
169 192 0
169 191 0
166 189 0
162 186 47
75 108 157
62 98 163
62 98 163
63 99 170
61 98 164
62 99 171
62 98 164
63 99 173
61 98 169
62 99 174
61 98 167
62 98 168
62 99 177
62 99 171
63 99 172
62 99 169
62 99 170
62 99 169
62 99 174
62 99 175
63 99 177
62 99 174
62 98 173
61 98 168
62 99 174
63 100 177
61 97 169
61 98 173
62 99 179
61 98 169
62 99 176
62 99 173
63 99 173
62 99 176
62 99 175
62 99 177
62 98 172
62 99 175
63 99 177
62 99 176
62 99 175
63 100 179
62 99 175
63 99 176
62 99 176
62 99 176
61 98 177
62 99 175
63 100 180
62 99 177
62 99 179
62 99 176
62 99 177
62 99 177
62 99 176
63 100 178
62 99 178
62 99 179
62 99 174
63 99 178
62 99 179
62 99 176
62 99 177
62 99 176
62 99 180
62 99 176
61 99 178
62 99 177
63 99 177
62 99 178
62 99 177
62 99 178
62 99 179
62 99 175
62 99 176
62 99 176
62 99 177
63 100 178
62 99 176
62 99 177
62 99 176
62 99 176
61 99 177
62 99 172
62 99 180
62 99 178
62 99 176
62 99 178
62 98 173
62 99 176
62 99 178
61 98 173
62 99 176
62 99 176
62 99 176
62 99 176
62 99 178
62 99 179
63 100 180
62 99 177
63 100 177
62 99 177
61 98 174
62 99 178
62 99 180
62 99 177
62 99 178
62 99 174
63 100 177
62 99 179
62 99 178
62 99 177
62 99 179
62 99 174
62 99 176
62 99 178
62 99 172
61 98 174
62 99 176
62 99 173
62 99 178
62 98 167
61 98 175
62 99 174
62 99 174
61 98 174
63 99 178
62 98 167
62 99 175
62 98 170
62 99 176
62 99 175
62 99 175
63 100 178
61 98 170
63 99 178
62 99 175
61 98 176
62 99 168
62 98 172
62 99 172
61 98 169
62 99 175
62 99 174
63 99 174
63 99 170
62 99 177
62 99 172
63 99 170
63 99 167
63 99 172
62 98 168
62 98 170
62 98 165
62 98 166
61 97 162
63 99 170
62 98 164
63 99 174
61 97 163
63 99 166
62 98 170
63 99 165
61 97 161
61 97 164
61 97 162
61 96 157
61 95 154
59 92 148
45 60 54
45 58 43
45 59 48
46 60 49
47 62 50
47 62 49
48 62 47
46 60 48
50 66 54
49 64 50
49 64 49
50 67 56
51 67 55
53 70 60
52 70 56
53 71 58
53 71 59
53 70 57
53 72 61
94 101 54
156 153 0
155 153 0
156 153 0
155 153 0
155 153 0
161 157 37
165 159 47
170 162 60
173 164 62
179 168 77
178 168 77
183 171 85
183 171 86
188 174 93
186 173 90
189 175 95
185 173 91
185 173 89
188 175 94
184 172 87
185 173 90
185 172 88
185 173 90
184 172 87
179 169 80
176 166 73
170 162 60
170 163 62
164 158 44
162 157 36
155 153 0
155 153 0
157 154 0
155 153 0
155 153 0
155 153 0
154 152 0
156 153 0
157 153 0
156 153 0
156 153 0
155 152 0
155 153 0
155 153 0
156 153 0
156 153 0
157 153 0
156 153 0
156 153 0
156 153 0
155 152 0
155 152 0
154 152 0
155 153 0
156 153 0
157 153 0
154 152 0
155 153 0
155 152 0
156 153 0
154 152 0
153 151 0
157 153 0
156 153 0
156 152 0
156 152 0
156 152 0
154 152 0
155 152 0
154 152 0
153 150 0
154 152 0
155 152 0
154 152 0
154 151 0
152 151 0
154 151 0
153 150 0
156 152 0
154 151 0
155 151 0
154 151 0
152 149 0
155 152 0
172 192 0
172 193 0
171 192 0
170 190 0
171 192 0
171 192 0
171 191 0
172 192 0
172 194 0
171 192 0
172 194 0
172 193 0
173 196 0
173 197 0
173 197 0
172 196 0
173 197 0
174 198 0
170 193 0
173 196 0
172 195 0
173 196 0
173 196 0
173 196 0
170 194 0
172 195 0
170 194 0
170 195 0
170 192 0
175 197 0
168 192 0
172 195 0
170 194 0
173 196 0
172 195 0
170 194 0
171 194 0
171 195 0
172 195 0
171 194 0
172 196 0
168 193 0
171 195 0
170 193 0
171 194 0
171 194 0
174 196 0
172 196 0
172 195 0
172 195 0
172 196 0
174 197 0
173 196 0
170 194 0
171 194 0
172 196 0
172 196 0
171 194 0
171 194 0
172 194 0
170 194 0
172 195 0
170 192 0
170 194 0
171 194 0
173 196 0
172 196 0
172 194 0
172 195 0
172 196 0
172 195 0
172 196 0
167 191 0
171 194 0
171 194 0
172 195 0
172 195 0
170 194 0
173 196 0
172 195 0
169 191 0
172 196 0
170 193 0
174 196 0
173 195 0
169 192 0
169 192 0
169 193 0
170 193 0
171 194 0
172 195 0
172 193 0
170 194 0
171 194 0
170 193 0
169 193 0
169 192 0
172 196 0
173 196 0
173 196 0
170 193 0
170 193 0
169 192 0
172 195 0
172 194 0
171 194 0
169 191 0
169 193 0
168 191 0
170 193 0
167 190 0
170 193 0
166 188 0
171 194 0
175 197 0
169 191 0
169 191 0
170 193 0
167 191 0
172 195 0
171 195 0
167 189 0
167 190 0
169 192 0
167 191 0
171 194 0
131 156 107
62 98 161
63 99 168
62 98 162
63 99 164
61 97 161
62 98 166
62 98 163
61 98 166
62 98 170
62 98 166
62 98 170
61 98 169
63 100 174
63 99 174
62 99 173
62 99 174
62 99 175
62 99 176
62 98 172
62 98 172
62 99 175
61 98 168
62 99 170
62 99 174
62 99 175
62 99 179
62 99 175
61 98 172
61 98 170
62 99 173
62 99 177
62 99 175
62 99 180
62 99 175
62 98 173
62 99 176
61 98 169
62 99 176
61 98 175
62 99 175
62 99 176
62 99 176
62 99 174
62 99 177
61 98 176
62 98 174
62 99 178
63 100 180
63 100 178
62 99 174
62 99 176
62 99 177
61 98 174
62 99 179
62 98 173
62 99 170
62 99 175
62 99 177
63 99 173
62 99 179
62 99 178
62 99 176
62 99 176
62 99 177
62 99 179
63 100 179
62 99 180
62 99 178
63 100 178
62 99 177
62 99 178
62 99 178
62 99 178
62 99 175
62 99 174
62 99 178
61 98 174
61 98 177
62 99 180
63 99 176
62 99 178
63 99 178
62 99 176
62 99 180
61 99 179
62 99 177
62 99 176
62 99 177
62 99 177
62 99 180
62 98 173
62 99 178
62 99 179
62 99 179
62 99 177
61 98 173
62 99 178
62 99 179
63 100 180
61 98 174
62 99 178
62 99 176
62 99 179
62 99 176
62 98 173
62 99 178
62 99 173
63 99 177
62 99 175
62 99 175
62 99 178
62 99 180
62 99 175
63 99 177
62 99 180
62 99 174
61 98 171
62 99 178
61 98 171
62 99 177
62 99 174
62 99 175
62 99 175
62 99 172
62 99 173
63 100 177
63 99 173
62 99 175
61 98 172
63 99 176
63 99 176
62 99 174
63 99 177
62 99 176
63 99 175
62 99 178
62 99 174
62 99 175
62 99 173
62 99 173
62 98 168
63 100 172
61 98 170
61 98 172
62 98 167
62 98 168
62 99 178
63 99 172
62 99 168
62 98 171
62 99 174
63 99 172
62 99 169
62 98 170
61 98 164
62 98 167
63 99 173
62 98 166
62 98 167
62 98 170
62 98 171
61 97 165
62 97 164
62 98 172
61 97 164
62 98 166
61 96 159
60 95 153
62 98 160
49 71 98
45 59 46
43 57 45
47 62 50
46 60 47
48 62 47
47 62 47
51 67 57
50 65 55
51 67 55
51 67 57
48 63 48
50 66 54
50 67 55
52 69 57
52 69 57
53 71 59
53 72 61
53 72 61
90 98 52
156 153 0
156 153 0
157 153 0
156 153 0
155 153 0
156 153 0
155 153 0
156 153 0
156 153 0
156 153 0
156 153 0
156 153 0
155 152 0
158 154 0
155 153 0
156 153 0
156 153 0
155 153 0
156 153 0
156 153 0
156 153 0
157 154 0
156 153 0
156 153 0
157 154 0
156 153 0
156 153 0
156 153 0
153 151 0
156 153 0
156 153 0
155 153 0
156 153 0
155 153 0
156 153 0
156 153 0
156 153 0
156 153 0
155 153 0
156 153 0
156 153 0
155 153 0
156 153 0
156 153 0
156 153 0
155 152 0
155 153 0
157 153 0
156 153 0
154 152 0
155 152 0
156 153 0
156 153 0
156 153 0
155 152 0
156 153 0
155 152 0
157 153 0
155 152 0
156 153 0
157 153 0
155 152 0
157 153 0
154 152 0
156 152 0
156 153 0
154 152 0
155 152 0
155 152 0
156 153 0
155 152 0
155 152 0
154 151 0
156 151 0
156 152 0
155 152 0
155 153 0
155 152 0
153 149 0
153 150 0
152 149 0
156 152 0
153 149 0
160 167 0
170 191 0
170 189 0
169 189 0
172 193 0
171 190 0
171 192 0
171 192 0
171 191 0
170 190 0
169 189 0
171 192 0
173 196 0
171 195 0
169 192 0
170 194 0
170 193 0
171 195 0
173 196 0
173 196 0
170 193 0
173 197 0
173 196 0
173 196 0
172 195 0
174 197 0
170 193 0
170 193 0
173 197 0
171 194 0
170 194 0
174 197 0
172 195 0
173 196 0
173 196 0
173 197 0
171 194 0
172 195 0
172 195 0
171 194 0
173 195 0
172 195 0
172 195 0
172 195 0
173 197 0
172 196 0
171 195 0
173 196 0
173 197 0
171 195 0
175 197 0
174 197 0
171 194 0
175 197 0
172 195 0
172 195 0
172 196 0
169 192 0
172 196 0
171 194 0
169 193 0
173 196 0
170 193 0
173 197 0
170 193 0
171 193 0
171 194 0
172 195 0
171 194 0
172 195 0
173 196 0
172 196 0
173 196 0
170 194 0
170 194 0
172 195 0
168 192 0
170 193 0
171 194 0
170 193 0
170 193 0
173 196 0
172 195 0
169 193 0
169 193 0
169 192 0
173 197 0
168 192 0
170 193 0
172 195 0
170 194 0
173 196 0
173 196 0
170 193 0
172 195 0
172 195 0
168 191 0
169 192 0
169 193 0
173 197 0
171 193 0
173 196 0
171 194 0
168 191 0
172 195 0
170 194 0
170 193 0
169 192 0
171 194 0
170 193 0
172 196 0
172 195 0
168 192 0
169 192 0
168 190 0
167 191 0
168 191 0
168 191 0
172 195 0
171 192 0
164 187 0
166 188 0
172 195 0
171 193 0
168 189 0
172 194 0
171 194 0
86 116 153
62 98 162
62 98 162
62 99 168
62 98 165
62 98 164
61 98 165
62 98 164
61 98 168
61 98 166
62 98 166
62 99 174
62 98 167
62 99 172
62 98 166
61 98 170
61 98 171
61 98 164
62 99 171
62 98 166
62 99 171
62 99 171
61 98 168
62 98 170
62 98 172
62 98 170
63 100 176
63 99 177
62 99 174
62 98 171
63 100 180
62 99 177
62 99 179
61 97 169
62 99 178
62 99 177
63 99 174
62 99 176
63 99 176
62 99 177
62 99 176
62 99 177
62 98 175
62 99 176
62 99 172
62 99 175
63 100 178
62 99 176
62 99 179
62 99 178
63 99 174
62 99 176
62 99 175
62 99 176
62 99 178
62 99 177
63 99 174
62 99 181
62 99 177
62 99 177
62 99 174
62 99 176
62 99 176
61 98 174
62 99 176
62 99 175
62 99 175
63 99 178
62 99 178
62 99 178
63 100 178
62 99 178
62 99 179
62 99 177
62 99 177
62 99 175
62 99 176
62 99 175
62 99 177
63 99 177
62 99 178
63 99 177
63 99 173
62 99 179
62 99 178
61 98 175
61 98 171
61 99 176
61 98 171
62 99 178
62 99 178
62 99 180
62 98 174
63 99 179
62 99 180
63 100 179
62 99 178
62 99 177
62 99 174
62 99 176
63 100 179
62 99 176
62 99 176
62 99 176
61 98 175
63 99 178
62 99 177
62 99 173
62 99 172
62 99 174
62 99 176
62 99 174
62 99 173
62 99 177
62 99 177
62 98 174
62 98 173
62 99 175
62 99 174
63 100 178
62 99 172
62 99 175
62 99 178
62 99 175
63 99 176
61 98 175
63 100 175
62 99 172
62 98 172
61 98 171
63 99 175
61 98 174
62 98 171
62 99 174
63 99 176
62 99 174
63 99 178
62 98 170
62 98 169
62 99 175
62 98 170
62 98 168
62 99 175
61 97 162
62 98 169
62 99 169
62 98 166
62 98 169
62 99 173
62 99 169
62 98 167
62 98 170
62 99 172
62 98 168
63 99 168
61 97 164
62 98 173
62 99 170
62 98 168
62 98 168
61 97 160
62 99 174
62 98 166
62 98 164
62 98 164
61 97 165
62 98 165
61 98 165
61 96 159
61 94 151
59 90 145
45 60 48
46 60 46
44 57 46
47 62 47
46 60 48
45 59 44
48 63 50
48 62 48
48 63 49
50 67 56
50 66 54
50 66 54
49 65 54
51 68 56
52 70 58
52 70 60
52 71 59
53 71 60
102 108 52
155 153 0
155 153 0
154 152 0
155 153 0
157 153 0
156 153 0
154 152 0
157 153 0
156 153 0
154 152 0
155 152 0
157 154 0
156 153 0
156 153 0
155 153 0
156 153 0
156 153 0
156 153 0
155 153 0
155 153 0
155 153 0
156 153 0
155 153 0
155 153 0
155 153 0
155 153 0
156 153 0
156 153 0
155 153 0
156 153 0
156 153 0
156 153 0
156 153 0
157 154 0
156 153 0
156 153 0
155 152 0
155 152 0
155 153 0
157 153 0
156 153 0
155 153 0
156 153 0
156 153 0
155 152 0
155 153 0
156 153 0
157 153 0
154 152 0
156 153 0
154 152 0
156 152 0
155 153 0
155 152 0
155 152 0
154 152 0
156 153 0
154 151 0
156 153 0
155 152 0
154 151 0
154 152 0
155 152 0
155 152 0
156 153 0
154 152 0
154 151 0
153 150 0
154 151 0
153 151 0
155 152 0
152 149 0
154 151 0
152 150 0
153 150 0
154 150 0
154 151 0
156 152 0
154 151 0
155 151 0
152 149 0
154 149 0
154 151 0
168 185 0
170 190 0
173 194 0
172 192 0
170 193 0
170 191 0
172 195 0
173 194 0
171 193 0
172 193 0
172 195 0
172 192 0
171 189 0
173 197 0
173 197 0
170 194 0
172 196 0
173 196 0
173 196 0
174 197 0
175 198 0
173 196 0
170 194 0
171 194 0
172 195 0
171 195 0
171 195 0
172 196 0
174 197 0
172 194 0
175 197 0
172 196 0
172 195 0
169 193 0
174 197 0
173 196 0
172 195 0
172 196 0
170 194 0
171 195 0
169 193 0
170 193 0
173 196 0
173 197 0
171 195 0
172 195 0
170 193 0
172 195 0
172 196 0
174 197 0
170 192 0
172 196 0
172 195 0
171 195 0
170 194 0
173 196 0
170 194 0
169 193 0
168 191 0
171 193 0
171 194 0
172 195 0
171 195 0
171 194 0
168 192 0
173 196 0
171 193 0
167 190 0
175 197 0
170 193 0
170 193 0
171 194 0
171 194 0
170 194 0
171 194 0
169 191 0
170 193 0
168 193 0
169 194 0
172 195 0
168 192 0
168 191 0
171 195 0
174 197 0
171 195 0
168 191 0
173 196 0
171 194 0
168 192 0
169 193 0
168 191 0
171 195 0
166 189 0
170 193 0
170 193 0
169 192 0
174 197 0
169 192 0
169 191 0
170 193 0
172 195 0
171 195 0
172 195 0
168 191 0
167 190 0
174 197 0
168 190 0
169 192 0
172 194 0
170 192 0
170 194 0
170 193 0
171 194 0
170 193 0
169 191 0
169 191 0
171 195 0
170 193 0
167 190 0
169 192 0
170 192 0
168 191 0
171 193 0
169 192 0
169 192 0
169 192 0
145 169 90
62 98 159
62 99 165
63 99 168
62 99 171
62 98 163
62 98 167
62 98 162
61 98 169
63 99 169
62 98 167
62 99 172
63 99 170
62 98 169
63 99 176
62 99 176
62 99 173
61 98 171
62 99 175
62 98 171
62 98 169
62 99 171
62 98 172
62 98 173
62 99 175
62 99 171
62 99 173
62 99 173
61 98 166
62 98 172
62 99 172
61 98 172
62 99 172
62 99 174
62 98 168
62 99 176
62 99 175
63 99 177
61 98 169
62 99 175
62 99 176
63 99 175
62 99 176
62 99 177
63 99 178
63 100 178
62 99 177
62 99 179
62 99 175
61 98 174
62 99 180
62 99 175
62 99 176
61 98 175
62 99 174
61 98 176
62 99 177
62 99 176
62 99 179
61 99 178
62 99 177
62 99 179
61 99 177
62 99 177
62 99 176
62 99 180
62 99 178
62 99 178
62 99 178
62 99 179
61 98 175
62 99 175
62 99 175
62 99 176
62 99 176
62 99 176
62 98 174
61 98 175
61 98 180
62 99 174
62 99 174
61 99 177
61 98 177
63 100 179
62 99 178
62 99 177
62 99 176
63 99 178
62 99 175
62 99 175
62 99 177
62 99 175
61 98 177
62 99 178
62 98 173
61 98 175
62 99 175
62 99 176
62 99 179
63 100 178
62 99 177
62 99 175
62 99 175
62 99 175
62 99 173
63 99 176
62 99 174
62 99 178
62 99 174
62 99 176
62 99 178
62 99 178
62 99 178
62 99 174
62 99 176
62 99 178
62 99 176
62 99 177
62 99 177
62 99 174
62 98 171
61 98 173
62 99 179
62 99 178
62 99 172
62 98 172
62 99 174
62 99 175
62 98 170
63 99 177
63 99 174
62 98 174
62 99 173
62 98 171
62 99 174
61 98 172
62 98 170
62 98 168
62 99 174
62 99 175
62 99 172
63 100 177
62 99 172
63 100 174
62 99 175
62 98 170
61 98 176
62 99 173
62 99 172
62 99 172
62 99 173
62 99 173
62 99 170
63 99 169
63 99 172
63 99 169
61 98 169
62 98 168
62 98 167
62 98 166
62 99 173
62 98 164
62 98 167
62 98 162
62 98 170
62 97 160
62 97 161
61 97 158
60 95 148
61 96 156
61 97 156
61 95 160
48 67 84
45 58 44
48 63 52
47 62 51
46 61 48
49 65 56
48 63 50
46 61 46
51 67 56
50 66 52
49 64 51
49 65 51
48 64 51
53 70 60
50 67 51
52 70 58
52 70 56
53 71 57
121 124 38
155 153 0
155 153 0
155 153 0
156 153 0
156 153 0
157 153 0
156 153 0
155 152 0
155 152 0
156 153 0
154 152 0
156 153 0
156 153 0
154 152 0
154 152 0
156 153 0
154 152 0
156 153 0
156 153 0
157 153 0
156 153 0
157 153 0
157 153 0
157 153 0
155 153 0
156 153 0
156 153 0
156 153 0
155 152 0
157 153 0
156 153 0
156 153 0
155 153 0
154 152 0
157 153 0
155 153 0
156 153 0
156 153 0
155 153 0
157 153 0
157 153 0
156 153 0
156 153 0
155 153 0
155 153 0
156 153 0
156 153 0
155 153 0
154 151 0
156 153 0
157 154 0
155 152 0
155 152 0
151 150 0
155 153 0
155 152 0
155 152 0
156 153 0
155 152 0
154 152 0
155 152 0
154 152 0
155 152 0
155 152 0
154 151 0
154 150 0
155 152 0
155 152 0
155 152 0
156 152 0
156 153 0
156 152 0
155 152 0
153 150 0
153 150 0
155 151 0
153 151 0
155 151 0
155 150 0
154 150 0
154 150 0
154 151 0
157 159 0
172 193 0
172 192 0
171 192 0
171 193 0
170 189 0
170 190 0
172 193 0
170 189 0
174 194 0
172 193 0
171 191 0
173 195 0
174 196 0
173 196 0
171 194 0
174 197 0
171 194 0
172 195 0
172 195 0
169 192 0
171 195 0
173 196 0
170 195 0
168 192 0
173 197 0
172 196 0
170 193 0
174 196 0
172 196 0
173 196 0
171 194 0
173 196 0
172 195 0
173 197 0
173 197 0
173 195 0
171 195 0
171 194 0
172 196 0
171 195 0
171 195 0
169 193 0
171 195 0
174 198 0
172 196 0
171 195 0
174 197 0
170 194 0
174 196 0
173 196 0
172 195 0
171 195 0
175 198 0
173 196 0
171 195 0
171 194 0
174 196 0
174 197 0
173 196 0
169 192 0
169 193 0
174 197 0
170 193 0
170 193 0
171 195 0
169 193 0
168 192 0
171 194 0
172 194 0
172 194 0
170 193 0
170 193 0
172 195 0
172 195 0
172 194 0
173 197 0
169 192 0
169 191 0
172 194 0
172 195 0
171 194 0
172 195 0
170 192 0
168 191 0
173 196 0
170 193 0
172 195 0
172 196 0
171 195 0
171 194 0
168 191 0
173 195 0
168 192 0
170 194 0
167 189 0
172 195 0
166 190 0
167 191 0
168 191 0
171 194 0
173 197 0
169 192 0
170 193 0
168 191 0
171 195 0
166 189 0
171 194 0
169 192 0
169 192 0
168 192 0
171 194 0
167 191 0
168 191 0
169 192 0
172 195 0
170 194 0
167 189 0
170 194 0
170 194 0
167 191 0
167 190 0
170 193 0
171 194 0
171 194 0
171 194 0
170 193 0
105 132 140
63 99 167
61 97 163
61 97 160
61 98 162
61 98 165
62 98 165
62 99 165
62 99 170
62 98 163
62 99 169
62 99 170
62 98 171
63 99 169
61 98 168
62 99 174
63 99 172
62 98 167
62 99 172
63 100 173
62 99 168
63 99 173
63 99 172
62 99 172
61 98 171
62 98 170
63 99 172
62 99 173
63 99 173
62 98 170
62 99 177
61 98 170
62 98 171
63 99 175
62 98 177
63 100 179
62 99 177
62 99 174
62 98 175
62 99 177
63 99 175
62 99 176
61 98 176
62 98 169
63 99 175
62 98 175
61 98 174
62 99 177
62 99 173
62 99 180
63 99 180
63 99 176
62 99 174
62 99 179
61 98 170
62 99 174
62 99 176
62 99 171
62 99 177
62 99 180
62 99 175
62 99 179
62 98 173
61 99 177
63 100 179
62 99 178
62 99 176
63 99 176
62 99 175
62 99 180
62 99 177
62 99 176
62 99 175
62 99 175
62 99 180
62 99 177
62 98 173
62 99 177
61 98 177
62 99 177
62 99 179
62 99 177
63 99 173
62 99 177
62 98 174
62 99 170
62 99 174
62 99 179
63 100 180
62 99 176
62 99 176
62 99 177
63 99 174
62 99 177
62 99 178
63 99 178
62 99 175
62 99 178
62 99 176
62 99 176
62 99 177
62 99 173
62 99 175
63 99 178
62 99 176
62 99 173
62 99 180
62 99 178
63 100 177
62 99 174
62 99 175
62 99 175
62 99 172
63 100 179
62 99 175
62 99 173
62 99 174
62 98 171
61 98 171
61 98 173
62 99 173
63 100 174
63 100 175
62 99 174
62 99 177
63 99 176
62 99 172
61 98 173
62 99 174
63 99 175
62 99 172
62 99 176
63 100 175
61 98 166
64 100 179
62 98 171
62 98 173
63 99 174
62 99 175
62 99 173
62 99 173
63 99 171
61 98 172
62 99 172
61 97 166
62 98 168
62 98 166
63 99 173
62 99 172
62 98 172
62 99 172
62 98 167
62 98 167
62 99 174
62 98 170
62 98 167
62 99 171
62 98 165
62 98 169
62 99 172
61 98 169
62 98 168
62 99 171
62 99 173
62 97 165
61 97 162
61 97 156
61 97 165
62 98 162
61 97 159
62 97 159
61 96 155
55 82 122
45 59 45
45 58 43
45 58 44
46 61 51
48 63 48
47 63 50
48 63 46
46 60 44
48 63 49
50 67 56
50 66 52
51 68 56
52 69 57
51 68 53
52 69 56
53 71 60
54 73 62
121 124 37
157 154 0
155 153 0
156 153 0
155 152 0
154 152 0
156 152 0
154 152 0
156 153 0
156 153 0
155 152 0
155 153 0
155 153 0
155 153 0
156 153 0
155 152 0
155 153 0
156 153 0
156 153 0
154 152 0
156 153 0
156 153 0
156 153 0
154 151 0
156 153 0
154 152 0
155 152 0
155 152 0
154 151 0
154 152 0
157 153 0
158 154 0
155 153 0
155 152 0
156 153 0
154 151 0
156 153 0
156 153 0
154 152 0
154 151 0
155 153 0
153 151 0
153 151 0
154 152 0
156 153 0
156 153 0
157 153 0
155 152 0
155 152 0
155 152 0
156 153 0
154 151 0
153 151 0
153 150 0
155 152 0
154 152 0
155 152 0
155 153 0
154 151 0
154 151 0
155 152 0
156 152 0
155 152 0
154 151 0
155 151 0
152 150 0
154 152 0
155 151 0
156 153 0
156 152 0
153 151 0
156 152 0
156 152 0
152 149 0
155 151 0
155 152 0
153 150 0
156 152 0
155 150 0
156 152 0
155 151 0
154 149 0
155 151 0
167 181 0
171 189 0
171 192 0
171 192 0
172 191 0
171 190 0
171 190 0
171 191 0
171 191 0
171 191 0
171 191 0
170 191 0
172 191 0
171 192 0
173 197 0
171 195 0
167 191 0
172 196 0
173 196 0
173 197 0
171 195 0
174 197 0
173 197 0
172 195 0
172 196 0
173 196 0
174 198 0
171 194 0
171 194 0
169 192 0
171 195 0
173 196 0
172 195 0
172 195 0
171 194 0
171 194 0
174 197 0
168 192 0
171 194 0
172 195 0
172 195 0
171 194 0
172 195 0
173 197 0
170 194 0
169 192 0
174 197 0
172 195 0
170 193 0
171 195 0
172 195 0
174 196 0
172 196 0
169 192 0
171 195 0
169 192 0
171 195 0
169 192 0
171 193 0
171 194 0
172 195 0
171 195 0
173 197 0
173 195 0
173 196 0
170 194 0
170 192 0
172 194 0
170 195 0
170 193 0
171 195 0
170 193 0
171 194 0
168 192 0
172 195 0
168 191 0
171 194 0
171 195 0
171 195 0
169 192 0
170 193 0
168 192 0
170 194 0
170 193 0
172 195 0
171 195 0
172 196 0
171 195 0
172 196 0
169 192 0
170 194 0
170 193 0
174 196 0
171 194 0
173 196 0
166 190 0
169 193 0
169 192 0
170 194 0
173 196 0
168 191 0
168 191 0
170 192 0
169 193 0
172 195 0
168 191 0
168 190 0
171 194 0
168 190 0
171 194 0
171 194 0
171 194 0
169 192 0
170 193 0
168 190 0
172 196 0
170 193 0
169 191 0
167 191 0
166 190 0
165 187 0
163 186 0
166 189 0
170 193 0
169 193 0
166 188 0
163 187 54
63 98 153
62 99 166
61 97 151
61 97 155
62 99 169
62 98 167
61 97 162
62 98 162
61 98 162
62 98 164
61 98 167
61 98 165
63 99 168
62 99 172
61 98 172
62 98 165
62 99 169
61 98 172
61 98 172
62 98 169
62 98 168
62 98 170
62 99 173
62 99 175
62 98 171
62 99 172
61 98 175
62 99 173
63 99 173
62 99 176
61 98 173
62 98 168
62 99 171
62 99 177
62 99 173
62 98 168
62 99 177
63 99 172
62 99 170
62 99 172
62 99 174
61 98 177
62 99 174
62 99 175
62 99 178
62 99 178
62 98 174
62 99 177
62 99 176
62 99 174
63 100 177
62 99 175
62 99 172
63 99 177
62 99 179
62 99 175
62 99 174
62 99 173
62 99 180
62 99 176
61 99 178
62 99 173
63 100 178
62 99 175
62 99 176
61 98 173
62 99 177
63 100 179
62 99 170
62 99 176
63 100 178
62 98 172
61 98 175
61 98 172
62 99 178
61 98 176
62 99 181
62 99 177
62 99 178
62 99 175
63 100 179
62 99 178
61 98 174
62 99 176
62 99 179
61 98 171
62 99 175
62 99 174
62 99 177
62 99 178
62 99 177
63 100 178
63 100 179
62 99 174
62 99 177
62 99 176
62 99 174
63 100 180
63 99 173
63 99 176
63 99 179
62 99 173
62 99 180
62 98 170
63 99 176
62 99 179
62 99 174
62 98 175
62 99 172
62 99 173
61 98 172
61 98 172
62 99 179
63 100 177
62 99 176
61 98 173
63 99 178
62 99 176
63 100 176
62 99 174
61 98 171
62 99 174
62 99 173
62 99 177
62 99 172
63 99 177
62 99 174
62 99 176
62 98 170
62 98 173
63 99 177
63 100 178
62 99 174
62 98 172
62 99 172
61 98 170
62 99 177
63 100 177
63 99 173
62 99 172
61 98 176
62 99 170
62 99 171
62 99 173
63 99 174
61 98 166
63 99 171
62 98 171
62 99 173
63 99 169
62 99 173
63 99 171
62 99 173
63 99 170
61 98 169
62 98 169
63 99 176
62 99 173
61 97 163
62 98 170
63 99 171
63 99 171
62 97 163
62 98 168
62 98 165
62 98 166
62 98 165
61 97 160
62 98 166
62 98 163
62 97 154
61 96 159
60 95 156
46 60 50
44 57 42
46 59 45
46 61 51
47 62 47
49 64 50
46 60 46
51 67 56
48 62 48
50 65 50
50 66 50
51 68 59
50 66 53
50 66 47
50 67 50
53 71 57
54 72 58
136 136 28
154 152 0
155 152 0
154 152 0
153 151 0
155 152 0
155 152 0
155 153 0
156 153 0
156 153 0
156 153 0
155 153 0
156 153 0
155 152 0
156 153 0
156 153 0
155 152 0
155 152 0
154 152 0
153 152 0
155 152 0
156 153 0
153 152 0
155 152 0
155 153 0
156 153 0
155 152 0
155 152 0
156 153 0
155 153 0
155 153 0
155 152 0
156 153 0
156 153 0
153 151 0
156 153 0
156 153 0
155 152 0
156 153 0
155 153 0
155 152 0
155 152 0
155 152 0
154 152 0
156 153 0
157 153 0
154 151 0
152 150 0
154 152 0
156 153 0
156 152 0
155 151 0
154 151 0
156 152 0
155 152 0
156 153 0
154 151 0
155 152 0
156 153 0
154 151 0
155 152 0
155 152 0
154 151 0
155 152 0
153 151 0
156 153 0
155 152 0
154 151 0
155 151 0
155 151 0
154 151 0
155 152 0
154 152 0
154 152 0
153 149 0
155 150 0
153 150 0
153 150 0
152 147 0
152 149 0
154 150 0
155 150 0
155 154 0
173 192 0
170 189 0
173 194 0
171 190 0
169 190 0
172 192 0
171 192 0
173 195 0
170 192 0
171 192 0
173 192 0
172 192 0
172 191 0
171 191 0
174 197 0
174 197 0
174 197 0
173 196 0
171 195 0
174 197 0
172 195 0
172 195 0
172 195 0
172 195 0
172 195 0
173 197 0
171 195 0
172 195 0
174 197 0
173 196 0
173 197 0
172 195 0
170 194 0
173 195 0
174 198 0
173 196 0
170 194 0
170 194 0
170 194 0
173 196 0
171 194 0
170 191 0
174 197 0
172 195 0
172 196 0
171 195 0
172 195 0
172 196 0
172 195 0
171 193 0
169 194 0
173 196 0
170 193 0
170 194 0
173 197 0
172 196 0
171 194 0
173 195 0
172 196 0
171 195 0
173 196 0
173 195 0
173 196 0
172 195 0
172 195 0
173 196 0
166 190 0
173 196 0
172 195 0
170 193 0
169 193 0
173 197 0
173 196 0
168 192 0
170 193 0
168 191 0
167 191 0
169 192 0
168 192 0
172 196 0
173 196 0
171 194 0
172 196 0
171 194 0
173 196 0
172 196 0
171 194 0
172 194 0
168 193 0
169 192 0
169 192 0
170 194 0
170 192 0
167 190 0
170 193 0
172 195 0
167 192 0
169 193 0
171 194 0
171 193 0
168 192 0
168 191 0
171 194 0
167 189 0
167 192 0
169 191 0
167 191 0
166 188 0
170 192 0
170 193 0
172 195 0
171 194 0
173 196 0
171 193 0
171 194 0
171 194 0
172 195 0
167 189 0
169 192 0
166 189 0
168 191 0
166 190 0
168 191 0
166 188 0
172 195 0
170 193 0
129 154 110
62 98 163
62 98 164
61 97 157
62 99 168
62 99 169
62 99 170
62 99 169
62 98 166
62 98 167
63 99 169
62 99 170
62 99 173
62 99 171
62 98 166
62 99 170
62 98 169
62 99 176
62 99 172
62 99 172
61 98 166
63 99 177
62 99 171
62 98 171
62 99 171
63 100 178
62 99 177
61 98 171
61 98 174
62 98 170
62 99 174
62 99 175
62 99 172
61 98 173
62 99 176
61 98 170
62 99 178
62 99 174
62 99 175
62 98 170
62 99 175
62 99 176
62 99 174
62 99 176
62 99 177
62 99 177
62 99 174
62 99 173
62 99 176
62 99 176
63 100 177
62 99 176
61 98 173
62 99 178
61 98 174
61 98 175
62 99 176
62 99 174
63 99 177
62 98 170
62 99 177
62 98 173
62 99 177
63 100 181
63 100 180
62 98 171
62 99 172
62 99 173
62 99 177
63 99 176
62 99 178
62 99 176
62 99 174
62 99 175
63 100 178
62 99 178
62 98 174
62 99 176
62 99 175
62 99 177
62 99 176
62 99 175
62 99 176
62 99 175
62 98 170
63 100 178
62 99 180
63 99 178
62 98 175
61 98 177
62 99 175
62 99 175
62 99 175
63 100 179
62 99 178
62 99 171
62 99 176
62 99 176
62 99 175
62 99 175
62 99 178
62 99 170
62 99 177
62 99 178
62 99 177
62 99 175
62 99 176
61 97 169
62 99 177
61 98 172
62 99 177
62 99 176
62 99 175
62 99 177
63 99 177
63 99 172
62 99 177
62 99 172
62 99 176
62 99 174
62 99 174
62 99 175
62 99 174
62 99 179
63 99 176
63 99 175
63 99 178
63 99 174
62 99 173
62 99 173
62 99 174
62 99 169
63 100 179
62 98 171
62 98 174
62 98 171
62 99 174
63 100 178
62 99 171
62 98 172
63 99 176
62 99 171
63 99 175
62 99 171
62 99 170
62 99 173
63 99 168
62 99 170
62 99 170
63 99 171
63 100 175
62 98 165
63 99 170
62 98 171
62 99 170
62 99 169
62 99 168
62 98 164
62 98 169
61 98 164
62 98 171
62 99 170
63 99 172
62 97 163
61 98 169
61 97 153
61 97 161
62 98 164
62 98 168
63 99 166
62 98 160
61 97 163
61 97 161
61 96 151
52 75 100
46 59 43
44 57 41
45 60 47
48 63 50
46 61 49
50 65 50
48 63 47
50 67 55
51 66 50
50 66 53
50 66 52
50 67 52
52 69 57
52 70 56
51 69 55
51 69 53
153 151 8
155 152 0
155 152 0
155 152 0
154 151 0
154 152 0
155 152 0
155 152 0
156 153 0
156 153 0
153 151 0
155 152 0
154 151 0
155 152 0
155 152 0
156 153 0
154 151 0
154 152 0
155 153 0
155 152 0
154 152 0
156 153 0
154 151 0
156 153 0
156 153 0
154 151 0
155 152 0
156 153 0
153 151 0
153 151 0
154 152 0
154 152 0
156 153 0
156 153 0
154 152 0
155 153 0
156 153 0
154 152 0
156 153 0
156 152 0
155 153 0
155 153 0
154 152 0
155 153 0
155 153 0
152 150 0
155 152 0
157 153 0
155 152 0
156 153 0
154 151 0
156 152 0
155 152 0
155 152 0
154 152 0
155 152 0
155 152 0
156 153 0
155 153 0
155 152 0
155 151 0
155 152 0
155 152 0
155 152 0
154 151 0
154 152 0
157 153 0
153 150 0
153 150 0
154 151 0
153 150 0
154 151 0
153 150 0
152 149 0
153 149 0
154 150 0
152 148 0
153 150 0
152 149 0
155 151 0
152 148 0
154 148 0
165 176 0
171 191 0
173 195 0
169 189 0
172 193 0
171 190 0
169 189 0
171 192 0
172 193 0
171 191 0
172 191 0
172 195 0
173 195 0
172 192 0
172 193 0
170 194 0
172 195 0
169 192 0
175 197 0
174 196 0
171 195 0
173 197 0
171 194 0
170 194 0
175 198 0
172 196 0
173 197 0
169 193 0
174 198 0
170 194 0
172 196 0
172 195 0
172 196 0
171 194 0
169 193 0
171 195 0
173 196 0
172 195 0
171 195 0
170 193 0
171 195 0
169 193 0
173 197 0
174 198 0
173 196 0
170 193 0
172 195 0
169 193 0
171 194 0
172 196 0
172 195 0
172 195 0
175 197 0
170 193 0
171 195 0
172 196 0
170 193 0
170 194 0
172 195 0
169 193 0
167 191 0
170 193 0
174 197 0
170 194 0
171 194 0
172 196 0
173 196 0
170 194 0
171 194 0
173 196 0
169 193 0
173 196 0
171 195 0
168 191 0
171 195 0
168 192 0
173 196 0
172 196 0
173 197 0
174 197 0
171 195 0
170 193 0
170 193 0
171 194 0
171 193 0
171 195 0
172 194 0
171 194 0
173 195 0
169 193 0
172 195 0
171 194 0
170 193 0
170 193 0
173 195 0
171 195 0
170 194 0
169 192 0
171 195 0
169 193 0
168 191 0
168 190 0
170 193 0
169 192 0
169 192 0
171 193 0
169 192 0
170 193 0
168 190 0
169 193 0
167 190 0
172 195 0
166 190 0
170 193 0
172 194 0
169 193 0
169 192 0
168 190 0
171 195 0
168 192 0
166 188 0
171 193 0
169 192 0
167 190 0
164 187 0
167 190 0
170 193 0
98 127 135
62 98 162
61 98 164
62 98 164
62 98 166
62 98 160
62 99 173
63 99 167
62 98 164
61 98 165
62 98 167
62 99 173
62 99 173
61 98 169
62 99 178
61 98 165
62 98 167
62 99 171
62 98 168
63 100 174
62 98 166
62 98 171
63 99 176
62 98 171
61 98 174
61 98 171
62 99 171
62 98 164
61 98 172
63 99 175
62 99 173
62 99 174
62 99 172
62 99 171
62 99 172
62 98 170
62 99 176
62 99 179
62 99 172
62 99 174
61 98 171
62 99 176
62 98 172
62 99 175
62 98 168
62 99 173
62 98 173
62 98 173
62 99 175
63 99 178
62 99 177
63 99 178
62 99 177
62 99 178
62 99 177
62 99 178
62 99 174
61 98 176
63 99 176
62 99 176
62 99 175
64 100 178
61 98 172
63 99 176
62 99 177
62 99 176
62 99 176
61 98 176
62 99 177
63 99 175
62 98 174
62 99 174
62 99 175
62 99 176
62 99 174
63 99 176
62 99 177
62 99 177
62 99 174
62 98 174
62 99 178
62 99 179
62 99 177
61 98 172
62 99 176
62 99 178
62 98 171
62 99 177
62 99 179
62 99 174
62 99 177
63 99 175
62 99 176
62 99 177
61 98 174
62 99 174
62 99 171
62 99 176
62 99 176
62 99 174
60 97 171
61 98 172
62 99 176
62 99 178
62 99 171
62 99 173
62 99 175
62 99 175
62 98 175
62 98 173
62 99 174
62 99 171
62 98 173
62 99 173
61 98 172
62 99 176
61 98 175
63 100 179
62 99 173
63 99 177
62 99 173
61 98 173
62 99 174
62 99 175
62 99 175
62 99 174
62 99 175
62 99 177
62 99 176
61 98 172
62 99 171
61 98 173
62 98 170
61 98 171
62 99 173
61 98 173
62 99 177
62 99 173
61 98 169
62 99 174
63 99 171
61 98 164
62 99 172
62 99 172
62 99 170
61 98 165
63 99 170
63 99 168
62 99 172
62 99 169
63 100 177
61 98 168
62 99 172
62 99 172
62 99 169
61 97 167
62 99 171
62 99 170
63 100 174
62 98 170
63 99 171
62 98 165
63 99 170
62 99 165
63 99 169
62 98 165
63 99 165
61 97 160
62 98 162
62 97 163
62 97 163
62 97 159
61 95 151
61 96 155
58 89 145
45 60 47
46 60 46
44 56 37
46 60 46
48 62 49
50 66 54
48 64 46
48 63 50
50 67 52
51 69 56
50 67 50
50 67 54
51 68 51
52 69 57
51 69 56
81 91 50
153 150 0
153 151 0
152 150 0
156 153 0
152 150 0
156 152 0
156 153 0
152 150 0
155 152 0
152 150 0
154 152 0
155 152 0
155 152 0
153 151 0
153 150 0
155 153 0
154 152 0
153 151 0
156 153 0
152 150 0
155 152 0
156 153 0
154 151 0
154 152 0
155 153 0
154 151 0
153 151 0
155 153 0
154 152 0
157 153 0
156 152 0
154 152 0
154 152 0
155 152 0
154 152 0
154 152 0
155 152 0
152 150 0
155 152 0
153 151 0
155 153 0
156 153 0
154 151 0
156 153 0
155 152 0
154 151 0
155 152 0
156 153 0
154 151 0
154 151 0
155 152 0
153 150 0
155 152 0
153 151 0
154 152 0
152 150 0
154 152 0
154 151 0
154 151 0
154 151 0
154 152 0
153 150 0
154 151 0
154 151 0
156 152 0
154 151 0
155 151 0
155 152 0
153 150 0
153 149 0
152 149 0
156 153 0
153 149 0
152 149 0
155 151 0
151 148 0
152 148 0
154 150 0
153 150 0
151 147 0
153 148 0
154 150 0
170 188 0
170 190 0
170 189 0
172 192 0
171 189 0
173 195 0
170 191 0
171 191 0
171 190 0
170 192 0
169 190 0
171 192 0
171 193 0
173 195 0
171 191 0
172 196 0
172 196 0
172 195 0
174 197 0
171 194 0
171 195 0
174 197 0
173 196 0
170 194 0
169 193 0
172 195 0
173 197 0
173 196 0
173 196 0
172 195 0
171 195 0
172 195 0
174 197 0
173 196 0
168 192 0
174 197 0
172 196 0
171 195 0
172 195 0
172 195 0
172 196 0
171 195 0
173 196 0
172 195 0
171 194 0
173 196 0
173 196 0
174 197 0
172 194 0
172 195 0
173 195 0
172 195 0
167 191 0
172 195 0
171 194 0
171 194 0
172 195 0
172 196 0
173 196 0
173 196 0
173 196 0
172 195 0
171 194 0
171 194 0
171 194 0
171 193 0
170 193 0
174 197 0
169 192 0
173 196 0
172 196 0
172 195 0
170 194 0
166 190 0
171 194 0
172 193 0
169 193 0
173 195 0
169 193 0
171 194 0
172 195 0
172 195 0
168 192 0
169 193 0
169 192 0
166 190 0
174 196 0
173 196 0
173 195 0
167 190 0
169 193 0
169 193 0
171 194 0
173 196 0
173 196 0
170 194 0
169 191 0
169 193 0
170 193 0
165 188 0
172 196 0
169 193 0
169 192 0
168 191 0
171 195 0
171 194 0
170 193 0
167 190 0
168 191 0
170 192 0
168 191 0
171 193 0
168 191 0
166 188 0
169 193 0
164 188 0
171 194 0
172 195 0
172 195 0
169 192 0
168 191 0
172 194 0
169 192 0
168 190 0
166 190 0
170 194 0
149 172 67
61 97 156
62 98 158
61 97 157
62 98 164
62 99 162
62 99 169
63 99 170
61 98 165
61 97 164
62 99 168
62 98 165
61 98 166
62 99 172
62 98 166
62 98 168
61 98 160
61 98 167
62 99 173
62 98 169
63 99 173
62 99 172
62 99 170
62 98 171
61 98 169
62 99 171
62 98 165
62 98 172
62 98 171
62 99 173
62 99 175
62 99 173
61 98 172
62 99 172
62 99 175
62 99 175
62 99 177
62 99 176
62 99 175
62 99 177
62 98 174
62 99 174
62 99 172
62 99 177
62 99 173
62 98 171
62 98 172
62 98 172
62 98 172
63 99 176
62 99 173
62 99 174
63 100 179
62 99 176
62 99 178
62 99 177
62 99 177
62 98 173
63 99 177
62 99 174
62 99 175
63 100 177
62 99 179
61 98 171
62 99 176
63 99 171
62 99 175
63 100 180
62 99 176
62 99 179
62 99 174
62 99 174
62 99 178
62 99 174
63 99 172
62 99 177
62 99 175
62 99 176
62 99 176
62 99 177
62 99 178
62 99 173
62 99 173
62 99 174
62 99 179
62 99 171
63 99 176
61 98 171
62 99 174
62 99 175
61 98 174
62 99 177
63 100 180
62 98 172
62 98 170
61 98 173
62 99 175
62 98 172
63 99 176
62 99 174
63 99 174
62 99 171
63 100 175
62 99 175
62 99 175
62 98 173
63 99 176
61 98 173
61 98 173
62 99 174
63 99 177
63 99 175
63 99 178
63 100 173
62 99 174
62 99 175
62 99 171
62 99 171
62 98 176
62 98 171
61 98 175
62 98 170
62 99 172
62 98 174
63 99 174
62 99 174
62 99 175
62 99 174
62 99 174
62 98 167
62 98 170
63 100 176
61 98 168
62 98 166
62 99 174
61 98 170
62 99 173
63 99 175
62 99 173
62 98 169
62 99 173
62 99 171
63 100 176
62 98 171
61 98 168
63 100 176
62 99 171
61 97 167
62 99 169
63 99 174
61 98 163
62 99 171
61 98 167
63 99 172
62 99 165
62 99 169
61 98 168
62 99 167
61 98 170
62 98 164
61 98 165
62 99 174
61 97 161
62 98 165
62 99 171
62 99 169
62 98 162
62 99 174
62 98 166
62 99 167
61 97 162
62 98 167
61 97 160
62 98 162
62 97 161
62 96 157
45 61 73
44 57 39
46 60 48
48 63 47
49 64 49
48 63 49
47 62 44
49 64 47
49 64 41
48 64 47
49 66 49
49 66 49
51 68 55
51 69 52
53 71 60
103 109 45
152 151 0
152 150 0
152 150 0
150 148 0
154 152 0
154 151 0
154 151 0
152 150 0
150 149 0
153 151 0
152 151 0
155 152 0
155 152 0
154 151 0
153 151 0
154 151 0
155 152 0
154 151 0
152 150 0
153 150 0
155 153 0
154 151 0
155 152 0
154 152 0
156 153 0
154 152 0
152 149 0
156 153 0
156 153 0
155 152 0
154 152 0
153 151 0
154 151 0
156 153 0
152 150 0
152 149 0
154 151 0
155 152 0
155 152 0
154 152 0
154 152 0
152 150 0
153 151 0
153 151 0
156 153 0
157 153 0
156 153 0
153 151 0
152 150 0
156 152 0
155 152 0
155 152 0
154 151 0
153 151 0
155 152 0
152 149 0
154 151 0
155 151 0
153 150 0
155 151 0
156 152 0
152 148 0
154 151 0
154 151 0
153 149 0
154 150 0
154 151 0
153 150 0
152 149 0
155 151 0
151 148 0
155 152 0
152 149 0
153 149 0
152 147 0
155 152 0
152 149 0
153 149 0
154 150 0
154 148 0
154 149 0
163 172 0
173 191 0
172 194 0
170 190 0
169 191 0
170 191 0
169 188 0
169 188 0
170 192 0
170 190 0
171 190 0
172 193 0
170 191 0
172 192 0
172 194 0
171 190 0
173 196 0
173 196 0
172 194 0
169 192 0
170 194 0
172 195 0
171 194 0
171 195 0
172 195 0
172 195 0
173 196 0
172 196 0
174 197 0
169 192 0
171 193 0
171 194 0
173 196 0
172 196 0
174 197 0
173 195 0
171 195 0
174 197 0
171 195 0
172 194 0
172 196 0
173 197 0
173 197 0
173 197 0
171 194 0
174 196 0
172 195 0
170 193 0
167 192 0
173 197 0
169 193 0
172 195 0
171 195 0
170 194 0
171 194 0
171 195 0
174 197 0
173 196 0
169 192 0
171 194 0
173 196 0
168 191 0
171 195 0
172 194 0
172 194 0
171 194 0
170 194 0
171 195 0
171 194 0
170 194 0
172 195 0
169 192 0
172 195 0
173 197 0
171 194 0
171 194 0
171 194 0
172 196 0
170 194 0
170 193 0
169 190 0
170 193 0
172 196 0
171 195 0
171 195 0
171 194 0
171 194 0
168 191 0
172 196 0
169 193 0
171 194 0
170 193 0
171 194 0
169 192 0
169 192 0
170 192 0
165 188 0
170 194 0
168 192 0
169 192 0
171 193 0
172 194 0
169 192 0
169 192 0
169 192 0
168 191 0
169 192 0
169 193 0
168 191 0
169 192 0
171 193 0
168 191 0
170 194 0
168 191 0
170 193 0
168 191 0
170 192 0
170 193 0
168 191 0
167 189 0
168 191 0
168 191 0
169 192 0
165 189 0
168 191 0
170 192 0
164 187 0
131 156 105
62 98 162
61 97 155
62 98 161
61 97 163
62 99 167
62 98 167
62 99 165
62 99 171
61 97 165
63 99 171
61 98 162
62 99 172
62 98 169
62 98 164
62 98 164
62 99 172
62 98 168
63 99 172
63 99 170
62 99 170
62 99 172
62 98 171
61 98 171
63 99 167
62 98 169
62 98 172
62 98 167
61 98 169
62 98 171
62 99 177
62 98 172
62 99 174
61 98 169
62 99 177
63 99 173
62 99 176
62 99 174
62 99 174
62 98 171
62 99 174
62 99 177
63 100 177
63 99 178
62 99 175
61 98 174
61 98 173
62 99 176
61 98 168
62 99 173
62 99 175
62 99 177
62 99 176
62 99 175
62 99 174
62 99 173
61 98 177
62 99 176
62 99 175
62 99 175
62 99 175
62 99 175
62 99 176
62 99 176
62 99 177
62 99 178
62 99 177
62 99 177
62 99 173
62 99 175
62 99 176
62 99 176
63 99 176
62 99 176
62 99 179
62 98 171
62 99 175
62 99 175
62 99 174
61 98 177
61 98 173
61 98 170
63 99 176
62 99 177
62 98 171
62 99 177
62 99 175
62 99 177
62 99 173
63 99 173
62 99 178
62 99 177
63 100 180
62 99 175
62 99 175
63 99 175
62 99 175
62 99 172
62 99 176
62 99 172
63 100 178
62 99 172
62 99 176
62 99 176
62 99 171
62 99 177
61 98 175
62 99 176
62 99 174
62 99 175
61 98 170
63 99 174
62 99 175
62 99 173
62 99 176
62 99 175
62 99 172
62 99 176
63 100 178
62 99 176
62 99 174
62 99 175
63 99 173
62 99 174
62 99 174
63 100 179
63 99 171
62 99 175
63 99 174
62 99 172
62 99 175
62 99 175
62 99 173
62 99 169
62 98 165
62 98 174
62 99 172
62 99 173
61 98 169
62 99 171
63 99 177
63 99 177
62 99 171
62 99 164
62 99 170
62 99 169
61 98 169
63 99 174
63 99 170
62 99 169
62 99 174
62 99 171
62 99 169
63 100 175
62 98 165
62 98 168
62 98 169
61 97 166
62 98 167
62 98 170
62 98 168
62 98 165
61 98 165
62 98 168
62 98 166
61 98 169
62 98 164
61 97 160
62 98 164
63 99 166
62 98 167
61 97 159
61 96 150
62 97 159
61 96 153
61 95 153
54 79 114
47 60 44
47 61 48
45 60 45
48 62 49
49 64 49
49 64 49
49 64 50
48 63 46
50 66 52
49 66 51
50 67 49
49 65 47
50 68 53
49 67 51
133 134 18
151 150 0
150 148 0
152 150 0
150 148 0
151 149 0
152 150 0
152 149 0
153 150 0
154 152 0
152 150 0
153 151 0
149 147 0
151 148 0
154 152 0
152 149 0
156 152 0
153 151 0
154 152 0
155 152 0
153 151 0
155 152 0
153 151 0
154 152 0
152 150 0
152 150 0
154 151 0
155 152 0
153 150 0
152 150 0
154 151 0
152 150 0
156 153 0
156 153 0
152 150 0
154 151 0
154 152 0
153 150 0
154 151 0
154 152 0
156 153 0
151 150 0
153 151 0
154 150 0
154 152 0
154 151 0
151 149 0
154 151 0
152 148 0
156 153 0
154 152 0
156 153 0
154 150 0
154 151 0
152 150 0
155 152 0
153 151 0
154 151 0
152 149 0
155 151 0
156 152 0
150 148 0
153 149 0
153 150 0
153 150 0
154 151 0
155 152 0
154 151 0
153 151 0
154 152 0
154 151 0
151 148 0
152 149 0
153 149 0
154 150 0
155 151 0
155 151 0
155 150 0
153 148 0
153 149 0
153 149 0
154 152 0
170 192 0
171 189 0
170 190 0
171 191 0
172 193 0
172 190 0
171 192 0
173 192 0
173 194 0
174 195 0
172 192 0
170 189 0
171 191 0
172 192 0
172 192 0
172 191 0
173 196 0
171 195 0
172 196 0
171 194 0
172 195 0
176 199 0
174 197 0
171 195 0
172 196 0
171 195 0
173 197 0
172 196 0
174 197 0
171 195 0
172 196 0
172 195 0
170 195 0
173 196 0
174 197 0
173 196 0
173 196 0
172 195 0
170 195 0
173 196 0
173 196 0
171 194 0
172 196 0
172 194 0
170 193 0
168 192 0
171 195 0
174 197 0
168 192 0
171 194 0
172 195 0
170 193 0
172 196 0
172 195 0
171 194 0
173 196 0
172 195 0
173 196 0
171 194 0
170 193 0
169 192 0
171 195 0
171 195 0
170 193 0
171 194 0
172 195 0
167 190 0
172 195 0
170 193 0
173 195 0
171 194 0
171 195 0
171 194 0
174 197 0
170 193 0
173 196 0
169 192 0
173 197 0
171 194 0
171 194 0
167 191 0
169 193 0
171 193 0
170 194 0
172 196 0
173 196 0
168 190 0
165 187 0
168 192 0
170 193 0
163 186 0
170 194 0
172 195 0
167 191 0
173 196 0
171 195 0
172 195 0
171 194 0
172 196 0
171 195 0
168 192 0
172 195 0
171 194 0
169 192 0
169 193 0
168 191 0
166 190 0
170 193 0
168 190 0
169 192 0
171 193 0
172 195 0
167 189 0
170 194 0
168 191 0
169 192 0
169 192 0
169 193 0
166 188 0
169 192 0
167 190 0
168 190 0
169 190 0
169 192 0
169 191 0
168 190 0
172 196 0
84 114 143
61 97 157
62 99 166
61 97 159
62 98 160
62 98 167
62 98 166
62 98 167
61 97 160
62 99 168
61 97 162
62 98 164
62 98 163
62 98 172
62 98 166
61 98 168
62 99 169
62 99 175
62 99 174
62 99 173
62 99 170
62 99 171
62 99 171
62 99 174
63 99 175
62 98 175
62 98 169
61 98 161
63 99 172
61 98 166
62 99 173
62 99 176
62 99 173
62 99 177
62 99 176
62 99 171
62 99 173
61 98 166
62 99 175
62 99 174
62 99 171
62 98 170
63 99 175
61 98 174
62 99 174
61 98 169
63 99 174
62 99 176
62 99 176
62 99 179
62 98 169
62 98 174
61 98 175
61 98 171
61 98 177
62 99 171
62 99 174
63 100 177
63 99 177
62 99 174
62 99 172
62 98 175
62 99 177
62 99 174
63 100 175
63 100 177
62 99 177
63 100 179
62 99 180
62 99 176
62 99 177
63 100 180
62 99 176
62 99 176
63 100 177
63 99 177
61 98 176
61 98 175
62 99 174
62 99 178
62 99 174
62 98 170
62 99 175
61 98 174
62 99 177
62 99 175
63 99 175
62 99 176
62 99 175
62 99 178
62 99 174
62 99 175
62 99 175
62 99 175
63 99 178
62 99 173
62 99 179
62 99 174
62 99 174
62 99 174
62 99 173
62 99 172
62 99 172
62 99 176
62 99 174
62 99 174
62 99 178
62 99 174
62 99 175
62 99 171
61 98 171
62 99 175
62 98 170
63 99 174
62 99 175
62 99 171
62 99 172
62 99 173
62 99 176
62 98 171
63 99 174
62 99 173
62 99 176
62 99 175
62 99 172
62 99 166
61 98 169
62 99 175
62 98 165
62 99 173
63 99 174
61 98 169
62 99 169
61 98 170
61 98 167
63 99 172
63 99 172
63 99 174
62 98 169
62 98 164
62 99 171
63 99 174
62 98 170
62 98 168
62 99 172
62 99 172
63 99 173
62 99 169
62 99 172
62 98 167
62 99 175
62 98 168
62 98 168
62 99 168
62 99 169
62 99 168
62 99 169
62 99 170
62 98 167
62 98 169
62 99 167
62 98 164
62 99 167
62 99 170
62 99 167
62 98 167
62 98 166
63 98 168
62 98 165
63 99 167
62 97 165
63 99 163
63 99 172
62 97 158
62 97 165
61 96 159
59 90 136
47 60 43
46 60 44
45 58 39
46 62 46
46 61 42
49 64 46
48 63 45
49 65 49
50 66 48
50 66 50
49 65 54
51 67 49
51 69 52
72 83 48
150 147 0
151 149 0
152 149 0
146 145 0
153 151 0
148 145 0
151 149 0
151 149 0
152 150 0
153 150 0
153 150 0
154 151 0
151 150 0
148 146 0
153 151 0
154 151 0
154 152 0
154 151 0
153 150 0
154 152 0
153 151 0
155 152 0
153 150 0
154 151 0
153 151 0
158 154 0
153 151 0
155 151 0
154 151 0
155 152 0
154 152 0
156 152 0
154 151 0
151 149 0
152 150 0
154 152 0
153 150 0
152 150 0
153 150 0
155 152 0
153 151 0
154 152 0
153 151 0
155 152 0
154 151 0
155 151 0
155 152 0
157 153 0
155 152 0
156 153 0
154 150 0
155 152 0
153 151 0
154 150 0
154 151 0
153 151 0
152 149 0
151 148 0
153 149 0
153 151 0
151 149 0
155 152 0
153 150 0
154 150 0
153 150 0
154 150 0
154 151 0
153 150 0
153 150 0
151 147 0
155 152 0
155 152 0
148 145 0
153 149 0
156 150 0
154 150 0
153 149 0
153 149 0
151 146 0
150 146 0
153 148 0
162 174 0
173 194 0
169 188 0
167 186 0
169 189 0
171 191 0
171 190 0
170 190 0
170 190 0
171 191 0
173 193 0
171 192 0
171 191 0
173 194 0
171 190 0
169 189 0
170 189 0
173 196 0
172 195 0
175 198 0
173 196 0
171 195 0
173 196 0
171 194 0
173 196 0
172 196 0
171 194 0
174 197 0
173 196 0
172 195 0
169 193 0
171 195 0
170 194 0
171 194 0
171 195 0
175 198 0
168 192 0
174 197 0
173 196 0
169 193 0
170 194 0
170 194 0
171 196 0
172 195 0
173 197 0
172 194 0
171 194 0
172 195 0
171 194 0
171 193 0
171 194 0
172 195 0
171 195 0
170 192 0
174 198 0
171 193 0
171 195 0
169 193 0
172 196 0
173 195 0
170 194 0
172 196 0
171 195 0
169 193 0
170 193 0
171 195 0
172 195 0
172 196 0
170 193 0
169 192 0
170 194 0
171 194 0
169 192 0
173 196 0
173 195 0
170 193 0
169 191 0
169 192 0
172 196 0
169 193 0
170 193 0
171 195 0
168 190 0
168 191 0
168 191 0
174 197 0
165 188 0
172 195 0
170 192 0
169 193 0
172 194 0
167 190 0
168 191 0
168 192 0
172 195 0
171 195 0
168 192 0
169 191 0
171 195 0
168 190 0
172 195 0
167 189 0
170 194 0
166 189 0
171 194 0
171 194 0
170 192 0
167 191 0
167 190 0
169 192 0
165 188 0
169 191 0
169 193 0
171 194 0
167 190 0
165 189 0
171 194 0
167 190 0
165 188 0
173 195 0
166 189 0
165 188 0
166 188 0
167 191 0
165 187 0
168 193 0
170 193 0
157 181 62
62 98 158
61 97 155
62 98 159
62 98 164
61 98 162
62 98 168
62 98 159
62 99 168
62 98 159
62 98 163
61 98 161
62 99 169
62 99 171
62 99 174
62 98 171
62 98 166
62 99 173
61 98 165
63 99 171
63 99 174
62 99 177
62 98 170
63 99 174
62 98 171
61 98 171
61 98 171
62 99 172
61 98 166
63 99 171
62 98 173
62 99 176
62 99 177
62 98 167
61 98 169
62 99 173
62 99 172
61 98 163
62 99 172
61 98 171
61 98 170
62 99 172
62 99 176
63 99 175
62 98 172
62 99 176
62 99 175
62 98 170
61 98 171
62 99 176
63 100 178
62 99 178
62 99 178
62 99 173
62 99 177
62 99 176
63 100 180
63 99 173
62 99 171
63 100 179
62 99 175
62 99 175
62 99 176
62 99 176
62 99 172
62 99 173
62 99 176
63 99 177
63 99 177
62 99 174
62 99 175
63 100 178
61 98 172
61 98 176
62 99 172
63 100 179
62 99 177
62 99 174
62 99 176
62 99 174
61 98 173
62 99 177
62 99 174
62 99 176
62 99 178
62 99 174
63 100 177
62 99 174
62 99 177
62 99 175
62 99 175
62 99 174
62 99 172
62 99 170
62 99 172
62 99 174
62 99 177
62 99 176
62 99 176
62 99 176
62 99 172
62 99 173
62 99 176
62 99 177
63 99 172
62 99 176
62 98 173
62 99 172
62 99 172
62 99 173
62 99 172
62 98 172
63 99 174
63 100 179
62 99 171
61 98 168
62 99 176
63 99 175
61 98 170
63 99 175
63 99 176
63 100 179
62 99 173
61 98 174
62 99 176
63 99 173
62 99 174
62 98 167
63 100 175
61 98 169
62 99 174
62 99 172
62 99 171
62 99 175
62 99 171
62 99 172
62 99 175
62 98 171
63 99 175
61 98 169
62 99 171
62 98 170
62 99 171
62 99 170
63 99 170
63 99 169
61 98 168
62 99 167
63 99 173
62 99 174
61 98 167
62 99 172
63 99 175
63 99 170
62 98 168
62 99 175
61 98 170
62 98 169
62 98 164
62 99 168
63 99 170
62 98 162
62 98 163
61 98 167
62 98 168
62 98 163
62 98 166
62 98 169
63 99 165
62 98 164
62 98 168
62 98 162
60 96 154
62 98 160
63 99 169
61 95 154
61 96 155
60 94 151
49 69 81
46 60 45
48 61 45
48 62 44
49 64 47
46 61 43
48 63 48
49 64 49
50 66 53
49 65 49
51 67 50
52 69 52
51 68 53
114 117 33
145 143 0
149 147 0
152 149 0
150 148 0
148 146 0
151 149 0
150 149 0
152 150 0
152 150 0
153 151 0
150 148 0
152 149 0
149 147 0
152 150 0
150 148 0
153 150 0
154 151 0
152 149 0
154 152 0
154 151 0
153 150 0
152 150 0
152 150 0
153 150 0
154 152 0
154 151 0
154 150 0
154 151 0
153 151 0
154 151 0
152 150 0
153 151 0
152 150 0
153 150 0
154 151 0
154 151 0
153 151 0
152 149 0
155 151 0
154 152 0
151 149 0
154 152 0
152 150 0
155 151 0
154 152 0
155 153 0
155 152 0
152 150 0
156 153 0
152 149 0
154 151 0
154 150 0
150 148 0
153 150 0
155 151 0
153 149 0
154 151 0
154 151 0
153 149 0
153 150 0
152 150 0
154 152 0
155 152 0
154 150 0
155 152 0
155 151 0
155 151 0
153 149 0
151 147 0
153 150 0
151 147 0
154 151 0
152 148 0
152 149 0
154 149 0
155 151 0
154 147 0
152 148 0
149 144 0
153 147 0
151 147 0
171 190 0
169 189 0
169 187 0
168 186 0
169 189 0
171 191 0
171 191 0
173 192 0
171 192 0
173 195 0
173 194 0
170 187 0
167 184 0
171 192 0
169 190 0
172 193 0
169 190 0
169 193 0
172 196 0
173 196 0
172 196 0
172 195 0
170 193 0
172 195 0
171 195 0
170 194 0
171 196 0
167 190 0
170 194 0
173 196 0
170 193 0
170 194 0
171 194 0
171 194 0
173 196 0
168 191 0
171 194 0
172 194 0
172 196 0
173 197 0
170 194 0
171 194 0
171 194 0
170 194 0
170 192 0
170 193 0
173 195 0
173 197 0
172 196 0
170 193 0
172 196 0
172 195 0
171 195 0
172 196 0
171 194 0
172 196 0
172 196 0
175 197 0
171 195 0
170 194 0
171 194 0
172 196 0
169 192 0
172 194 0
171 194 0
172 195 0
174 197 0
167 189 0
171 195 0
168 192 0
170 193 0
170 194 0
174 197 0
169 193 0
169 192 0
170 194 0
169 192 0
169 193 0
171 194 0
168 192 0
173 197 0
170 194 0
173 196 0
172 195 0
172 195 0
170 194 0
171 194 0
166 189 0
169 193 0
172 195 0
171 194 0
172 195 0
168 191 0
167 191 0
173 196 0
169 193 0
165 187 0
168 191 0
169 191 0
172 195 0
167 190 0
171 194 0
168 191 0
171 193 0
168 193 0
171 195 0
165 187 0
169 193 0
171 193 0
170 193 0
169 192 0
167 190 0
170 193 0
168 192 0
168 192 0
169 192 0
166 189 0
171 194 0
167 190 0
167 189 0
169 192 0
168 190 0
169 192 0
171 194 0
166 189 0
169 192 0
167 190 0
131 156 107
62 98 162
61 97 153
62 98 161
62 98 166
61 98 164
62 99 172
61 97 154
62 98 162
62 98 164
61 97 160
62 98 167
60 96 161
62 98 168
61 97 158
62 99 171
62 98 171
62 99 171
62 98 166
61 97 163
62 98 172
61 98 173
62 99 169
63 99 170
62 98 172
62 98 170
62 99 174
62 98 168
62 99 172
62 99 171
62 98 169
62 99 171
62 99 173
61 97 165
62 98 174
62 99 171
62 99 177
61 98 172
62 99 170
62 98 171
62 98 173
62 99 174
63 99 174
62 98 170
62 99 173
62 99 172
62 99 174
62 99 174
62 99 173
62 98 170
62 99 175
62 99 173
63 100 177
61 98 172
62 99 173
62 99 174
62 99 173
61 98 174
62 99 177
62 98 172
62 99 177
62 99 177
62 98 172
62 99 177
62 98 171
63 99 174
62 99 174
62 99 176
61 98 173
62 99 173
62 99 173
62 99 177
62 99 176
62 99 176
61 98 171
62 99 173
63 99 174
62 99 175
62 99 175
62 99 175
62 99 178
62 99 176
62 99 175
62 99 170
62 99 172
62 100 181
62 99 174
63 99 176
62 99 176
62 99 174
63 100 177
62 99 179
62 98 173
62 99 176
62 99 170
62 99 173
62 99 173
63 99 171
62 99 174
62 99 178
62 99 177
63 99 172
63 99 174
62 99 167
61 98 174
62 99 172
62 99 176
62 98 168
62 98 172
61 98 173
63 100 176
62 99 176
62 99 173
62 99 175
62 98 168
62 99 173
62 99 176
62 99 177
63 100 177
62 99 175
62 99 173
61 98 166
62 99 174
63 99 171
62 99 171
63 99 174
62 99 167
62 99 171
63 99 176
62 99 173
62 99 176
62 99 174
63 100 180
63 99 177
63 99 175
63 99 168
62 99 171
62 99 174
62 99 175
62 99 171
63 99 168
62 99 172
62 99 167
62 98 170
62 98 171
63 99 168
61 98 170
62 99 171
63 99 173
62 98 168
63 99 170
62 99 170
62 98 172
63 99 170
63 99 170
62 99 170
62 98 166
63 99 170
62 98 169
62 99 170
61 97 164
63 99 171
62 99 168
61 98 162
62 98 169
62 99 174
62 99 171
61 97 160
62 98 164
61 97 155
62 98 166
62 98 160
62 98 161
62 98 162
60 96 158
61 96 149
61 95 145
61 97 158
52 77 106
45 59 39
44 57 38
46 60 39
46 61 42
47 62 48
47 63 47
47 63 45
49 64 48
50 67 46
50 66 48
50 68 48
68 80 45
141 140 8
144 142 0
147 145 0
146 145 0
148 146 0
151 149 0
148 147 0
151 149 0
149 147 0
150 147 0
148 146 0
152 150 0
147 145 0
154 152 0
152 148 0
153 150 0
152 150 0
150 148 0
154 151 0
150 149 0
153 150 0
155 153 0
152 149 0
153 151 0
154 151 0
151 149 0
155 152 0
152 149 0
153 150 0
154 151 0
152 149 0
153 150 0
152 149 0
153 151 0
152 149 0
153 150 0
156 152 0
154 152 0
152 150 0
151 149 0
155 152 0
151 149 0
151 148 0
154 152 0
152 150 0
152 150 0
152 150 0
151 148 0
152 150 0
154 152 0
153 150 0
152 150 0
153 150 0
150 147 0
154 150 0
150 147 0
154 151 0
152 150 0
154 150 0
153 150 0
154 150 0
153 150 0
153 150 0
154 151 0
154 149 0
152 148 0
153 149 0
154 149 0
152 150 0
154 150 0
150 147 0
153 150 0
153 150 0
154 150 0
153 149 0
151 147 0
154 148 0
153 149 0
153 148 0
150 144 0
152 147 0
164 175 0
170 189 0
171 190 0
170 190 0
169 189 0
172 190 0
170 190 0
170 191 0
169 190 0
172 192 0
168 187 0
170 190 0
171 189 0
170 190 0
173 193 0
170 190 0
170 190 0
170 192 0
173 196 0
172 194 0
172 196 0
174 197 0
173 196 0
172 195 0
172 196 0
168 193 0
172 196 0
171 195 0
172 196 0
173 197 0
173 196 0
172 195 0
173 196 0
172 196 0
172 195 0
169 192 0
171 195 0
170 194 0
172 195 0
170 193 0
171 195 0
174 198 0
172 195 0
175 198 0
173 196 0
172 195 0
171 195 0
169 192 0
173 196 0
171 194 0
174 197 0
170 193 0
170 194 0
169 194 0
175 197 0
171 196 0
171 194 0
171 194 0
171 196 0
171 193 0
172 196 0
171 194 0
167 191 0
172 196 0
169 192 0
170 193 0
173 196 0
169 192 0
173 197 0
172 195 0
169 192 0
169 192 0
174 197 0
172 196 0
171 194 0
172 195 0
167 190 0
170 193 0
169 193 0
167 190 0
172 195 0
173 196 0
167 190 0
172 195 0
167 191 0
171 194 0
169 192 0
170 193 0
172 195 0
170 193 0
170 194 0
170 193 0
168 191 0
168 191 0
169 193 0
174 196 0
169 192 0
167 191 0
169 192 0
171 194 0
171 194 0
171 195 0
171 194 0
171 194 0
170 192 0
169 192 0
169 192 0
170 193 0
165 188 0
169 192 0
174 197 0
165 188 0
169 192 0
168 191 0
165 188 0
171 194 0
168 191 0
172 196 0
166 188 0
170 192 0
170 192 0
168 191 0
170 193 0
170 193 0
166 190 0
173 196 0
168 192 0
168 192 0
97 125 142
62 98 158
62 98 161
62 97 160
61 96 152
62 98 165
62 98 161
62 98 166
62 99 168
62 98 166
62 99 167
62 98 159
62 99 169
62 99 166
62 98 166
62 98 166
61 98 162
61 97 164
62 99 172
62 98 163
61 98 172
61 98 169
62 99 171
63 99 171
62 98 167
62 98 168
62 99 174
62 98 171
62 99 173
62 99 174
62 98 171
62 99 172
62 99 174
62 98 170
62 99 171
62 98 169
62 99 172
63 100 176
62 99 174
63 99 172
62 99 178
62 99 174
61 98 170
62 99 173
63 99 173
62 99 174
62 98 172
62 99 176
61 98 172
62 99 178
63 100 176
62 98 170
62 98 172
62 98 173
63 99 172
62 99 174
62 99 172
62 99 174
63 100 176
62 99 172
62 99 170
62 98 172
62 99 174
62 99 173
63 99 174
62 99 175
62 99 174
62 99 173
61 98 172
62 99 175
62 99 176
63 100 177
61 98 173
62 99 178
62 98 171
63 99 177
62 99 177
62 99 178
63 99 175
62 99 176
62 99 178
63 99 175
63 100 178
62 98 171
62 99 176
63 99 175
63 99 176
62 99 169
62 99 177
62 99 177
62 99 174
62 99 177
62 99 175
62 99 176
63 100 178
62 99 172
62 99 177
62 99 175
62 98 174
62 99 173
62 99 174
62 99 173
62 99 173
62 99 174
62 99 177
62 99 178
62 98 174
61 98 167
63 100 176
62 99 174
62 99 170
62 99 174
62 99 170
62 99 172
62 98 171
62 99 174
63 99 174
62 99 175
62 99 169
62 99 172
63 99 174
62 99 173
63 99 178
63 100 176
62 99 174
62 99 171
62 98 173
63 99 173
62 99 172
62 99 173
63 99 170
62 99 169
62 99 172
62 98 165
62 98 168
62 99 173
62 99 178
62 99 170
62 98 167
62 98 164
61 98 171
62 98 169
62 99 170
62 99 173
62 99 175
62 99 171
62 99 170
61 98 169
61 98 166
62 98 166
62 99 170
62 99 173
62 99 169
61 98 165
62 98 165
62 98 170
63 99 170
62 98 166
62 99 166
62 98 166
62 98 162
61 98 164
62 99 169
62 98 162
61 97 161
62 98 162
61 96 159
62 99 172
62 98 161
61 97 159
61 98 162
62 98 164
61 97 156
62 98 166
62 97 161
61 97 161
62 97 156
62 97 161
56 85 119
44 57 41
46 60 39
48 64 46
45 59 44
47 62 45
48 63 46
49 64 48
50 67 48
49 65 48
50 65 45
50 66 47
116 118 29
143 141 0
143 141 0
145 142 0
148 146 0
142 141 0
149 146 0
149 147 0
149 147 0
146 145 0
148 146 0
148 145 0
151 148 0
147 145 0
148 146 0
150 147 0
152 149 0
151 149 0
150 148 0
148 147 0
153 151 0
150 147 0
152 150 0
149 147 0
151 149 0
155 152 0
152 149 0
154 150 0
155 152 0
154 151 0
152 150 0
154 150 0
152 149 0
154 151 0
155 151 0
152 150 0
152 149 0
151 149 0
150 148 0
153 150 0
153 149 0
154 151 0
152 149 0
152 149 0
153 151 0
154 151 0
151 148 0
153 150 0
153 150 0
155 152 0
153 149 0
153 150 0
151 147 0
153 149 0
154 150 0
152 149 0
154 151 0
152 149 0
152 150 0
153 149 0
153 149 0
154 150 0
154 150 0
154 150 0
152 150 0
153 149 0
153 149 0
152 148 0
151 147 0
152 149 0
151 147 0
153 150 0
152 149 0
153 150 0
152 148 0
154 149 0
154 149 0
151 147 0
153 148 0
152 147 0
151 147 0
155 157 0
171 188 0
169 185 0
171 190 0
168 186 0
170 187 0
172 192 0
171 191 0
171 191 0
171 190 0
171 190 0
172 191 0
172 192 0
171 193 0
171 192 0
170 189 0
170 190 0
171 191 0
170 190 0
171 195 0
171 194 0
171 195 0
171 194 0
173 197 0
172 195 0
172 195 0
171 194 0
173 196 0
171 194 0
170 193 0
171 194 0
173 196 0
173 196 0
174 197 0
172 196 0
173 196 0
173 195 0
173 197 0
173 196 0
173 195 0
173 196 0
172 195 0
172 196 0
172 196 0
172 194 0
173 195 0
171 195 0
172 195 0
170 193 0
172 196 0
173 196 0
171 195 0
172 195 0
173 196 0
168 192 0
171 194 0
173 195 0
170 194 0
172 195 0
174 197 0
170 194 0
171 195 0
173 196 0
169 193 0
173 196 0
173 196 0
172 195 0
173 196 0
171 194 0
172 196 0
168 192 0
172 195 0
170 193 0
171 194 0
170 194 0
168 192 0
170 194 0
169 192 0
169 193 0
168 191 0
169 193 0
172 194 0
171 195 0
167 190 0
173 195 0
171 194 0
171 193 0
170 193 0
170 193 0
173 196 0
170 193 0
168 190 0
168 191 0
170 193 0
166 189 0
172 195 0
171 194 0
170 193 0
168 190 0
171 194 0
167 190 0
172 196 0
168 192 0
172 195 0
166 189 0
168 191 0
168 191 0
168 192 0
170 193 0
172 194 0
170 194 0
167 190 0
171 194 0
168 192 0
170 194 0
169 192 0
167 190 0
170 194 0
173 196 0
172 194 0
167 190 0
171 194 0
167 189 0
169 192 0
171 193 0
169 191 0
170 193 0
171 193 0
168 191 25
65 100 154
61 97 159
61 97 154
62 99 169
62 98 160
60 96 155
61 98 164
61 97 166
62 98 166
61 98 159
62 98 166
62 98 164
62 98 157
61 97 161
61 98 171
62 98 165
62 99 169
62 98 167
63 99 172
61 98 169
62 98 172
62 98 166
62 99 176
62 98 168
62 99 170
63 100 177
62 98 170
61 97 173
62 99 166
62 98 168
63 99 170
62 98 165
62 99 172
61 98 173
62 99 173
62 98 167
63 99 169
61 98 168
62 98 172
62 99 170
62 98 171
62 99 175
61 97 165
61 98 172
62 99 173
61 98 172
62 99 174
62 98 172
62 99 172
62 98 172
62 99 178
62 99 170
62 99 173
62 99 176
62 99 173
62 99 172
61 98 172
62 99 173
62 99 174
62 99 176
62 99 174
62 99 175
62 99 174
62 99 174
62 99 173
62 99 176
62 98 170
63 99 177
62 99 174
61 98 175
62 99 176
63 99 175
62 98 170
62 99 175
62 99 177
62 99 174
63 100 178
62 99 174
62 99 176
63 99 175
62 98 172
62 99 174
62 99 172
62 98 174
62 99 176
63 99 177
62 99 176
62 99 175
62 99 173
62 99 172
62 99 174
62 99 174
61 98 170
62 99 174
62 99 173
62 99 173
62 98 171
62 99 173
61 98 169
62 98 170
63 99 172
62 99 178
62 99 173
62 99 174
62 99 172
62 99 172
62 99 175
63 99 174
61 97 169
63 99 177
63 100 179
62 99 177
63 99 176
62 98 173
62 99 170
62 99 175
62 99 176
62 98 173
62 99 174
63 99 174
62 99 176
62 99 173
62 99 175
61 98 171
63 100 176
62 99 176
62 99 175
63 99 174
62 99 172
62 98 170
62 99 173
62 99 173
62 99 172
61 98 166
62 99 172
62 99 172
62 99 174
62 99 170
62 99 173
62 99 173
62 99 175
62 99 172
62 99 169
61 98 170
62 99 171
62 98 169
62 99 168
63 100 174
62 99 172
62 99 170
62 98 169
63 99 170
62 98 165
62 99 171
62 98 165
62 98 165
62 98 168
62 98 170
62 98 159
63 99 173
63 99 173
62 98 168
63 99 170
62 98 165
62 98 162
62 99 168
62 98 166
61 97 160
62 98 170
63 99 162
61 97 163
62 98 162
62 98 163
62 97 159
61 97 157
62 97 160
61 97 156
61 96 155
60 94 149
45 59 53
46 60 43
47 62 42
47 63 47
47 61 42
48 64 44
48 64 45
49 65 45
48 64 48
50 68 51
83 91 46
138 137 0
137 137 0
145 143 0
147 144 0
146 144 0
143 141 0
146 143 0
147 146 0
146 144 0
145 143 0
148 146 0
146 144 0
146 144 0
146 144 0
146 144 0
148 147 0
147 145 0
151 149 0
146 144 0
151 149 0
151 149 0
151 148 0
151 150 0
146 144 0
149 147 0
151 148 0
152 149 0
152 150 0
148 146 0
149 147 0
147 145 0
152 149 0
149 147 0
151 148 0
150 147 0
151 148 0
152 150 0
151 148 0
148 146 0
152 149 0
153 150 0
151 148 0
153 150 0
152 150 0
152 150 0
150 147 0
154 151 0
151 147 0
150 147 0
152 149 0
152 149 0
152 149 0
153 150 0
150 148 0
153 151 0
155 151 0
152 149 0
153 150 0
153 151 0
152 150 0
152 149 0
151 149 0
153 149 0
150 145 0
153 150 0
151 148 0
152 150 0
154 150 0
155 151 0
154 149 0
150 146 0
152 149 0
152 148 0
152 147 0
153 149 0
154 150 0
153 149 0
151 147 0
155 149 0
152 147 0
153 150 0
169 184 0
169 185 0
170 190 0
173 192 0
172 191 0
172 191 0
172 192 0
172 192 0
171 189 0
165 183 0
170 189 0
171 191 0
171 191 0
170 191 0
170 189 0
171 189 0
173 192 0
171 190 0
169 190 0
170 193 0
174 197 0
175 198 0
171 194 0
173 196 0
171 194 0
173 196 0
172 196 0
172 196 0
170 194 0
173 196 0
169 193 0
169 192 0
171 194 0
171 194 0
173 197 0
174 196 0
173 196 0
171 194 0
172 195 0
173 195 0
172 194 0
171 195 0
172 196 0
173 196 0
169 193 0
171 194 0
171 194 0
170 193 0
173 196 0
173 197 0
171 195 0
170 194 0
171 194 0
169 192 0
170 193 0
173 196 0
173 196 0
172 196 0
170 194 0
170 193 0
172 196 0
167 190 0
175 198 0
172 196 0
169 193 0
171 194 0
172 196 0
171 195 0
171 195 0
171 194 0
169 192 0
170 193 0
169 194 0
170 194 0
171 194 0
168 191 0
167 191 0
170 193 0
168 191 0
169 193 0
171 193 0
171 194 0
171 194 0
171 193 0
169 192 0
166 189 0
167 191 0
168 191 0
166 189 0
167 191 0
172 196 0
172 195 0
172 196 0
168 191 0
169 192 0
169 191 0
170 194 0
171 194 0
169 191 0
171 195 0
168 192 0
169 192 0
168 192 0
170 193 0
170 193 0
171 193 0
169 192 0
171 194 0
171 194 0
169 192 0
171 194 0
166 189 0
170 192 0
170 194 0
170 194 0
167 190 0
168 190 0
168 191 0
170 193 0
166 189 0
166 188 0
166 189 0
169 191 0
167 190 0
170 191 0
172 196 0
169 191 0
166 188 0
141 165 82
62 97 151
62 98 156
62 97 161
63 99 167
62 98 161
62 98 163
61 97 164
61 97 158
61 97 158
62 98 158
61 98 166
62 99 166
61 97 159
62 98 168
62 99 172
62 99 169
62 98 167
62 98 176
62 98 166
62 99 172
62 98 169
62 98 167
61 98 169
61 98 169
61 98 169
62 99 171
62 98 169
63 100 175
61 98 164
61 97 171
62 99 173
62 98 174
62 98 172
62 98 170
62 99 175
62 99 171
61 98 169
63 100 175
62 99 171
62 98 170
62 99 175
62 99 172
62 99 174
62 99 173
62 99 173
61 98 168
63 99 174
62 99 170
62 99 174
61 98 173
62 98 170
62 99 174
62 99 172
62 98 168
61 98 173
62 99 175
62 99 171
61 98 172
62 99 173
62 99 178
62 99 174
62 98 169
62 99 174
62 99 173
62 99 177
62 98 172
62 99 174
62 99 174
62 98 174
62 99 174
62 99 175
62 99 171
63 99 176
62 99 172
62 99 177
62 99 176
62 99 176
62 98 172
62 99 174
61 98 170
62 98 169
62 98 174
62 98 170
63 100 177
62 99 178
62 98 171
62 99 176
62 98 172
62 99 171
63 100 176
62 99 177
62 99 170
62 99 175
62 99 177
62 99 176
63 99 177
62 99 172
63 99 172
63 99 176
62 99 176
62 98 171
62 99 176
63 100 176
62 99 171
62 99 174
62 98 172
62 99 176
62 99 176
62 98 171
62 98 171
63 99 173
62 99 173
62 98 169
62 99 172
62 99 173
62 99 174
62 99 169
62 99 173
62 99 172
63 99 172
63 100 177
62 99 175
62 99 171
63 100 178
63 99 176
62 99 173
61 98 169
62 99 175
62 99 175
63 99 173
61 97 162
62 99 174
62 99 173
63 99 172
63 99 174
62 99 175
62 99 170
63 99 169
61 98 170
62 99 168
62 99 167
62 99 171
62 99 173
62 99 171
62 99 170
62 99 173
62 98 166
61 98 165
62 98 168
62 99 168
62 98 166
63 99 169
62 99 171
62 98 167
61 97 158
62 99 171
62 98 167
62 99 172
61 98 162
62 98 162
61 98 165
62 99 167
62 99 169
61 97 161
62 98 168
62 98 165
62 98 166
62 99 166
61 98 163
61 97 159
62 98 166
62 98 161
62 99 166
62 98 162
61 97 155
62 98 167
61 96 155
61 96 156
61 96 158
49 69 79
45 59 42
45 58 37
45 58 34
47 62 40
49 64 47
50 66 45
49 65 47
48 65 46
50 66 41
121 122 18
134 133 0
130 130 0
145 143 0
138 137 0
142 140 0
144 142 0
146 144 0
142 141 0
145 143 0
145 143 0
147 145 0
142 140 0
145 144 0
143 141 0
150 147 0
147 145 0
149 147 0
147 145 0
149 147 0
149 146 0
150 147 0
149 146 0
149 147 0
150 148 0
151 148 0
152 149 0
150 147 0
155 150 0
152 149 0
152 149 0
151 148 0
150 148 0
152 151 0
150 148 0
151 148 0
154 150 0
153 150 0
149 147 0
153 149 0
153 150 0
153 151 0
152 149 0
148 145 0
150 147 0
155 152 0
154 151 0
152 150 0
153 151 0
153 151 0
154 152 0
153 150 0
153 151 0
153 150 0
154 149 0
152 149 0
152 149 0
152 149 0
150 149 0
153 148 0
153 149 0
151 149 0
153 150 0
152 147 0
151 148 0
151 147 0
151 147 0
153 149 0
150 145 0
152 148 0
153 149 0
151 149 0
151 147 0
151 147 0
154 149 0
152 148 0
151 147 0
151 145 0
153 149 0
152 148 0
153 148 0
161 170 0
169 187 0
169 187 0
172 191 0
169 188 0
171 190 0
170 191 0
171 191 0
171 190 0
172 191 0
171 191 0
170 190 0
170 190 0
171 189 0
169 189 0
170 190 0
171 192 0
167 188 0
171 191 0
171 191 0
175 197 0
171 194 0
172 196 0
173 196 0
173 197 0
171 195 0
171 194 0
171 194 0
172 195 0
172 196 0
170 193 0
173 196 0
172 195 0
172 196 0
171 195 0
172 195 0
172 196 0
169 193 0
174 197 0
172 196 0
171 194 0
171 195 0
172 195 0
172 195 0
170 194 0
170 194 0
170 194 0
169 193 0
169 192 0
175 197 0
173 196 0
169 192 0
168 191 0
172 195 0
171 193 0
172 195 0
173 197 0
169 193 0
170 195 0
172 194 0
169 192 0
166 189 0
167 191 0
173 196 0
169 192 0
173 196 0
172 195 0
171 195 0
173 196 0
170 193 0
168 192 0
171 194 0
166 190 0
171 195 0
168 192 0
172 195 0
173 196 0
171 196 0
170 193 0
168 191 0
170 194 0
167 190 0
169 193 0
170 194 0
171 194 0
168 191 0
170 194 0
169 192 0
172 195 0
169 192 0
167 191 0
168 191 0
170 193 0
168 191 0
171 194 0
171 193 0
169 192 0
172 195 0
171 195 0
170 193 0
167 190 0
169 192 0
172 194 0
172 194 0
169 191 0
171 194 0
169 191 0
168 191 0
171 194 0
169 193 0
165 187 0
166 190 0
164 187 0
168 190 0
169 192 0
169 191 0
167 191 0
172 195 0
172 196 0
171 193 0
172 195 0
168 190 0
167 190 0
165 189 0
168 190 0
168 190 0
168 191 0
170 193 0
168 191 0
112 138 122
62 98 163
61 97 156
61 98 164
61 97 153
63 99 166
62 98 157
62 98 159
61 97 164
62 99 170
62 98 169
62 98 163
62 98 168
63 99 174
63 99 169
62 98 163
62 98 162
63 99 173
62 98 162
62 98 164
61 98 171
62 98 171
62 99 169
62 99 166
61 97 165
62 99 170
63 99 169
63 99 175
62 99 170
61 98 170
63 99 175
63 99 171
62 99 168
62 98 170
63 99 173
62 98 167
62 99 171
61 98 169
61 98 175
62 99 174
62 99 173
61 98 175
61 98 172
62 98 173
62 99 175
62 99 169
62 99 171
62 98 169
62 99 174
62 99 173
62 99 177
62 99 173
62 99 174
62 99 175
62 98 171
62 99 172
62 99 171
61 98 171
62 99 174
62 98 170
61 98 172
63 99 171
63 99 175
62 99 174
62 98 169
62 98 172
62 98 172
62 99 170
62 99 175
62 99 176
62 99 176
62 99 174
63 99 173
62 99 176
62 99 176
62 99 173
62 99 172
62 99 172
62 98 174
61 98 170
62 99 175
62 99 175
62 99 171
63 99 174
62 99 172
62 98 168
62 98 172
62 98 174
62 99 170
62 99 174
63 100 177
61 98 170
62 99 175
62 99 176
63 99 178
63 99 171
62 99 171
62 99 177
62 99 174
61 98 167
62 99 178
62 99 173
62 99 172
62 99 173
61 98 168
62 99 174
62 99 174
62 99 172
62 99 170
62 99 173
62 98 172
62 98 173
63 99 172
62 99 171
62 98 170
63 99 172
62 99 171
62 99 175
61 98 170
63 100 179
62 99 172
62 99 173
62 99 174
62 99 170
62 99 171
62 98 168
63 100 177
62 99 172
62 99 172
62 99 174
63 99 173
62 99 171
61 98 166
63 99 175
62 98 171
62 99 168
62 99 174
62 99 171
63 99 169
61 98 164
63 100 176
63 99 170
62 98 164
63 99 172
62 99 169
62 98 168
61 98 164
62 98 170
63 99 174
61 98 164
62 99 167
61 98 165
63 99 172
61 98 167
61 98 165
62 98 167
62 99 172
62 99 168
63 99 172
62 99 169
63 99 166
62 99 165
62 98 170
62 98 164
62 99 168
62 99 171
62 98 167
63 99 172
61 96 155
62 97 157
62 98 158
62 98 166
62 98 159
61 97 165
62 98 160
62 98 161
61 96 161
61 96 151
61 96 155
60 94 148
54 81 113
44 57 37
45 57 35
46 61 41
45 60 38
49 64 44
48 64 46
49 65 43
47 62 44
97 103 31
127 127 0
130 130 0
133 132 0
136 134 0
144 142 0
137 136 0
141 139 0
141 140 0
141 139 0
142 140 0
147 145 0
145 142 0
144 143 0
149 147 0
147 145 0
144 142 0
145 144 0
147 145 0
146 144 0
147 146 0
150 147 0
150 148 0
151 148 0
149 147 0
148 146 0
147 145 0
149 147 0
151 148 0
151 148 0
151 148 0
150 147 0
150 149 0
154 151 0
153 151 0
146 145 0
152 149 0
151 148 0
149 147 0
150 147 0
150 147 0
152 149 0
153 150 0
150 148 0
153 151 0
154 151 0
151 149 0
150 148 0
152 150 0
152 149 0
150 148 0
151 148 0
153 150 0
154 151 0
152 150 0
152 149 0
151 149 0
150 147 0
150 146 0
153 151 0
152 149 0
151 147 0
152 148 0
152 149 0
152 148 0
150 147 0
151 147 0
152 148 0
153 149 0
151 147 0
154 150 0
153 148 0
154 149 0
153 149 0
157 152 0
153 148 0
153 149 0
153 148 0
150 146 0
152 146 0
153 149 0
154 152 0
168 185 0
169 187 0
170 187 0
171 192 0
169 187 0
173 191 0
172 192 0
171 189 0
170 193 0
169 189 0
171 191 0
170 189 0
167 186 0
169 190 0
170 188 0
172 191 0
171 190 0
171 191 0
168 187 0
171 191 0
171 194 0
172 195 0
171 195 0
173 195 0
172 196 0
172 195 0
173 196 0
171 194 0
171 195 0
173 197 0
174 197 0
172 195 0
172 196 0
171 194 0
172 195 0
171 195 0
174 197 0
172 195 0
171 193 0
175 197 0
164 188 0
170 194 0
171 195 0
172 196 0
171 194 0
172 195 0
172 196 0
172 196 0
171 194 0
170 193 0
170 194 0
170 193 0
170 194 0
173 195 0
171 195 0
173 196 0
171 195 0
169 192 0
173 196 0
171 194 0
173 196 0
172 195 0
169 194 0
169 193 0
170 193 0
172 196 0
171 194 0
168 191 0
171 195 0
172 195 0
166 189 0
173 196 0
169 192 0
169 193 0
171 194 0
170 193 0
169 193 0
171 194 0
172 196 0
166 189 0
171 194 0
170 194 0
171 194 0
168 192 0
171 194 0
166 189 0
171 194 0
170 194 0
172 195 0
170 192 0
168 191 0
170 193 0
164 187 0
171 194 0
170 193 0
171 194 0
172 195 0
168 193 0
169 192 0
171 194 0
173 195 0
167 191 0
169 192 0
169 192 0
170 194 0
164 188 0
165 189 0
168 190 0
172 195 0
169 191 0
169 193 0
166 190 0
167 189 0
169 192 0
172 194 0
169 191 0
168 189 0
169 192 0
170 194 0
168 191 0
172 195 0
166 189 0
168 192 0
168 190 0
173 195 0
164 187 0
166 189 0
168 192 0
170 192 0
93 122 137
61 97 154
61 97 156
61 97 157
61 97 163
61 97 161
62 99 163
62 98 160
61 97 157
62 98 161
62 98 162
62 99 170
62 98 165
62 98 165
61 97 166
62 98 166
60 97 163
62 98 166
61 98 162
61 98 163
61 97 164
62 98 168
62 99 172
62 98 169
61 98 172
62 99 170
62 98 168
61 98 166
62 99 172
62 98 172
61 98 169
62 99 171
62 99 169
63 99 171
62 99 175
62 98 166
61 98 170
62 98 171
62 99 172
63 99 174
61 97 162
62 98 171
62 99 176
62 99 175
62 98 167
63 99 177
62 98 166
62 99 175
61 98 170
62 98 170
63 99 174
62 98 170
63 99 172
62 99 172
62 98 174
62 98 172
62 98 170
62 98 173
61 98 173
61 98 170
62 98 172
62 99 173
62 99 174
61 98 174
62 99 171
62 99 170
62 98 173
62 99 173
62 98 168
62 99 172
61 98 175
62 99 176
62 98 169
62 99 175
62 98 169
62 99 176
62 99 171
62 99 170
62 98 169
61 98 168
62 99 174
62 99 176
62 99 174
61 98 173
62 98 168
62 99 175
62 98 170
62 98 173
63 100 177
62 99 178
63 99 176
63 99 174
62 99 173
63 99 173
63 100 177
62 99 173
62 99 171
62 99 170
63 99 177
62 99 172
62 98 169
62 98 167
62 99 176
62 99 176
62 98 172
62 99 169
62 99 176
62 99 173
62 99 174
62 99 174
62 99 173
62 99 173
62 99 173
62 99 171
62 99 176
62 99 178
63 100 173
62 99 175
63 99 171
63 99 171
62 98 167
63 99 175
62 99 176
62 98 169
62 99 172
62 99 172
62 99 168
62 98 166
62 98 169
62 98 171
62 99 174
63 99 175
63 100 172
63 99 170
62 99 170
63 99 169
62 98 168
61 98 170
63 99 170
62 98 168
62 99 170
63 99 174
62 98 169
61 97 163
62 99 175
62 98 166
62 98 170
61 98 165
62 98 172
62 98 171
63 99 169
62 98 167
62 98 166
62 99 170
62 99 169
61 97 160
62 98 167
62 98 166
62 98 169
62 99 168
62 98 166
62 99 167
62 98 167
62 98 164
62 98 165
62 99 170
61 97 162
61 97 162
62 98 164
61 97 160
62 98 167
61 98 163
61 98 164
61 96 152
61 96 156
62 97 155
61 97 158
61 96 156
61 96 155
61 95 151
58 89 140
46 61 40
45 58 41
44 58 37
48 63 40
45 60 36
49 65 46
49 65 45
89 95 33
136 134 0
134 132 0
137 135 0
128 127 0
141 140 0
137 135 0
139 137 0
141 140 0
137 135 0
144 142 0
140 139 0
138 136 0
139 138 0
148 146 0
142 140 0
139 138 0
142 140 0
149 146 0
147 144 0
145 143 0
144 142 0
151 148 0
148 145 0
145 143 0
148 145 0
151 148 0
152 149 0
152 150 0
153 151 0
150 147 0
154 150 0
150 147 0
148 146 0
149 146 0
153 151 0
152 150 0
149 146 0
151 149 0
150 148 0
148 146 0
153 150 0
153 149 0
153 150 0
153 149 0
154 149 0
151 149 0
149 147 0
152 150 0
150 148 0
152 149 0
152 149 0
152 148 0
149 147 0
152 149 0
152 148 0
147 144 0
156 152 0
149 148 0
148 146 0
148 145 0
151 148 0
150 147 0
153 150 0
152 148 0
153 148 0
154 150 0
154 150 0
153 149 0
149 146 0
153 150 0
152 148 0
153 148 0
148 145 0
154 148 0
151 147 0
152 148 0
152 146 0
153 148 0
152 148 0
152 146 0
151 146 0
169 183 0
169 188 0
169 188 0
169 186 0
169 187 0
171 191 0
171 190 0
171 190 0
169 187 0
169 189 0
171 190 0
171 188 0
170 188 0
170 192 0
172 193 0
172 191 0
171 191 0
169 188 0
172 193 0
171 190 0
171 190 0
170 194 0
171 195 0
171 194 0
173 195 0
170 193 0
172 195 0
173 195 0
175 198 0
171 195 0
172 195 0
173 196 0
172 196 0
174 197 0
172 195 0
172 195 0
174 197 0
170 194 0
172 196 0
172 195 0
171 195 0
173 197 0
172 196 0
173 196 0
173 197 0
171 194 0
167 190 0
172 196 0
171 194 0
173 196 0
171 194 0
172 195 0
170 193 0
172 195 0
171 194 0
175 197 0
173 196 0
170 195 0
169 192 0
169 193 0
169 192 0
170 193 0
172 195 0
171 194 0
168 191 0
172 196 0
170 194 0
168 191 0
169 192 0
170 193 0
169 193 0
170 193 0
168 192 0
166 190 0
172 195 0
174 198 0
171 195 0
173 195 0
171 195 0
167 190 0
167 190 0
171 193 0
169 193 0
171 194 0
171 193 0
169 192 0
168 191 0
170 193 0
167 190 0
171 194 0
168 192 0
171 195 0
170 194 0
170 192 0
165 188 0
168 192 0
169 192 0
171 195 0
168 191 0
169 192 0
169 193 0
169 192 0
172 196 0
169 193 0
171 195 0
165 188 0
168 191 0
172 194 0
170 193 0
170 194 0
169 193 0
169 192 0
168 190 0
170 192 0
166 189 0
167 190 0
169 192 0
170 193 0
165 188 0
170 193 0
169 192 0
167 190 0
169 193 0
169 191 0
171 194 0
169 191 0
167 190 0
164 187 0
164 186 0
165 188 31
60 95 149
62 97 156
61 97 158
62 98 167
62 97 159
62 98 156
61 97 154
62 98 159
61 97 157
62 98 165
62 98 165
62 98 169
61 98 164
61 98 163
62 99 167
62 98 167
61 98 162
62 98 161
62 99 168
62 98 166
62 99 171
61 98 170
61 97 161
62 98 170
62 98 167
63 99 171
61 98 167
62 99 172
62 99 173
62 98 167
62 98 167
62 99 173
62 99 171
63 100 172
62 98 170
62 98 168
62 98 171
62 99 173
62 98 169
62 99 174
62 99 169
62 98 166
62 98 170
62 99 174
62 99 175
62 98 172
61 98 169
61 98 165
61 98 171
62 99 170
62 99 172
61 98 170
62 99 173
62 99 176
62 99 173
62 99 172
62 99 175
62 99 173
62 98 169
63 100 178
63 99 174
62 99 175
62 98 166
62 99 169
62 99 171
62 99 177
62 99 174
63 99 176
62 98 172
62 99 170
62 99 171
62 99 180
61 98 172
63 99 174
62 99 173
62 99 173
62 98 172
62 99 171
62 98 172
62 99 167
62 98 169
62 99 172
62 99 171
62 99 172
62 99 170
62 98 165
62 99 174
62 98 168
62 99 173
62 99 175
62 98 174
62 98 172
62 99 173
62 99 172
62 99 172
62 99 174
62 99 176
63 100 172
62 99 173
63 99 176
63 99 171
62 99 173
63 99 171
62 99 174
63 99 172
62 99 173
63 100 178
61 98 168
62 99 176
61 98 170
62 99 171
62 99 177
62 99 170
62 99 174
61 98 168
62 99 174
62 99 174
62 99 175
62 99 174
62 98 168
62 98 167
63 99 173
62 98 171
62 99 173
62 99 175
62 99 176
62 98 171
62 98 171
62 98 168
62 99 173
62 99 167
62 99 169
63 99 169
62 99 168
62 98 167
61 98 169
62 98 168
62 99 169
63 99 175
63 99 166
62 99 174
62 98 169
62 98 167
62 98 172
62 98 168
62 99 169
63 99 171
62 99 168
63 100 175
62 98 157
62 98 160
62 98 168
62 99 172
62 98 167
63 99 168
62 98 164
62 99 171
61 97 162
62 99 169
63 99 172
62 98 165
62 98 166
62 98 164
62 98 162
62 99 166
62 98 165
62 97 161
61 98 168
63 99 168
62 98 158
62 98 162
61 97 163
62 98 161
62 98 161
63 99 167
61 97 158
61 96 154
61 97 158
62 97 158
60 95 148
60 92 134
47 63 52
48 62 40
46 60 38
45 60 37
49 65 48
47 62 39
75 82 36
128 126 8
129 128 0
132 131 0
127 127 0
126 125 0
132 132 0
124 124 0
136 135 0
131 131 0
136 134 0
139 137 0
139 137 0
139 138 0
145 143 0
145 143 0
140 139 0
141 140 0
142 140 0
145 143 0
146 144 0
145 142 0
148 146 0
145 143 0
145 143 0
149 147 0
145 143 0
148 146 0
150 148 0
145 143 0
153 149 0
150 147 0
146 144 0
147 145 0
152 150 0
146 145 0
147 145 0
150 147 0
152 150 0
148 145 0
149 147 0
151 147 0
151 149 0
150 148 0
148 147 0
152 149 0
152 149 0
146 145 0
153 150 0
149 146 0
150 147 0
150 148 0
150 147 0
151 148 0
146 143 0
152 149 0
150 147 0
154 149 0
151 147 0
153 149 0
150 148 0
152 148 0
152 148 0
152 148 0
148 144 0
150 147 0
153 148 0
151 147 0
152 148 0
153 149 0
150 147 0
149 146 0
156 151 0
152 149 0
152 148 0
152 148 0
151 147 0
149 144 0
153 147 0
151 145 0
150 143 0
151 145 0
162 169 0
167 185 0
169 187 0
171 191 0
172 191 0
170 189 0
170 187 0
169 188 0
168 188 0
171 190 0
169 187 0
170 188 0
168 187 0
167 185 0
169 188 0
171 190 0
171 190 0
170 188 0
171 191 0
170 188 0
169 190 0
170 190 0
173 196 0
172 195 0
174 197 0
173 196 0
174 197 0
170 193 0
168 192 0
169 193 0
170 194 0
171 195 0
170 194 0
171 194 0
170 194 0
170 195 0
174 197 0
172 194 0
172 196 0
173 196 0
173 197 0
171 195 0
172 196 0
173 196 0
175 197 0
169 192 0
169 193 0
173 197 0
170 193 0
174 198 0
172 195 0
170 193 0
169 192 0
174 196 0
172 195 0
172 196 0
173 197 0
172 196 0
170 194 0
173 196 0
174 196 0
168 191 0
172 196 0
173 196 0
173 196 0
173 196 0
171 195 0
172 196 0
172 196 0
172 195 0
170 193 0
170 193 0
172 196 0
172 195 0
172 196 0
171 194 0
171 194 0
172 195 0
172 195 0
171 195 0
167 190 0
168 192 0
169 192 0
167 191 0
171 194 0
170 194 0
170 193 0
170 193 0
168 192 0
169 192 0
171 194 0
170 193 0
169 192 0
172 195 0
171 194 0
171 195 0
168 191 0
170 192 0
169 192 0
170 193 0
170 193 0
172 195 0
171 194 0
166 188 0
169 192 0
168 192 0
166 190 0
168 191 0
168 191 0
169 192 0
169 192 0
164 188 0
170 193 0
171 194 0
166 189 0
166 189 0
169 193 0
167 191 0
168 191 0
168 192 0
173 196 0
167 190 0
167 189 0
171 194 0
169 192 0
169 192 0
167 190 0
165 189 0
168 191 0
168 191 0
149 173 80
60 95 149
63 99 164
62 98 155
61 97 152
62 98 160
62 97 164
61 98 161
61 97 162
62 98 166
62 98 160
62 98 170
62 98 161
61 97 160
62 98 163
62 99 169
60 96 160
61 97 162
62 99 170
62 98 165
63 99 170
62 99 171
62 98 167
61 98 168
62 99 175
62 98 164
62 98 170
63 99 168
62 99 169
62 99 172
61 98 164
62 98 169
62 98 170
62 99 170
61 98 168
62 98 166
62 98 168
62 99 172
62 99 173
62 99 172
62 98 171
62 98 172
62 98 168
62 98 175
62 99 173
61 98 168
61 98 171
62 98 170
63 99 174
61 98 170
62 98 167
62 99 173
61 98 170
62 99 172
62 99 174
62 99 173
61 98 169
62 99 172
62 99 170
62 98 170
62 99 174
62 99 173
63 99 173
63 99 175
62 99 171
62 99 170
62 99 175
62 99 173
62 99 174
62 99 169
61 98 166
63 100 178
62 99 175
62 99 174
62 99 170
62 99 173
62 99 175
62 99 176
62 99 175
62 99 171
62 99 177
62 99 172
62 98 174
63 99 176
62 99 173
63 99 177
63 100 179
62 99 172
62 99 175
62 99 173
62 99 173
62 99 168
62 98 169
61 98 174
62 99 170
62 99 174
62 99 171
62 99 175
62 99 173
62 99 174
62 99 177
62 99 171
62 99 172
62 99 173
62 99 176
62 99 171
62 98 171
63 99 169
62 99 173
62 98 168
61 98 170
61 98 174
62 98 169
62 99 173
62 99 172
62 99 172
63 99 166
63 99 175
62 99 174
62 98 170
62 99 172
62 99 174
62 99 168
61 98 171
62 99 174
62 98 169
62 99 175
62 99 173
61 98 167
62 99 169
63 99 171
62 99 173
62 99 172
61 98 168
62 98 166
62 99 172
62 99 174
61 98 166
63 99 171
62 99 173
63 99 174
62 99 172
62 98 168
62 99 171
62 98 167
61 98 167
62 98 168
63 99 166
63 99 168
63 100 175
63 99 168
62 98 165
62 98 168
62 98 168
63 99 171
61 98 165
63 99 168
62 99 170
62 98 164
63 99 169
62 98 165
62 99 170
62 97 158
62 98 164
62 98 166
62 98 162
62 99 169
62 98 163
61 97 151
62 98 163
62 98 166
62 98 160
62 99 169
63 98 162
62 97 158
61 97 158
62 98 162
62 97 157
62 97 163
61 97 160
62 96 155
61 96 156
49 69 80
45 60 35
47 62 41
49 64 45
48 63 42
74 82 38
121 120 11
125 124 0
126 125 0
125 125 0
124 123 0
134 131 0
132 130 0
134 133 0
139 137 0
138 136 0
123 124 0
138 136 0
139 137 0
136 134 0
142 140 0
134 133 0
143 141 0
144 141 0
143 141 0
140 139 0
144 143 0
146 143 0
148 146 0
147 145 0
142 140 0
146 143 0
149 147 0
145 143 0
149 148 0
147 145 0
146 144 0
149 147 0
149 147 0
151 149 0
149 147 0
146 144 0
148 145 0
148 146 0
147 145 0
151 148 0
149 146 0
150 147 0
151 149 0
151 149 0
152 148 0
152 147 0
152 149 0
146 143 0
154 150 0
148 145 0
145 143 0
152 149 0
150 147 0
152 149 0
151 148 0
148 145 0
152 147 0
150 147 0
153 149 0
154 151 0
153 149 0
150 146 0
151 146 0
152 147 0
152 147 0
152 149 0
151 147 0
151 147 0
151 147 0
153 149 0
151 147 0
149 145 0
150 146 0
151 146 0
151 147 0
152 147 0
152 146 0
152 146 0
149 143 0
151 146 0
151 145 0
159 160 0
170 188 0
168 189 0
169 187 0
173 190 0
170 188 0
170 187 0
172 188 0
169 188 0
170 188 0
169 188 0
170 188 0
171 189 0
165 181 0
170 188 0
171 192 0
170 191 0
169 189 0
173 191 0
170 189 0
172 190 0
170 191 0
169 189 0
171 195 0
168 191 0
168 192 0
173 196 0
170 194 0
172 195 0
174 197 0
173 196 0
172 196 0
174 196 0
171 194 0
174 196 0
171 195 0
173 196 0
173 197 0
167 191 0
174 197 0
173 196 0
171 194 0
171 194 0
173 196 0
171 194 0
174 197 0
170 194 0
174 197 0
173 196 0
174 198 0
170 193 0
171 194 0
173 196 0
174 198 0
173 196 0
173 196 0
174 198 0
175 198 0
172 196 0
172 196 0
174 197 0
172 196 0
175 198 0
172 196 0
173 196 0
172 196 0
174 197 0
175 198 0
173 196 0
173 196 0
174 197 0
172 196 0
174 197 0
173 197 0
171 194 0
172 196 0
173 196 0
174 197 0
173 197 0
171 195 0
173 196 0
168 191 0
172 195 0
171 195 0
171 194 0
169 193 0
173 197 0
166 190 0
171 194 0
169 192 0
172 196 0
170 193 0
170 192 0
172 194 0
171 194 0
170 193 0
169 192 0
172 195 0
171 194 0
171 193 0
169 193 0
167 191 0
168 191 0
167 190 0
166 189 0
166 190 0
166 188 0
170 194 0
169 193 0
170 194 0
168 191 0
172 195 0
166 190 0
166 190 0
162 185 0
170 192 0
166 188 0
170 192 0
170 193 0
166 188 0
167 189 0
167 190 0
171 194 0
163 186 0
166 189 0
164 188 0
168 190 0
166 190 0
167 189 0
169 193 0
170 193 0
123 149 113
61 96 154
62 98 158
62 98 156
62 98 160
62 99 168
61 97 156
61 97 157
62 98 164
61 98 159
61 97 158
61 98 164
61 97 158
61 97 162
62 99 171
61 97 156
61 97 156
62 99 172
62 98 170
62 99 169
62 98 169
62 98 169
61 98 165
62 98 166
62 98 173
61 97 168
61 97 167
61 98 165
62 99 171
62 98 165
61 98 166
62 99 173
62 99 172
62 98 166
62 98 170
61 98 165
62 98 165
62 98 170
61 98 171
62 99 175
62 98 170
61 98 169
62 99 173
61 98 170
61 98 169
62 99 172
62 98 173
62 98 169
61 98 168
61 98 168
63 100 176
62 98 171
63 99 172
61 98 170
61 98 171
62 99 172
61 98 167
62 99 172
62 99 173
62 98 166
62 99 172
62 99 173
62 98 171
62 99 175
62 98 171
62 99 175
62 99 177
62 98 168
63 99 173
62 99 176
62 98 171
63 99 177
63 100 176
62 99 169
61 98 163
63 100 178
62 99 172
63 100 175
62 99 172
62 99 171
63 99 174
62 99 168
61 98 170
62 98 165
62 98 167
62 99 172
62 99 177
63 99 176
63 100 175
62 99 174
63 100 176
62 99 175
63 99 172
62 99 171
63 99 165
62 99 172
62 99 172
62 98 170
62 99 176
62 98 169
62 98 170
62 99 173
63 99 172
61 98 167
62 98 170
62 99 172
62 99 177
62 99 175
62 99 174
62 98 167
62 99 174
62 98 170
62 98 167
62 99 173
62 99 169
62 98 170
61 98 168
62 99 173
62 99 172
62 98 169
62 99 169
62 98 170
61 97 169
62 99 170
62 99 170
62 99 173
62 98 170
62 98 162
62 99 174
63 99 169
62 99 171
62 99 173
63 100 176
63 99 167
62 99 173
63 99 174
62 98 166
63 99 173
61 98 159
63 99 166
62 98 167
62 99 171
62 98 172
61 98 168
62 98 169
63 99 172
61 98 171
63 99 166
62 98 164
62 98 168
62 98 169
61 98 163
62 99 168
61 97 161
61 97 158
62 99 167
62 98 160
62 98 163
61 97 163
62 98 159
62 98 163
62 98 165
62 98 162
62 98 168
62 98 168
61 97 161
63 99 170
62 98 158
62 98 163
62 97 161
62 98 158
62 97 160
62 98 163
61 96 150
62 99 164
62 98 163
61 96 151
62 98 166
62 96 155
61 96 151
61 96 152
61 95 152
54 78 105
44 59 36
46 61 39
47 61 37
89 92 20
115 114 8
119 119 0
120 120 0
125 123 0
131 129 0
126 125 0
126 125 0
130 129 0
131 130 0
133 131 0
140 139 0
134 132 0
129 128 0
135 134 0
145 143 0
135 133 0
140 139 0
144 142 0
138 136 0
144 143 0
144 141 0
147 145 0
144 141 0
145 144 0
147 145 0
143 141 0
148 145 0
141 139 0
142 139 0
141 139 0
146 144 0
149 145 0
145 142 0
146 143 0
148 145 0
148 145 0
148 145 0
150 147 0
149 147 0
151 149 0
150 147 0
146 144 0
152 150 0
147 144 0
150 147 0
150 148 0
151 146 0
148 147 0
147 144 0
151 148 0
152 149 0
146 143 0
151 148 0
151 148 0
149 146 0
152 148 0
150 147 0
152 147 0
149 147 0
147 145 0
150 148 0
150 147 0
152 148 0
151 148 0
154 149 0
152 148 0
152 148 0
150 147 0
152 147 0
151 146 0
150 146 0
149 146 0
151 147 0
151 146 0
151 145 0
152 147 0
152 147 0
153 148 0
152 147 0
147 142 0
152 146 0
151 144 0
165 180 0
169 186 0
171 188 0
167 185 0
169 187 0
170 186 0
169 186 0
169 188 0
169 187 0
171 190 0
167 184 0
172 191 0
172 193 0
170 190 0
169 186 0
171 188 0
169 189 0
168 186 0
169 189 0
171 191 0
168 187 0
171 192 0
171 191 0
174 198 0
173 196 0
170 194 0
173 197 0
170 193 0
174 198 0
171 194 0
171 194 0
173 197 0
170 193 0
171 194 0
169 193 0
170 194 0
171 195 0
172 195 0
172 195 0
171 194 0
172 195 0
174 197 0
174 197 0
175 198 0
175 198 0
173 196 0
173 196 0
172 196 0
174 197 0
174 198 0
174 197 0
174 197 0
174 197 0
173 197 0
176 199 62
177 200 67
177 200 67
183 205 102
179 201 80
186 206 111
184 205 105
187 207 117
183 204 108
184 205 105
188 208 120
181 203 102
182 203 95
183 204 102
178 201 76
180 202 84
176 199 67
179 201 84
179 201 84
179 202 88
181 202 80
176 199 36
173 197 0
170 194 0
173 196 0
174 197 0
173 197 0
173 196 0
172 196 0
173 197 0
175 197 0
173 197 0
171 196 0
170 193 0
172 195 0
167 191 0
172 195 0
172 195 0
172 195 0
167 191 0
170 194 0
168 192 0
171 193 0
168 191 0
171 194 0
169 192 0
167 191 0
168 192 0
171 194 0
168 191 0
171 194 0
173 196 0
169 192 0
165 188 0
166 188 0
164 187 0
170 193 0
174 197 0
168 191 0
168 192 0
167 190 0
172 194 0
169 192 0
169 191 0
169 192 0
169 192 0
168 191 0
169 193 0
170 193 0
165 189 0
168 191 0
167 190 0
167 190 0
167 191 0
169 192 0
168 192 0
169 192 0
116 143 121
61 97 155
60 96 154
62 98 158
61 97 153
61 97 160
62 98 164
61 97 157
61 97 158
61 97 161
61 97 161
61 97 159
62 98 164
61 98 161
62 98 166
61 98 167
61 98 160
61 98 166
61 97 157
62 98 164
61 98 163
61 98 166
61 97 166
62 99 170
62 98 164
61 97 160
62 98 165
61 98 166
61 97 162
61 98 165
62 99 173
63 99 170
62 99 171
63 100 178
61 98 169
61 98 166
62 98 172
62 98 172
61 97 168
61 98 166
61 98 166
62 98 171
62 99 176
63 99 174
63 100 173
62 99 176
62 99 173
62 99 170
62 99 170
62 99 172
62 99 174
62 99 176
61 98 172
62 98 171
62 99 171
62 99 175
62 98 165
61 98 171
62 99 169
61 98 171
62 99 175
61 98 168
62 99 173
63 99 175
63 99 173
63 99 174
62 99 174
62 98 172
62 99 173
62 99 172
62 99 169
62 98 169
62 99 177
62 99 175
62 98 170
62 99 174
62 99 173
62 98 167
62 99 172
62 98 168
62 99 174
62 98 171
62 99 173
62 98 174
62 99 174
61 98 171
62 99 174
62 99 174
63 99 172
62 99 172
62 99 171
62 99 170
63 100 174
62 98 171
62 99 175
61 98 168
62 99 170
62 98 165
62 99 170
62 98 169
62 99 173
62 98 175
62 99 170
62 98 169
62 99 174
61 98 168
62 99 171
62 99 173
62 99 171
62 99 175
63 99 169
62 98 168
63 99 175
61 98 170
61 98 172
62 99 170
63 99 172
62 98 168
61 98 168
63 99 175
62 98 165
62 98 169
63 99 176
62 99 171
61 98 174
61 97 162
62 98 166
62 99 169
62 98 168
63 99 170
62 99 168
62 99 173
63 99 174
63 99 169
62 99 170
62 98 167
62 99 173
62 99 170
62 98 167
62 99 166
62 98 164
62 98 164
62 99 168
62 99 170
62 99 170
63 99 169
61 98 163
62 99 174
62 98 162
62 98 161
62 98 163
62 98 164
62 99 165
62 99 171
62 98 167
62 98 161
62 98 165
62 98 163
62 98 167
62 99 172
62 98 162
62 98 158
62 98 164
61 98 162
62 98 165
63 99 167
61 97 159
62 98 159
62 98 168
62 98 161
62 98 161
62 98 169
61 97 156
62 98 164
63 99 166
62 98 167
62 97 156
62 97 162
61 96 156
62 97 156
62 96 154
61 96 155
56 84 121
44 57 36
61 70 34
101 102 11
107 106 0
110 111 0
117 116 0
121 121 0
114 114 0
118 117 0
122 120 0
120 120 0
127 127 0
129 127 0
126 126 0
128 127 0
130 130 0
131 130 0
135 133 0
138 135 0
140 138 0
141 139 0
133 131 0
136 135 0
138 136 0
146 143 0
139 137 0
143 141 0
137 135 0
148 145 0
144 142 0
145 142 0
143 141 0
145 143 0
146 144 0
144 142 0
148 145 0
144 142 0
143 142 0
146 143 0
144 140 0
148 146 0
148 146 0
145 142 0
145 143 0
149 146 0
150 146 0
148 145 0
149 146 0
150 147 0
148 146 0
151 148 0
149 145 0
148 145 0
148 145 0
151 147 0
150 146 0
147 144 0
154 149 0
149 146 0
150 147 0
148 145 0
149 145 0
148 144 0
148 144 0
149 147 0
149 146 0
154 150 0
151 147 0
150 146 0
149 145 0
150 146 0
155 150 0
149 144 0
150 144 0
153 148 0
153 147 0
148 143 0
152 146 0
152 147 0
155 149 0
152 145 0
150 144 0
149 143 0
152 145 0
150 144 0
161 171 0
168 184 0
171 188 0
170 188 0
172 191 0
168 187 0
170 187 0
170 189 0
169 186 0
170 188 0
169 186 0
169 188 0
171 189 0
168 187 0
168 187 0
169 188 0
171 190 0
167 185 0
169 186 0
168 187 0
172 193 0
169 189 0
168 188 0
170 191 0
173 196 0
172 196 0
170 193 0
173 195 0
173 196 0
171 195 0
172 195 0
172 196 0
171 195 0
171 194 0
172 195 0
174 196 0
172 196 0
173 196 0
172 195 0
172 196 0
174 197 0
173 197 0
170 194 0
172 196 0
173 196 0
173 197 0
173 196 0
175 198 36
178 201 67
179 202 72
184 205 114
184 205 120
187 207 125
195 213 153
193 212 144
186 207 122
189 208 135
191 211 144
187 208 125
190 210 137
187 207 125
188 208 125
192 211 140
186 207 117
189 209 130
188 208 128
185 206 114
189 209 137
189 209 135
186 207 117
189 209 128
185 206 111
189 209 130
188 208 130
190 210 137
189 209 130
191 211 142
187 207 120
188 208 128
188 207 130
182 204 102
182 204 95
179 201 88
176 199 57
173 197 0
172 196 0
171 195 0
172 195 0
171 194 0
173 196 0
174 197 0
173 197 0
171 194 0
169 193 0
170 194 0
169 193 0
169 193 0
170 193 0
168 192 0
172 196 0
167 190 0
168 190 0
166 189 0
170 194 0
166 188 0
171 193 0
170 192 0
168 191 0
167 190 0
168 191 0
167 191 0
167 191 0
171 193 0
166 188 0
170 193 0
170 193 0
167 191 0
166 189 0
168 192 0
167 190 0
165 189 0
169 192 0
166 190 0
168 191 0
170 194 0
167 190 0
168 191 0
167 190 0
164 187 0
168 191 0
167 190 0
167 191 0
95 123 131
61 97 150
61 97 156
61 97 158
62 98 163
61 97 150
62 98 156
61 97 160
62 98 165
61 96 157
61 98 163
60 96 149
61 97 157
62 99 172
62 98 166
62 99 173
61 97 159
61 97 162
63 99 171
62 98 163
61 98 163
60 97 160
62 98 167
61 98 162
61 97 167
62 99 171
61 98 168
61 98 164
62 98 168
62 98 173
62 98 167
63 100 177
62 98 168
62 98 172
62 98 173
62 98 166
62 98 167
62 99 170
62 99 173
62 98 170
62 99 171
62 99 173
62 98 172
63 99 173
62 99 170
62 99 173
62 99 174
62 98 170
62 99 172
62 98 168
62 98 164
62 98 172
61 98 169
63 99 175
63 99 172
62 99 168
62 99 172
62 99 178
61 98 174
62 99 172
61 98 172
62 98 169
62 99 171
62 99 170
62 99 168
62 99 175
62 99 171
62 99 171
62 98 169
62 99 174
62 98 168
62 98 170
62 98 171
63 99 176
62 99 174
62 98 168
62 99 171
63 99 173
62 99 168
62 99 176
61 97 167
62 99 176
62 99 176
62 98 174
63 99 174
62 99 173
61 98 173
62 99 174
62 99 173
62 99 172
62 99 169
62 99 170
62 98 170
63 99 172
62 99 169
61 98 173
61 98 165
62 99 176
62 98 167
63 99 171
62 98 172
61 97 164
61 98 166
62 99 174
62 98 165
63 99 173
62 99 172
62 99 175
62 99 177
62 99 168
62 99 169
62 99 173
62 99 168
62 99 173
63 99 175
62 99 173
62 99 173
62 98 169
63 99 175
62 99 170
62 99 169
62 98 168
62 98 171
62 99 171
62 98 168
62 99 172
61 98 171
63 99 174
62 99 173
62 98 168
63 99 173
62 99 173
62 99 167
63 99 171
62 98 166
61 98 166
62 99 170
62 99 169
62 99 174
63 99 173
62 98 162
62 99 171
62 99 170
63 99 172
62 98 165
63 99 172
61 98 164
61 98 165
62 99 168
61 97 163
61 97 162
62 98 163
61 98 165
61 97 162
62 98 165
62 99 167
62 99 168
63 99 168
62 99 166
62 98 162
61 97 157
62 99 163
63 99 170
61 97 162
61 97 154
62 98 161
61 97 156
62 98 161
62 98 159
62 98 162
63 99 163
63 99 167
62 98 162
61 96 149
62 97 161
62 98 162
62 97 155
61 97 158
63 98 164
62 98 161
61 97 157
61 97 151
60 93 141
74 81 25
98 99 0
101 101 0
104 103 0
112 111 0
117 115 0
112 111 0
120 118 0
126 125 0
126 126 0
123 123 0
123 123 0
120 121 0
132 131 0
125 123 0
133 132 0
132 131 0
130 128 0
143 141 0
138 135 0
138 136 0
138 136 0
142 140 0
134 132 0
139 138 0
143 141 0
143 140 0
143 141 0
147 144 0
145 143 0
149 146 0
142 140 0
146 144 0
146 143 0
144 141 0
149 146 0
146 142 0
152 147 0
147 144 0
147 145 0
147 143 0
147 145 0
149 147 0
148 145 0
148 145 0
148 145 0
149 146 0
152 147 0
145 143 0
149 144 0
151 148 0
149 146 0
150 147 0
150 146 0
146 143 0
151 147 0
150 147 0
148 145 0
150 146 0
149 146 0
147 144 0
150 147 0
152 148 0
149 146 0
146 143 0
150 146 0
151 148 0
148 145 0
152 148 0
151 146 0
151 147 0
149 146 0
151 146 0
152 148 0
151 146 0
148 144 0
151 144 0
150 144 0
148 144 0
150 145 0
150 144 0
152 145 0
150 144 0
152 146 0
161 169 0
168 185 0
166 182 0
171 190 0
167 186 0
168 185 0
169 186 0
170 187 0
173 191 0
170 187 0
170 188 0
170 186 0
171 189 0
170 189 0
170 188 0
170 187 0
171 190 0
170 188 0
172 190 0
168 183 0
171 192 0
170 189 0
170 189 0
169 187 0
170 189 0
170 193 0
172 196 0
171 194 0
173 196 0
171 195 0
172 196 0
174 197 0
169 192 0
170 194 0
173 196 0
175 198 0
172 195 0
173 196 0
174 197 0
174 198 0
173 197 0
174 197 0
174 197 0
176 199 36
175 199 57
184 205 102
182 204 99
188 208 130
188 208 133
195 214 159
189 209 133
186 207 120
187 207 122
188 208 135
190 210 140
186 206 111
189 209 137
185 206 117
187 208 130
181 203 95
185 206 114
185 206 114
186 207 120
182 204 102
184 206 117
183 205 105
186 207 117
184 205 114
183 205 99
186 207 120
189 209 128
187 208 130
185 207 122
187 208 130
190 210 140
184 205 111
184 205 108
187 207 130
190 210 142
184 205 120
186 207 117
192 212 149
188 208 128
187 208 125
189 209 133
188 208 128
189 208 125
184 205 105
180 202 72
175 198 44
175 198 36
174 198 0
171 195 0
173 197 0
170 192 0
174 196 0
169 194 0
171 195 0
170 193 0
168 192 0
171 194 0
169 193 0
167 189 0
165 187 0
165 188 0
169 192 0
165 188 0
169 192 0
170 193 0
167 190 0
172 196 0
170 193 0
168 190 0
168 191 0
163 186 0
167 190 0
168 190 0
169 193 0
168 190 0
167 189 0
169 193 0
165 188 0
167 189 0
167 189 0
168 190 0
169 193 0
163 186 0
167 190 0
164 187 0
171 194 0
167 190 0
173 196 0
165 189 40
61 97 148
62 98 160
61 97 159
61 96 155
61 97 160
60 96 150
61 96 157
61 96 155
62 98 163
62 98 162
62 98 167
62 98 164
60 97 157
62 98 164
62 98 161
61 98 164
62 98 164
62 98 163
61 97 161
62 98 167
61 98 165
62 99 170
62 98 163
62 98 165
62 98 163
61 97 161
62 99 168
62 98 170
61 97 166
61 98 171
62 98 170
61 97 165
62 99 170
62 98 171
62 99 173
61 98 164
62 99 171
62 99 173
62 99 174
61 97 163
62 98 166
62 98 169
62 99 169
62 98 167
61 98 171
61 98 163
63 99 172
62 98 172
62 98 169
62 98 167
62 99 171
61 98 166
61 98 169
62 98 167
62 99 171
62 98 170
62 98 168
62 98 166
62 99 175
62 99 175
63 99 168
61 98 172
62 99 172
61 98 171
62 98 168
62 98 171
62 98 167
62 99 171
63 99 174
62 99 169
62 99 169
63 99 175
62 98 171
62 99 172
62 99 173
62 98 169
61 98 162
63 99 175
61 98 167
62 99 170
62 98 165
63 99 173
62 98 169
62 99 173
61 98 168
62 99 172
62 99 172
62 98 169
63 99 173
62 98 168
61 98 170
63 99 174
63 100 177
62 98 167
62 99 174
62 99 173
62 99 172
62 99 175
62 98 170
62 99 174
63 100 177
62 98 168
61 98 166
62 99 167
62 99 168
62 98 171
62 98 168
63 99 172
62 98 168
63 99 170
62 98 167
62 99 168
62 98 168
63 99 169
62 99 173
62 98 171
62 98 169
62 98 170
63 100 175
62 99 172
63 99 171
63 100 174
62 99 166
62 98 172
62 98 168
62 98 170
62 99 168
62 98 166
62 98 165
63 99 172
62 99 172
62 99 170
62 98 165
62 98 168
61 97 163
63 99 169
62 99 169
62 99 171
62 98 171
62 98 163
62 99 172
62 99 167
62 99 173
62 99 174
62 98 166
62 99 170
61 98 163
63 99 169
62 98 165
62 99 175
62 98 166
63 99 170
62 98 167
61 98 165
62 98 168
62 99 169
62 98 165
62 99 167
62 99 166
62 98 164
61 98 164
62 98 164
63 99 167
61 98 163
62 99 163
61 97 160
63 99 167
61 97 158
62 98 165
62 98 160
62 97 158
63 99 166
62 97 161
63 98 166
63 98 161
62 98 164
62 97 159
61 97 155
63 98 162
62 97 152
61 96 156
62 98 157
60 94 144
104 103 25
102 100 0
97 96 0
99 100 0
111 109 0
104 103 0
118 118 0
110 111 0
119 118 0
135 133 0
121 120 0
129 127 0
127 125 0
130 128 0
125 123 0
126 125 0
136 134 0
132 131 0
141 139 0
141 138 0
136 135 0
139 137 0
137 134 0
141 138 0
138 136 0
140 138 0
142 140 0
138 137 0
140 138 0
145 142 0
145 142 0
146 143 0
144 142 0
146 144 0
145 142 0
147 143 0
142 139 0
146 144 0
151 148 0
146 142 0
144 141 0
143 141 0
141 138 0
147 145 0
149 146 0
143 140 0
148 144 0
149 146 0
148 144 0
147 145 0
146 143 0
148 144 0
149 145 0
149 145 0
150 145 0
148 146 0
150 146 0
148 145 0
152 147 0
147 143 0
149 145 0
150 148 0
153 150 0
151 147 0
152 147 0
150 146 0
150 145 0
150 143 0
151 147 0
151 146 0
153 148 0
152 147 0
151 147 0
150 145 0
150 145 0
150 145 0
150 145 0
152 146 0
151 144 0
152 146 0
150 145 0
150 142 0
153 146 0
160 163 0
168 184 0
168 185 0
168 183 0
171 188 0
169 187 0
167 184 0
168 186 0
168 184 0
171 188 0
169 187 0
166 184 0
172 189 0
169 189 0
169 189 0
170 188 0
170 189 0
168 188 0
169 186 0
172 192 0
170 189 0
170 190 0
171 192 0
171 190 0
170 191 0
170 190 0
172 196 0
172 195 0
171 194 0
174 197 0
173 196 0
171 194 0
173 197 0
173 197 0
173 196 0
172 196 0
174 197 0
174 197 0
174 196 0
173 196 0
171 195 36
181 202 88
185 206 114
185 205 105
193 212 153
193 212 153
189 208 133
187 208 133
191 211 144
187 208 130
186 207 114
186 207 128
188 209 135
185 206 114
186 207 125
188 209 135
188 208 128
196 214 163
197 216 169
201 219 184
205 221 194
206 222 199
210 226 214
209 225 209
212 227 220
214 229 226
210 226 214
212 227 218
216 231 234
211 227 217
216 230 231
212 227 221
208 224 206
208 224 207
207 224 206
202 220 186
199 217 175
195 214 161
188 209 133
190 210 140
183 205 111
188 208 128
181 203 95
186 208 130
189 209 130
185 206 108
184 205 105
190 210 135
190 210 140
190 210 137
187 208 128
186 207 117
185 206 111
182 203 92
178 200 51
175 198 25
172 195 0
176 199 0
174 198 0
173 197 0
173 196 0
169 192 0
170 193 0
171 194 0
170 194 0
170 193 0
173 196 0
170 193 0
168 190 0
169 193 0
162 184 0
166 190 0
170 192 0
168 192 0
169 193 0
168 192 0
171 194 0
166 190 0
168 192 0
169 192 0
167 190 0
167 189 0
169 194 0
169 192 0
167 190 0
168 192 0
165 188 0
169 191 0
168 191 0
166 189 0
165 188 0
169 192 0
168 191 0
151 174 62
61 96 149
62 98 155
63 98 160
62 98 156
61 97 157
61 97 157
62 98 159
61 97 157
62 98 161
62 98 163
62 98 163
62 98 165
62 98 162
61 97 162
61 97 159
61 98 161
60 96 162
62 98 167
62 98 164
63 99 171
62 98 168
62 98 167
62 98 169
62 98 168
61 98 165
62 98 166
62 99 171
62 99 171
62 98 164
61 97 162
61 97 162
62 99 171
62 99 170
61 97 161
61 98 171
63 100 175
62 99 171
62 98 168
61 97 163
61 98 166
61 97 167
63 99 171
61 98 166
62 98 171
61 97 167
61 97 170
61 98 167
62 99 173
63 99 173
61 98 165
62 98 172
62 99 176
62 98 171
62 99 170
62 99 173
61 98 174
62 98 167
63 99 173
62 99 173
62 99 172
62 99 169
62 99 170
62 99 172
62 99 173
62 98 169
63 99 171
63 99 173
62 99 175
62 98 166
62 98 167
62 98 166
63 99 174
62 98 170
62 98 171
62 99 173
62 99 174
62 99 173
62 99 178
63 100 176
62 98 170
62 98 170
62 99 172
62 99 175
62 98 172
62 98 165
62 99 172
63 99 171
62 99 171
62 99 176
62 99 171
63 99 172
63 100 174
62 99 171
61 98 168
62 99 171
61 98 167
63 99 173
62 99 174
62 99 170
63 99 174
62 99 171
61 97 166
62 99 172
62 98 170
62 99 172
62 98 168
62 99 174
62 99 176
61 98 171
61 98 166
62 99 171
62 99 172
62 99 170
62 99 174
62 98 170
62 99 169
62 98 168
62 99 169
63 99 176
62 99 170
62 99 174
62 98 168
61 98 168
62 99 169
63 99 174
62 98 169
62 98 168
62 98 166
62 98 167
62 98 165
62 99 170
62 98 165
62 98 170
63 99 171
62 98 167
62 99 172
62 98 167
62 98 164
62 99 167
62 98 165
61 98 163
62 98 169
62 99 169
62 99 168
61 98 166
62 99 170
62 98 165
62 99 167
62 98 170
63 100 174
62 99 168
62 98 169
61 98 166
62 98 164
61 98 163
60 97 156
62 98 163
63 99 167
62 98 164
62 98 164
62 98 168
62 98 163
62 98 165
63 100 173
62 98 168
62 98 159
62 98 167
62 98 166
62 98 165
61 97 159
62 98 161
61 97 156
62 98 165
62 98 162
61 97 154
62 97 156
62 97 154
62 97 161
61 96 148
61 96 144
62 97 154
61 96 152
60 93 144
97 101 70
106 105 0
98 98 0
106 102 0
113 111 0
105 105 0
112 109 0
123 121 0
121 119 0
121 118 0
122 121 0
127 125 0
122 121 0
117 117 0
135 133 0
133 132 0
131 129 0
134 132 0
137 135 0
135 134 0
130 128 0
137 134 0
144 140 0
139 137 0
146 144 0
139 137 0
139 136 0
142 140 0
142 139 0
140 138 0
145 142 0
148 145 0
144 141 0
142 140 0
144 141 0
141 139 0
149 145 0
142 141 0
150 147 0
148 144 0
144 142 0
150 147 0
146 143 0
144 141 0
145 143 0
148 145 0
145 142 0
146 142 0
151 147 0
144 141 0
149 145 0
149 145 0
148 144 0
149 145 0
152 147 0
148 145 0
148 143 0
149 145 0
148 143 0
147 144 0
149 146 0
147 143 0
146 141 0
148 144 0
151 148 0
151 148 0
148 143 0
148 143 0
153 149 0
152 147 0
154 149 0
149 144 0
150 144 0
146 142 0
151 146 0
148 142 0
149 143 0
151 146 0
150 144 0
153 146 0
152 144 0
150 143 0
153 153 0
167 184 0
168 184 0
168 185 0
170 187 0
171 189 0
167 183 0
167 183 0
169 186 0
168 187 0
169 187 0
171 190 0
168 184 0
169 188 0
165 180 0
169 185 0
169 187 0
170 189 0
165 184 0
170 186 0
169 187 0
172 191 0
169 188 0
170 190 0
168 187 0
168 185 0
170 190 0
173 196 0
169 193 0
171 195 0
172 196 0
173 196 0
173 196 0
170 194 0
172 196 0
173 197 0
175 198 0
175 198 36
179 202 80
186 207 117
186 207 122
191 211 142
188 208 125
191 210 144
185 205 117
185 206 125
183 205 108
186 207 120
186 207 122
191 211 142
199 217 177
198 216 173
206 223 201
210 226 215
217 231 234
219 233 242
223 237 254
222 235 252
222 236 252
223 236 253
222 236 253
222 236 253
222 236 253
222 236 253
221 235 252
221 235 249
220 234 249
222 236 254
221 235 252
221 235 250
219 233 245
221 235 250
222 236 253
222 236 255
222 235 249
221 235 250
222 236 253
222 236 252
222 235 250
222 236 252
222 236 254
220 234 245
217 232 236
212 227 221
206 223 204
194 213 155
192 212 147
183 205 111
184 206 114
185 206 117
185 206 114
185 205 105
190 210 135
186 207 117
187 207 122
185 205 111
185 206 122
185 205 114
179 201 92
179 201 72
174 196 0
173 196 0
171 195 0
173 196 0
172 194 0
170 195 0
173 196 0
165 189 0
169 192 0
168 191 0
169 192 0
170 193 0
168 191 0
171 194 0
171 194 0
172 194 0
168 191 0
167 190 0
165 188 0
168 192 0
171 193 0
167 189 0
167 190 0
164 187 0
169 194 0
164 187 0
166 188 0
162 186 0
168 191 0
167 189 0
163 186 0
167 190 0
166 188 0
169 192 0
137 161 94
60 96 139
62 98 159
61 97 155
61 97 157
62 98 157
61 97 159
62 97 161
61 97 160
62 97 163
62 98 162
61 97 158
60 96 156
62 98 166
61 97 159
62 98 169
61 97 161
62 98 165
62 99 167
62 98 164
62 98 164
62 98 167
62 99 166
61 98 164
61 97 163
62 98 165
61 98 168
62 99 171
62 98 172
61 97 159
62 98 168
62 99 165
60 96 164
61 98 169
62 98 169
62 99 170
61 97 162
62 99 167
62 98 169
62 98 174
62 99 171
61 98 171
61 98 168
61 98 166
61 98 174
61 98 169
62 98 164
62 99 171
62 98 161
62 99 172
62 99 170
62 98 170
62 98 168
62 98 168
62 98 172
62 99 174
62 98 169
62 99 168
61 98 167
62 99 171
61 98 168
62 98 168
62 99 171
63 99 171
62 99 173
62 99 172
63 99 177
62 99 172
62 98 169
62 98 169
62 98 172
62 99 174
62 98 170
62 99 173
62 98 169
62 98 170
62 99 170
62 99 172
62 99 174
62 98 167
62 98 170
62 99 174
62 98 164
62 98 170
62 99 173
62 99 175
63 100 172
62 99 175
62 98 171
62 99 171
62 99 172
63 99 172
63 100 175
63 99 168
62 99 174
62 99 171
62 99 173
62 98 169
62 99 171
62 99 173
62 98 170
63 99 168
62 98 165
62 98 168
62 99 170
62 98 168
62 98 168
61 98 174
62 99 170
62 98 173
62 98 164
62 99 173
62 99 175
63 99 169
61 97 166
62 99 173
62 98 165
62 98 169
62 99 173
61 98 169
62 98 171
63 99 178
62 99 172
62 99 170
62 98 172
63 99 171
63 99 171
62 99 172
63 99 174
62 99 170
62 98 169
62 99 166
62 99 174
62 99 174
62 98 165
62 99 172
62 99 170
62 99 175
62 99 172
62 98 168
62 99 169
62 98 165
62 99 170
61 97 165
63 99 172
62 98 170
62 98 167
61 98 165
63 99 173
62 98 166
63 99 170
62 98 164
61 97 161
62 98 165
62 98 166
61 98 163
62 98 162
61 97 156
62 98 166
62 98 160
62 98 166
63 99 165
62 98 163
62 98 162
61 97 159
63 99 162
61 97 157
61 97 160
61 97 160
62 98 158
61 97 158
63 99 164
62 98 164
62 98 164
62 98 163
62 98 161
62 98 159
62 97 161
61 97 152
61 97 156
62 97 154
61 96 145
61 96 146
62 96 157
89 97 83
109 106 0
107 105 0
101 101 0
108 108 0
122 120 0
122 121 0
117 114 0
114 114 0
123 121 0
127 125 0
133 131 0
125 124 0
121 120 0
130 128 0
131 130 0
133 132 0
141 139 0
137 135 0
131 130 0
130 130 0
138 135 0
135 132 0
132 131 0
135 133 0
142 140 0
144 141 0
138 137 0
144 141 0
140 139 0
146 142 0
140 137 0
138 137 0
137 136 0
145 141 0
146 143 0
144 142 0
144 140 0
145 142 0
149 146 0
144 142 0
147 145 0
144 142 0
143 141 0
146 142 0
148 144 0
146 144 0
144 141 0
151 147 0
149 146 0
144 139 0
145 142 0
148 144 0
145 142 0
151 148 0
148 144 0
143 140 0
144 140 0
148 144 0
150 146 0
150 146 0
151 147 0
146 143 0
148 143 0
151 146 0
149 144 0
146 141 0
150 144 0
149 142 0
151 146 0
149 144 0
150 145 0
150 145 0
153 147 0
144 138 0
147 141 0
153 146 0
151 145 0
152 144 0
150 144 0
151 144 0
149 142 0
167 179 0
170 186 0
168 186 0
164 179 0
167 183 0
169 186 0
169 183 0
169 185 0
169 187 0
168 186 0
169 186 0
170 188 0
171 189 0
168 186 0
168 185 0
169 186 0
170 189 0
171 187 0
170 189 0
168 188 0
171 191 0
169 188 0
168 186 0
172 189 0
169 188 0
170 189 0
169 189 0
171 194 0
174 197 0
172 196 0
173 196 0
172 196 0
173 197 0
174 197 0
176 199 44
183 204 92
187 208 122
190 209 144
189 209 133
189 209 135
190 210 137
190 210 137
184 205 108
182 204 102
189 209 137
191 211 147
198 216 177
210 226 217
214 229 226
220 234 245
222 236 253
223 236 254
222 236 253
222 236 254
220 235 250
222 235 253
221 236 254
220 235 250
218 233 246
221 236 255
219 234 252
221 235 253
218 233 248
219 234 250
219 234 249
219 234 250
219 234 250
219 234 252
218 233 249
218 233 249
220 235 254
220 234 253
220 234 252
219 233 248
220 235 253
220 235 252
219 234 250
221 236 255
221 235 253
219 233 246
220 234 250
221 235 252
220 235 250
222 236 254
221 235 249
221 235 250
221 235 249
222 235 250
220 234 244
208 224 206
201 219 186
191 211 147
184 205 108
182 204 105
182 204 99
183 205 105
188 209 133
183 204 102
188 208 135
188 207 125
186 207 122
180 202 80
176 198 44
172 195 0
172 195 0
173 196 0
175 198 0
172 195 0
169 192 0
173 196 0
167 190 0
170 194 0
163 186 0
164 187 0
171 193 0
165 187 0
168 192 0
168 191 0
168 191 0
167 190 0
162 185 0
165 189 0
162 185 0
169 192 0
167 190 0
168 191 0
167 190 0
164 186 0
168 190 0
169 193 0
164 187 0
168 190 0
166 189 0
168 191 0
122 147 108
61 97 154
61 96 151
61 97 157
61 97 155
62 98 163
61 98 161
60 96 150
62 98 160
62 97 156
62 98 169
61 97 155
62 98 162
61 97 157
62 98 164
62 98 162
60 96 152
61 97 162
61 98 167
62 98 164
62 98 166
61 97 161
61 98 163
61 98 166
62 98 169
61 97 162
62 98 170
62 98 166
61 98 169
62 98 171
62 98 165
62 98 168
62 98 163
62 99 168
63 100 174
62 99 170
62 98 167
62 98 164
62 98 169
62 99 169
62 98 172
62 98 167
62 98 171
61 97 165
62 98 161
62 98 171
62 99 169
62 99 173
61 98 164
62 99 173
62 98 162
62 98 170
62 98 166
62 99 176
61 98 170
62 99 174
62 99 173
62 98 175
62 98 166
62 98 169
61 98 168
62 99 172
63 99 171
62 98 164
62 99 169
62 99 173
62 99 173
62 98 170
62 99 171
62 99 172
62 99 170
63 99 173
61 98 169
62 99 175
62 99 169
61 98 169
61 98 170
62 98 167
62 99 175
62 99 173
63 99 169
61 98 170
62 98 171
61 98 170
62 98 173
62 99 167
62 99 172
62 98 170
62 99 174
62 99 174
61 98 168
62 99 171
62 99 174
62 99 171
62 99 169
63 99 170
62 99 171
62 98 167
61 98 170
62 98 169
63 99 172
61 98 169
62 99 171
63 99 174
61 98 162
62 98 168
62 99 171
62 99 171
63 99 169
62 99 167
62 98 164
62 98 163
63 99 168
62 98 169
62 99 174
63 99 174
61 97 166
62 98 165
62 98 167
62 99 169
62 99 173
62 99 171
62 99 172
61 98 163
62 98 168
62 99 174
62 99 169
62 98 165
62 98 168
62 99 168
62 99 172
62 98 170
63 99 168
62 99 167
63 99 171
62 98 165
61 98 167
62 99 170
62 99 169
62 99 167
62 98 167
63 99 168
63 99 171
62 99 173
63 99 170
62 99 169
63 99 170
62 98 164
61 98 161
63 99 163
62 98 167
62 98 161
61 97 159
62 98 159
62 99 168
63 99 170
62 99 168
62 99 166
63 99 166
62 98 161
63 99 167
61 97 160
62 98 166
63 99 169
63 99 168
62 99 168
61 98 160
62 98 160
62 98 156
61 97 152
62 98 160
62 98 162
61 97 158
62 98 163
62 98 158
62 97 157
61 97 158
62 98 160
61 97 158
62 97 156
61 97 155
61 97 156
60 95 144
61 95 154
84 98 111
97 95 0
110 107 0
115 113 0
113 110 0
107 106 0
115 114 0
116 115 0
112 110 0
125 123 0
119 116 0
122 121 0
128 126 0
135 133 0
132 130 0
129 128 0
126 124 0
130 127 0
130 129 0
133 131 0
135 132 0
140 136 0
141 136 0
139 136 0
140 137 0
136 133 0
138 136 0
139 137 0
144 143 0
140 137 0
144 141 0
141 138 0
144 141 0
144 141 0
141 138 0
139 137 0
147 143 0
143 139 0
146 142 0
148 145 0
142 138 0
144 140 0
144 139 0
145 142 0
144 141 0
149 147 0
147 143 0
144 141 0
149 146 0
146 143 0
148 144 0
145 139 0
148 143 0
148 143 0
147 143 0
146 143 0
148 144 0
151 146 0
149 145 0
143 140 0
148 144 0
149 144 0
149 144 0
151 146 0
150 145 0
147 141 0
151 146 0
149 144 0
149 142 0
147 142 0
150 144 0
151 145 0
147 141 0
147 142 0
150 144 0
148 141 0
151 145 0
150 145 0
151 147 0
149 141 0
151 144 0
169 181 0
168 183 0
167 181 0
169 188 0
170 185 0
170 187 0
170 187 0
170 186 0
168 186 0
170 185 0
165 184 0
170 186 0
172 188 0
168 185 0
171 190 0
170 185 0
167 182 0
169 188 0
168 184 0
170 188 0
171 190 0
170 187 0
171 190 0
169 188 0
170 189 0
169 190 0
169 187 0
170 191 0
174 197 0
172 195 0
174 198 0
172 196 0
176 199 51
183 204 105
187 207 122
188 208 125
188 208 135
189 209 133
188 208 130
187 208 128
188 208 128
190 210 140
194 214 161
203 220 188
216 231 231
221 235 248
222 236 252
221 235 250
221 235 250
220 234 249
220 235 250
220 234 250
219 234 250
218 233 245
220 234 253
219 234 252
218 233 248
219 234 250
217 232 246
219 234 253
219 234 253
218 233 250
218 234 253
216 232 245
218 233 252
219 234 254
218 234 253
218 234 253
218 234 253
218 233 252
218 233 252
219 234 254
218 233 252
218 234 253
219 234 253
218 233 252
217 233 250
218 233 249
219 234 252
218 233 249
219 234 252
220 234 253
220 234 252
220 235 253
218 233 248
221 235 252
220 235 253
220 234 249
221 235 252
221 235 250
221 235 250
221 235 249
221 235 249
219 233 238
214 229 226
201 218 179
190 210 137
183 204 105
184 206 111
183 205 99
189 210 140
187 208 128
186 207 122
188 207 128
182 204 108
183 204 102
175 198 51
174 196 0
171 195 0
173 196 0
173 196 0
169 192 0
169 191 0
168 191 0
168 191 0
167 190 0
167 190 0
171 193 0
163 186 0
168 192 0
168 192 0
165 187 0
167 190 0
170 193 0
164 187 0
172 195 0
171 193 0
164 186 0
167 190 0
170 194 0
168 191 0
169 192 0
166 187 0
165 186 0
163 186 0
105 132 117
61 96 151
62 98 156
62 98 158
62 98 158
61 96 159
60 96 148
60 96 151
61 97 159
61 97 156
62 98 167
62 98 161
61 97 161
61 97 165
61 97 159
62 98 165
62 98 163
61 97 160
62 99 169
62 98 165
61 98 164
62 98 166
61 98 164
63 99 166
61 98 164
62 99 173
61 98 164
61 98 160
62 98 168
61 98 171
62 98 167
62 99 174
62 99 171
62 98 163
62 98 167
61 98 166
62 99 170
62 98 171
62 99 168
62 98 169
61 97 165
62 98 168
62 98 168
62 99 172
61 98 167
62 98 167
62 98 167
61 98 164
62 98 170
63 99 171
61 98 169
62 99 170
61 98 166
62 98 166
62 98 168
62 99 174
62 98 166
62 98 167
63 99 174
62 99 167
62 98 172
62 98 172
62 98 168
62 98 167
62 99 170
61 97 165
61 98 167
62 99 169
62 99 170
63 99 172
63 99 174
62 98 169
61 97 162
62 99 172
63 99 171
63 99 174
61 98 171
62 99 172
62 99 169
62 98 168
62 98 172
62 99 171
63 99 167
62 99 170
63 99 171
62 98 171
62 99 171
62 98 169
63 100 176
62 98 166
62 99 170
61 98 168
62 99 169
62 98 167
62 99 173
63 99 174
62 99 169
63 99 172
62 98 171
62 98 165
62 99 166
63 99 170
62 98 169
63 99 174
62 99 167
62 99 173
62 99 174
62 98 170
62 99 172
62 98 163
62 98 170
62 99 174
62 99 170
61 97 163
62 99 170
62 98 165
63 100 173
62 99 170
61 98 167
62 99 171
62 98 170
62 99 172
62 99 170
62 98 168
62 99 171
63 99 169
62 98 164
62 98 168
62 99 168
62 99 170
62 98 170
62 99 169
62 99 171
63 100 172
62 98 172
63 99 173
62 99 172
62 98 167
62 99 173
62 99 169
62 98 166
62 98 166
63 99 168
62 98 171
61 98 163
62 98 167
62 98 166
62 98 169
62 98 163
62 99 171
62 99 167
62 98 164
62 98 162
63 100 175
62 99 165
61 98 163
62 99 165
61 97 163
62 98 162
61 97 157
62 98 167
63 99 165
62 98 159
63 99 165
63 99 165
62 98 160
62 98 158
62 98 162
62 98 167
61 97 159
61 97 157
61 97 158
62 97 155
62 98 166
63 99 166
61 97 154
61 97 155
61 97 155
62 97 154
62 98 159
62 98 157
60 93 144
60 95 148
60 95 147
84 100 119
111 109 0
104 103 0
113 112 0
119 116 0
111 109 0
120 118 0
123 121 0
113 111 0
117 114 0
130 127 0
119 118 0
119 118 0
128 126 0
118 116 0
131 128 0
133 131 0
127 126 0
135 133 0
137 134 0
133 131 0
130 128 0
140 137 0
137 135 0
137 135 0
133 130 0
141 138 0
137 135 0
147 143 0
145 142 0
145 141 0
145 141 0
140 137 0
143 141 0
148 145 0
143 140 0
145 141 0
143 140 0
137 134 0
150 147 0
143 140 0
146 142 0
142 139 0
148 145 0
146 142 0
143 141 0
143 139 0
142 139 0
149 144 0
148 144 0
146 143 0
151 147 0
146 142 0
147 143 0
142 139 0
143 139 0
148 144 0
147 143 0
148 145 0
148 143 0
149 143 0
147 142 0
149 143 0
148 144 0
149 144 0
147 142 0
148 142 0
151 146 0
147 140 0
150 144 0
149 143 0
150 145 0
153 147 0
148 142 0
148 141 0
148 141 0
149 141 0
150 143 0
151 143 0
149 144 0
163 174 0
170 186 0
164 177 0
169 182 0
164 178 0
165 179 0
169 186 0
170 188 0
168 185 0
171 189 0
169 187 0
169 185 0
169 186 0
169 188 0
170 189 0
171 191 0
169 187 0
167 183 0
169 188 0
171 188 0
169 187 0
169 188 0
167 185 0
171 190 0
171 192 0
167 186 0
167 183 0
169 189 0
171 191 0
174 197 0
172 196 0
182 204 95
185 206 108
195 214 159
193 212 159
185 206 114
186 207 130
187 207 120
182 204 99
187 207 122
201 218 177
214 229 224
222 235 250
223 236 253
222 236 252
222 236 252
221 235 250
219 233 246
220 234 252
219 234 249
220 235 253
218 233 249
219 234 250
219 234 253
218 233 250
217 233 250
219 234 255
218 234 253
218 233 253
218 234 255
218 234 254
218 234 255
218 234 255
218 233 254
218 234 255
218 233 254
218 234 255
218 234 255
218 234 255
217 233 254
218 234 255
218 234 255
218 234 255
218 234 255
218 234 255
217 233 254
218 233 254
219 234 255
218 234 255
218 234 255
218 234 255
218 234 253
217 233 250
219 234 254
218 233 252
218 234 253
218 234 250
219 234 253
217 232 246
218 233 249
221 235 255
220 234 252
221 235 253
220 234 248
222 236 254
221 235 250
222 236 253
222 235 250
217 231 234
208 224 207
197 216 171
187 208 125
183 204 84
181 204 102
188 208 128
187 207 125
187 208 125
188 208 122
187 207 125
180 202 84
172 196 0
173 196 0
170 194 0
168 191 0
172 196 0
170 193 0
170 193 0
168 192 0
168 191 0
166 189 0
168 190 0
166 189 0
166 188 0
166 189 0
164 187 0
168 191 0
168 191 0
168 191 0
171 194 0
167 190 0
167 190 0
166 189 0
168 191 0
167 190 0
167 189 0
168 189 0
104 131 130
60 95 137
62 97 155
61 97 159
62 97 155
60 95 150
60 96 150
62 99 166
62 98 160
61 97 158
61 97 157
61 98 163
62 98 161
62 98 164
61 97 167
61 97 168
62 98 160
61 98 161
61 97 156
62 98 164
62 98 162
61 97 161
61 97 162
61 97 155
61 97 160
61 97 162
62 99 170
61 97 161
62 97 155
61 98 167
62 98 167
62 99 167
62 98 166
63 99 168
62 99 172
62 98 167
62 98 169
62 98 165
62 98 170
62 99 167
61 97 167
61 97 165
61 98 168
62 99 171
62 99 171
61 98 170
61 98 164
61 97 163
62 98 168
62 98 165
62 98 167
62 98 167
62 99 171
62 99 174
62 98 166
62 98 170
61 98 167
62 99 171
62 99 171
61 97 168
62 99 171
62 99 173
61 98 167
61 98 167
63 99 174
62 99 172
61 97 164
63 99 170
62 98 165
62 98 172
63 99 172
62 98 171
61 97 162
63 99 171
62 99 171
63 99 169
62 99 170
62 99 174
62 98 171
61 98 167
62 98 166
62 98 168
62 98 168
62 99 170
62 99 170
62 99 170
62 99 172
62 98 168
62 99 169
62 99 167
63 99 172
62 99 174
62 98 171
62 99 173
63 100 174
62 99 170
61 98 170
62 98 167
62 99 173
62 99 168
62 99 170
63 99 173
63 100 175
62 99 169
63 99 170
62 99 170
63 99 171
62 98 169
63 99 169
62 99 169
61 98 166
63 99 174
62 99 173
62 99 170
62 99 169
62 98 168
62 98 166
62 98 163
62 98 164
63 99 171
62 99 172
62 98 170
61 98 163
61 98 164
62 98 168
62 98 162
62 99 174
62 98 164
63 99 171
62 99 173
63 99 168
62 99 170
62 99 171
61 98 165
62 99 174
61 98 164
62 98 163
62 98 168
62 98 164
62 99 172
63 99 172
62 98 168
63 99 166
62 98 165
62 99 169
62 98 161
62 98 162
62 98 161
63 99 168
62 98 167
62 99 169
62 99 169
63 100 170
62 98 163
62 99 166
62 98 167
62 98 170
62 98 157
62 98 165
61 98 159
62 98 164
62 99 165
62 98 161
63 99 167
62 98 166
62 98 161
62 98 160
61 98 161
62 98 160
62 98 160
62 98 165
62 98 162
61 97 152
62 98 163
62 98 163
62 97 157
62 98 153
61 97 155
60 96 155
62 97 155
61 97 157
61 97 154
62 97 153
61 96 150
78 99 122
108 105 0
117 113 0
110 108 0
112 111 0
114 111 0
114 112 0
110 109 0
111 109 0
123 122 0
121 119 0
129 126 0
122 119 0
130 128 0
130 126 0
122 119 0
135 134 0
137 132 0
131 128 0
124 122 0
129 127 0
137 134 0
141 137 0
142 140 0
138 135 0
137 133 0
140 138 0
143 137 0
137 134 0
139 136 0
140 137 0
137 134 0
142 138 0
138 135 0
140 138 0
145 140 0
146 142 0
143 139 0
138 135 0
140 137 0
148 145 0
149 144 0
142 140 0
144 138 0
144 140 0
145 141 0
147 144 0
149 145 0
142 138 0
147 144 0
148 143 0
147 142 0
144 141 0
146 142 0
145 141 0
145 140 0
146 141 0
147 142 0
149 143 0
150 145 0
144 141 0
146 141 0
148 143 0
146 139 0
149 144 0
149 144 0
147 141 0
150 144 0
147 141 0
147 142 0
149 142 0
151 144 0
150 145 0
148 142 0
150 143 0
149 142 0
148 140 0
148 141 0
151 144 0
162 170 0
170 185 0
167 180 0
168 183 0
169 183 0
168 185 0
169 183 0
169 185 0
169 185 0
168 182 0
170 187 0
165 180 0
167 185 0
169 186 0
171 189 0
170 188 0
169 187 0
167 184 0
172 190 0
169 186 0
169 186 0
169 186 0
170 188 0
171 191 0
170 190 0
168 189 0
171 189 0
170 188 0
171 189 0
170 188 0
182 204 88
192 211 140
193 212 151
190 210 140
185 206 117
190 210 142
185 207 122
187 208 128
200 218 184
214 229 224
221 235 248
223 236 254
221 235 250
220 235 250
219 234 249
220 234 253
219 234 250
218 233 250
218 233 250
219 235 255
218 233 250
217 233 250
219 234 254
218 233 253
218 234 254
218 234 255
218 234 255
217 233 255
217 233 254
217 233 255
217 233 255
216 233 255
217 233 255
217 233 255
216 233 255
215 232 252
215 232 254
214 231 250
212 229 244
213 230 248
212 229 242
211 228 237
213 230 248
213 229 244
213 230 244
211 228 241
213 230 248
216 232 253
213 230 248
216 233 255
217 233 254
217 233 255
217 233 255
218 233 255
218 234 255
218 234 255
218 234 255
219 234 255
219 234 255
219 234 255
219 235 255
218 233 250
219 234 254
218 233 250
218 233 248
219 234 252
219 234 249
220 234 250
221 235 252
220 234 246
222 236 252
221 235 250
220 234 244
210 226 214
196 214 163
187 208 128
184 205 111
186 207 122
188 208 128
184 204 102
186 207 122
186 207 120
181 202 84
174 198 44
173 197 0
171 195 0
174 197 0
170 194 0
170 193 0
172 194 0
169 192 0
166 189 0
163 187 0
168 191 0
166 190 0
163 187 0
161 185 0
167 190 0
168 190 0
168 190 0
168 191 0
163 186 0
163 186 0
166 189 0
165 189 0
161 184 0
160 182 0
78 110 147
60 96 147
61 97 160
60 95 147
62 98 158
61 96 151
61 97 157
61 97 156
61 96 150
61 97 156
62 98 160
61 97 163
62 98 163
61 97 156
61 97 156
62 98 170
61 97 165
62 98 166
62 99 167
61 98 164
61 97 164
62 98 169
62 98 163
62 98 170
62 98 169
62 98 165
62 98 164
61 97 159
61 97 163
61 97 167
62 98 165
61 98 164
61 97 159
62 99 165
61 97 163
63 99 172
62 98 167
63 99 172
61 97 162
62 99 170
62 99 171
62 99 171
61 97 166
62 99 173
63 99 170
61 98 167
62 98 165
62 99 170
62 98 167
62 98 168
61 98 169
62 99 170
61 97 163
61 97 166
62 99 172
62 98 165
61 98 170
61 97 158
61 98 170
63 99 169
62 99 167
62 98 171
61 98 172
62 98 169
62 98 166
62 99 176
61 98 168
62 98 167
62 99 173
62 98 169
62 98 170
62 98 167
62 99 171
62 99 171
62 98 168
61 97 161
62 99 170
62 98 165
63 99 175
62 98 165
62 99 169
61 98 166
61 98 170
62 99 170
62 98 165
62 99 174
62 98 170
62 99 175
62 98 170
63 99 172
63 99 170
63 99 175
63 99 172
62 98 168
62 99 167
63 99 173
63 99 169
63 99 173
62 98 162
62 99 170
62 99 171
62 99 169
62 98 168
62 98 166
63 99 170
62 99 165
61 98 167
62 98 164
62 99 169
62 98 169
63 100 171
62 99 169
62 98 161
63 99 170
61 98 166
62 99 170
63 99 171
62 98 168
62 99 170
63 99 171
62 98 164
62 99 173
62 99 172
62 98 164
62 98 166
62 98 172
63 99 173
61 98 171
63 99 170
62 99 173
62 99 168
63 99 172
62 98 168
61 98 162
62 99 171
62 99 168
63 99 173
62 99 168
62 98 164
61 97 162
62 99 170
62 98 167
62 98 169
62 99 167
63 99 167
62 98 167
63 99 167
62 99 170
62 98 163
62 98 158
62 98 168
62 99 168
62 98 166
62 98 166
62 99 165
62 98 163
62 98 164
62 98 163
62 98 161
61 98 162
62 98 165
61 98 163
63 99 168
62 98 161
61 97 158
61 97 160
62 98 160
62 98 162
62 98 163
61 97 158
62 98 160
61 97 154
62 98 161
62 97 153
62 98 158
61 97 156
62 98 162
61 97 159
62 97 150
62 98 159
61 97 156
60 95 149
62 98 159
61 96 151
74 97 127
116 112 0
107 105 0
113 110 0
111 109 0
111 110 0
117 115 0
115 113 0
116 115 0
111 109 0
119 117 0
119 117 0
122 119 0
116 115 0
118 117 0
129 125 0
130 128 0
130 128 0
136 132 0
134 131 0
130 128 0
126 124 0
140 136 0
122 121 0
135 132 0
140 135 0
136 133 0
137 134 0
141 138 0
144 139 0
145 141 0
138 134 0
144 139 0
139 137 0
144 140 0
143 139 0
137 134 0
139 137 0
144 141 0
144 140 0
140 137 0
144 138 0
150 145 0
146 143 0
144 139 0
142 139 0
142 138 0
142 139 0
144 141 0
140 136 0
146 142 0
143 138 0
147 142 0
151 146 0
151 147 0
148 144 0
150 146 0
141 136 0
145 140 0
149 144 0
147 141 0
146 142 0
149 144 0
148 142 0
146 141 0
143 138 0
145 140 0
150 144 0
149 144 0
151 144 0
150 144 0
151 146 0
146 140 0
145 138 0
148 141 0
149 141 0
149 140 0
149 142 0
159 166 0
166 181 0
163 177 0
166 180 0
166 179 0
169 186 0
169 187 0
167 181 0
168 184 0
167 182 0
168 184 0
164 178 0
168 185 0
167 183 0
168 182 0
169 187 0
167 184 0
168 185 0
167 183 0
165 181 0
171 189 0
168 186 0
169 186 0
170 188 0
171 189 0
169 189 0
172 191 0
166 184 0
170 189 0
171 190 0
172 193 0
190 210 137
191 211 137
185 206 120
186 207 125
186 207 125
196 215 161
215 230 227
222 236 250
223 236 253
221 235 252
221 235 252
220 234 250
219 234 250
220 235 253
218 234 250
219 234 253
217 233 249
218 234 253
218 234 255
218 233 253
218 234 255
217 233 255
217 233 255
217 233 255
217 233 255
216 233 255
216 233 255
215 231 253
212 229 245
208 225 224
207 224 220
201 220 206
200 218 201
201 220 196
204 221 211
196 215 184
197 216 177
200 217 189
194 212 173
199 217 186
199 217 184
197 216 179
195 214 181
195 213 179
196 214 177
197 215 181
197 215 189
196 214 179
198 215 184
196 214 179
198 217 184
195 214 177
201 219 201
205 222 212
203 221 204
206 224 221
209 227 228
212 228 244
215 232 249
218 233 255
217 233 254
218 234 255
219 234 255
218 234 253
218 234 253
219 234 253
219 234 252
220 235 254
220 235 253
219 234 252
220 235 252
221 236 254
222 236 253
222 236 253
223 236 253
217 231 234
205 222 194
193 212 149
186 207 122
184 205 111
182 203 102
184 206 111
191 210 142
186 206 117
181 202 102
175 198 36
174 197 0
174 197 0
173 196 0
173 197 0
171 195 0
169 193 0
168 190 0
171 194 0
165 187 0
168 190 0
166 190 0
160 182 0
169 191 0
165 187 0
163 186 0
162 184 0
168 191 0
166 190 0
165 188 0
164 186 0
164 185 0
78 109 147
60 96 142
60 96 151
61 97 151
61 97 155
62 98 162
61 97 156
61 97 161
62 98 159
62 98 160
61 97 158
61 97 155
62 98 165
61 97 161
61 97 165
62 98 159
61 96 159
62 98 163
61 96 161
62 98 161
61 96 155
62 98 166
61 97 164
61 97 158
61 97 157
61 97 163
61 98 166
62 98 164
62 98 163
61 97 159
61 98 167
62 98 164
62 98 164
62 98 164
62 98 168
62 98 168
61 98 165
61 98 163
61 97 160
62 99 169
61 98 170
62 98 166
62 98 166
61 98 171
62 99 170
62 98 165
62 99 173
62 98 168
61 98 170
62 99 174
62 98 164
62 98 168
61 98 164
63 99 172
62 99 174
62 99 169
62 99 169
62 98 165
61 98 166
62 99 171
62 98 163
61 98 165
62 99 172
62 98 166
61 98 166
62 99 175
62 99 175
62 98 170
62 99 172
62 99 169
62 99 174
62 98 170
62 99 170
61 97 156
63 99 170
62 98 166
62 99 172
61 98 169
62 99 173
62 98 168
62 98 164
63 99 163
62 98 163
62 99 171
62 98 167
62 99 171
62 98 169
62 99 172
63 99 171
62 98 167
61 98 169
62 99 171
62 98 169
63 99 171
63 99 170
62 98 170
63 99 170
62 99 171
63 99 173
62 99 173
62 99 167
63 99 172
62 98 167
62 98 167
62 98 165
62 98 166
62 98 167
62 99 168
62 98 168
61 97 162
62 99 170
63 99 171
63 99 173
62 98 163
62 98 169
61 98 167
61 98 162
62 98 166
63 99 169
63 99 166
62 99 168
62 98 167
62 98 170
61 98 169
63 99 168
61 98 165
62 98 163
61 98 164
63 99 170
63 99 168
62 99 170
62 98 168
63 99 167
62 98 165
63 99 169
62 99 168
62 99 170
62 98 162
62 98 164
63 99 169
62 99 167
62 98 163
63 100 171
62 98 167
62 99 171
62 99 166
63 99 161
62 99 169
63 99 172
62 99 172
62 98 161
62 99 165
62 98 165
62 98 161
62 98 163
62 98 162
62 99 164
62 99 171
62 98 164
63 99 165
61 98 162
62 98 163
62 98 158
62 98 159
61 97 159
62 98 161
62 98 163
63 99 162
62 97 156
61 97 156
62 98 159
62 98 162
61 96 152
63 98 159
62 99 167
62 98 160
62 98 159
61 97 154
62 98 163
62 97 162
61 96 149
61 96 146
61 95 143
61 95 148
67 97 142
117 112 0
109 107 0
124 120 0
113 110 0
111 109 0
118 115 0
119 116 0
115 113 0
128 124 0
130 127 0
126 125 0
129 125 0
120 118 0
123 120 0
121 120 0
127 123 0
121 118 0
128 125 0
127 124 0
132 130 0
137 134 0
129 124 0
133 130 0
135 132 0
131 127 0
142 138 0
137 133 0
141 138 0
136 132 0
140 135 0
142 138 0
141 136 0
142 139 0
141 138 0
144 140 0
144 141 0
140 134 0
144 138 0
142 137 0
142 138 0
140 137 0
144 138 0
145 139 0
140 135 0
146 143 0
141 138 0
144 140 0
146 140 0
143 138 0
145 141 0
145 139 0
146 142 0
143 138 0
147 141 0
148 141 0
142 136 0
149 143 0
149 145 0
149 143 0
148 140 0
146 141 0
151 144 0
148 143 0
146 141 0
149 143 0
149 142 0
146 139 0
149 141 0
151 144 0
148 140 0
150 144 0
149 141 0
148 140 0
148 140 0
148 140 0
149 142 0
164 174 0
163 175 0
166 180 0
169 184 0
163 177 0
168 183 0
167 180 0
169 183 0
165 177 0
167 182 0
170 187 0
171 186 0
168 185 0
166 180 0
169 185 0
167 184 0
169 187 0
168 186 0
169 187 0
166 184 0
167 180 0
169 186 0
167 185 0
168 183 0
169 185 0
169 186 0
168 186 0
170 188 0
169 189 0
171 190 0
169 187 0
166 184 0
184 206 120
181 203 88
191 211 144
207 224 204
221 234 245
222 236 253
221 235 252
222 236 254
220 235 252
220 234 252
220 235 253
219 234 253
219 234 254
218 233 252
218 234 254
218 234 255
218 234 255
217 233 255
218 233 255
217 233 255
216 233 255
215 232 254
212 230 244
209 226 231
209 226 230
201 220 201
197 216 186
195 214 177
200 218 186
196 215 179
197 215 181
194 212 173
199 217 189
199 217 184
198 216 177
190 210 153
191 211 155
185 205 137
188 208 147
184 205 133
181 203 111
183 204 120
183 205 120
180 202 120
177 199 108
181 203 99
179 200 108
188 209 144
183 204 120
186 206 125
186 207 133
188 207 142
187 208 135
190 210 153
192 212 157
191 211 161
194 213 171
197 215 181
194 213 167
198 215 181
197 216 186
200 219 194
208 225 230
213 229 240
218 234 255
218 234 255
218 234 254
219 234 255
219 234 254
218 233 250
218 233 250
220 235 254
220 234 252
221 235 253
221 235 250
220 234 249
222 236 253
222 236 250
216 230 228
202 219 186
186 206 122
190 209 137
182 204 102
186 207 117
184 205 105
186 206 122
178 200 67
175 197 57
172 196 0
172 196 0
172 195 0
170 193 0
173 196 0
171 195 0
168 190 0
167 189 0
165 187 0
167 190 0
166 190 0
167 189 0
168 190 0
168 192 0
166 189 0
166 189 0
161 183 0
161 184 0
163 186 0
61 97 155
61 96 143
62 98 157
61 97 151
61 96 150
62 98 156
61 97 148
61 97 160
60 96 151
61 97 159
62 98 165
61 97 159
61 96 150
59 95 151
60 96 161
60 96 153
61 96 151
62 98 165
61 97 160
61 97 157
62 98 167
61 97 160
62 98 162
62 98 166
61 96 154
62 98 169
61 98 166
61 98 164
62 98 168
61 98 170
62 98 164
61 98 166
61 98 171
61 98 168
62 98 161
62 98 165
62 98 163
61 98 166
62 98 171
61 98 165
61 97 163
62 99 167
62 98 166
62 98 168
62 98 167
62 98 167
61 98 164
63 99 171
61 97 165
63 99 174
61 98 165
62 98 167
62 98 166
62 98 169
63 99 170
62 99 173
62 99 169
61 98 171
62 99 172
62 99 171
62 98 173
62 99 171
63 100 175
61 98 167
61 98 166
62 98 168
62 99 168
61 98 166
63 99 176
62 99 174
62 99 173
62 98 168
62 98 167
62 98 168
62 99 170
62 99 172
62 98 169
61 98 169
62 99 173
62 99 176
62 99 171
62 99 174
62 99 170
61 98 164
62 99 168
63 99 172
62 99 170
63 99 174
62 98 165
62 99 177
61 98 164
62 98 169
62 99 169
62 98 172
61 98 170
61 98 167
61 98 163
61 98 163
62 99 174
61 98 170
63 99 173
61 98 167
61 98 165
62 99 168
62 99 175
62 99 169
62 99 169
61 98 168
62 99 172
62 98 170
62 98 167
62 99 172
63 99 166
61 98 167
63 99 171
62 98 165
63 99 169
63 99 174
61 98 166
62 98 162
62 99 171
62 98 168
62 99 172
62 98 169
62 98 170
62 98 162
63 99 166
62 98 164
62 98 163
62 98 171
62 98 163
62 98 164
63 99 165
62 98 166
62 98 168
63 99 168
62 98 165
61 98 164
63 99 169
62 98 165
62 98 163
61 97 158
62 98 165
62 99 167
62 98 169
62 98 163
62 98 164
63 99 166
63 99 164
62 99 168
62 99 168
61 98 164
62 98 157
61 97 158
62 98 169
62 98 159
62 99 163
61 97 157
62 98 161
62 98 162
62 99 162
62 98 159
62 97 159
63 99 166
62 98 161
62 97 155
61 97 155
61 96 151
62 98 160
62 97 154
62 97 154
62 97 152
63 99 165
63 99 165
63 99 159
61 96 159
62 97 151
62 97 163
61 96 151
60 96 146
61 96 154
62 98 157
61 96 148
61 96 151
60 94 142
109 108 31
116 113 0
114 112 0
109 106 0
115 112 0
118 115 0
117 113 0
129 125 0
119 115 0
122 119 0
127 123 0
126 123 0
128 124 0
127 124 0
133 128 0
126 123 0
132 127 0
132 128 0
132 129 0
138 134 0
131 129 0
134 131 0
137 132 0
136 132 0
131 129 0
135 131 0
140 136 0
130 127 0
136 132 0
135 132 0
132 128 0
138 136 0
139 136 0
146 141 0
143 139 0
141 137 0
143 139 0
144 139 0
140 136 0
142 138 0
140 137 0
141 137 0
146 139 0
140 136 0
145 141 0
141 138 0
144 138 0
148 144 0
140 137 0
137 132 0
142 139 0
145 141 0
146 139 0
142 136 0
146 140 0
144 139 0
146 141 0
145 140 0
147 141 0
147 144 0
150 145 0
147 139 0
150 145 0
144 136 0
148 143 0
148 142 0
148 141 0
150 143 0
149 141 0
147 139 0
145 138 0
151 141 0
150 142 0
144 137 0
149 142 0
162 172 0
163 174 0
168 181 0
167 181 0
167 180 0
168 183 0
167 182 0
170 186 0
166 181 0
165 179 0
168 182 0
171 189 0
165 179 0
168 185 0
165 180 0
165 180 0
165 181 0
170 188 0
169 185 0
169 187 0
169 187 0
170 185 0
170 188 0
167 183 0
169 187 0
168 185 0
171 189 0
170 185 0
168 188 0
170 189 0
171 189 0
169 188 0
168 187 0
202 219 186
219 233 242
222 236 252
221 235 252
221 235 252
221 235 252
220 234 252
220 235 253
217 233 248
218 233 250
217 233 252
218 234 254
218 234 254
218 234 255
217 233 255
217 233 255
216 233 255
215 232 254
211 228 238
203 221 214
201 219 206
195 213 179
198 217 186
197 216 182
201 219 189
200 217 189
195 214 169
189 209 153
188 208 144
182 203 114
175 198 76
177 200 88
173 196 67
173 196 62
176 198 72
178 201 108
176 199 84
177 200 76
180 203 102
176 199 88
176 199 99
177 200 72
177 200 92
178 201 88
176 199 88
177 201 88
179 201 80
173 197 72
178 201 95
176 199 76
179 202 95
176 198 84
175 198 88
174 196 72
179 202 95
174 196 62
174 197 76
179 201 88
175 197 102
188 209 142
189 209 142
190 211 159
187 207 151
190 210 155
195 214 173
202 220 204
200 218 199
211 227 237
215 231 246
218 234 255
219 234 255
218 233 252
219 234 252
218 233 249
220 234 253
219 234 250
221 235 253
222 236 253
222 235 252
222 236 253
222 235 249
206 223 199
187 208 125
184 205 102
183 205 111
186 207 122
187 208 125
190 210 137
184 205 105
177 200 72
173 197 0
174 196 0
173 197 0
172 195 0
170 194 0
171 193 0
167 190 0
165 189 0
168 191 0
165 189 0
167 190 0
166 189 0
166 188 0
165 187 0
164 186 0
164 187 0
162 185 31
60 96 145
62 97 150
60 96 154
61 97 153
60 95 144
61 97 157
61 96 150
61 97 149
61 96 156
61 97 155
61 98 161
63 99 164
61 97 158
62 98 157
62 98 167
61 97 160
60 96 158
61 98 164
62 98 168
62 98 165
61 97 158
63 99 166
61 97 163
62 98 169
61 98 164
61 97 161
62 98 163
61 97 162
62 98 165
62 98 167
62 98 167
62 98 167
61 97 160
61 98 170
62 98 165
62 98 169
62 98 167
62 98 167
62 98 166
61 97 158
61 97 165
62 98 169
61 97 162
61 98 168
62 98 166
61 98 168
62 98 167
62 99 172
63 99 171
63 99 165
62 99 172
61 98 165
61 98 170
62 99 167
62 98 167
62 99 172
61 98 170
61 98 167
62 98 168
63 99 170
62 98 167
62 98 165
62 99 166
63 99 175
62 98 167
62 99 166
62 98 167
61 98 165
62 98 167
62 99 172
62 98 165
62 98 169
63 99 173
62 98 163
62 98 169
62 99 170
61 98 159
62 99 169
62 99 173
62 99 171
62 99 174
62 98 165
63 99 172
62 99 172
62 99 168
62 98 167
62 98 166
62 99 172
62 98 168
62 99 167
62 99 174
62 98 168
62 99 176
62 99 174
63 99 171
62 99 168
62 98 167
62 99 170
61 98 170
62 98 171
62 98 167
62 99 169
62 99 169
62 99 168
62 99 173
62 99 171
62 99 171
62 98 165
62 99 168
62 99 168
62 99 167
62 99 167
63 99 170
62 98 160
62 98 164
62 99 170
62 98 162
62 98 166
63 99 167
62 99 170
62 98 166
61 98 162
63 99 171
62 98 164
62 98 167
62 98 164
62 98 164
63 99 171
62 99 167
62 99 168
62 98 165
62 99 167
62 99 171
61 98 166
62 99 167
62 98 165
62 98 169
61 97 161
62 98 162
62 98 162
62 98 166
62 98 166
63 99 173
62 98 167
62 98 160
62 98 165
62 98 161
62 98 161
62 98 165
61 98 159
62 98 162
63 99 165
62 98 167
62 98 168
62 98 160
62 98 162
63 100 173
62 98 164
63 99 172
62 98 159
63 99 169
63 99 164
62 98 164
63 99 168
62 98 165
61 97 156
62 98 159
63 99 165
62 98 163
61 97 158
62 99 169
62 98 157
63 99 164
62 97 158
61 98 162
62 97 152
62 97 152
61 96 151
60 95 142
61 96 150
61 96 152
61 95 143
60 94 140
60 95 139
60 95 141
108 104 18
112 109 0
114 110 0
122 118 0
125 121 0
107 103 0
111 107 0
114 111 0
115 112 0
119 115 0
118 116 0
116 112 0
126 124 0
125 122 0
119 117 0
135 133 0
126 123 0
123 120 0
132 128 0
137 132 0
137 133 0
135 132 0
136 131 0
136 131 0
136 133 0
131 128 0
126 124 0
133 129 0
139 134 0
138 136 0
138 135 0
135 130 0
141 137 0
134 131 0
142 139 0
142 137 0
142 139 0
143 139 0
140 137 0
141 136 0
145 140 0
144 139 0
145 140 0
146 141 0
141 136 0
145 138 0
145 141 0
148 145 0
143 138 0
140 136 0
143 137 0
146 140 0
144 140 0
148 142 0
143 137 0
140 135 0
147 140 0
148 141 0
146 138 0
150 142 0
149 143 0
148 142 0
148 139 0
148 143 0
147 140 0
148 141 0
146 136 0
151 143 0
147 140 0
149 141 0
149 143 0
150 142 0
151 143 0
151 144 0
164 175 0
164 176 0
164 177 0
165 178 0
171 184 0
166 179 0
165 179 0
164 178 0
169 184 0
165 178 0
168 185 0
167 181 0
168 183 0
168 184 0
163 178 0
170 187 0
169 187 0
166 182 0
167 182 0
165 183 0
171 189 0
169 186 0
170 187 0
172 189 0
166 182 0
169 187 0
171 189 0
170 189 0
168 184 0
169 188 0
171 191 0
170 187 0
167 184 0
172 192 0
222 236 253
221 235 250
222 236 253
220 234 252
220 235 254
219 234 250
218 234 252
219 234 253
219 234 255
218 234 255
218 233 255
217 233 255
217 233 255
215 231 253
213 230 244
205 223 217
201 219 199
200 218 196
197 216 179
198 216 188
191 210 153
194 213 173
192 212 159
182 203 95
177 200 62
174 197 44
174 198 67
177 200 88
174 197 80
178 202 108
176 200 76
176 200 84
177 200 95
174 198 76
174 197 72
175 198 80
173 197 80
175 198 57
174 198 62
176 199 67
178 201 102
175 197 72
177 200 92
178 201 80
176 199 76
173 196 62
175 198 62
175 199 76
176 199 84
178 201 76
176 199 84
175 199 72
173 197 67
175 198 67
174 197 92
179 202 92
177 200 72
175 197 84
181 203 102
171 194 57
175 198 72
182 203 117
179 201 102
177 199 88
178 201 84
177 200 92
188 209 144
193 212 169
195 213 181
196 214 184
200 218 206
212 229 236
214 230 246
219 234 255
218 234 253
216 232 245
219 234 252
220 235 254
221 235 253
222 236 255
220 234 248
221 235 249
222 235 250
211 227 217
191 210 137
183 204 105
182 204 102
188 208 122
187 207 117
186 207 114
186 206 114
177 200 57
175 198 0
173 196 0
174 196 0
173 195 0
168 190 36
162 185 40
166 189 31
168 191 0
165 188 0
162 186 0
171 194 0
165 189 0
163 187 0
167 190 0
151 174 70
61 96 151
61 96 149
61 96 147
61 97 157
60 96 150
61 97 157
61 97 160
61 97 162
60 96 152
61 97 160
61 98 159
59 95 155
62 98 158
61 97 157
61 97 159
61 97 160
62 98 160
60 96 153
61 97 166
60 96 160
62 98 165
61 98 163
61 97 161
61 98 161
61 98 165
62 98 164
61 97 160
62 98 165
62 98 168
61 97 162
61 98 165
62 99 168
62 99 173
60 96 161
62 98 167
62 98 166
61 97 161
62 99 175
61 97 169
61 97 161
61 98 169
62 98 165
61 97 165
62 98 161
62 99 171
62 99 171
62 99 170
62 98 169
62 98 166
61 97 165
62 98 170
62 98 168
62 98 166
61 98 167
62 98 169
62 98 167
61 97 164
61 98 167
61 98 166
62 98 168
62 98 168
62 98 171
61 98 166
62 98 166
62 98 166
62 99 172
61 98 164
62 98 167
61 98 168
63 99 170
61 98 170
62 98 162
63 99 169
61 98 169
61 97 166
63 99 173
62 98 168
62 99 171
62 99 168
62 98 169
62 99 173
62 99 175
62 98 170
62 98 167
62 99 173
62 98 165
62 98 165
61 98 164
62 98 165
62 99 169
62 98 167
62 99 169
63 100 173
62 99 174
62 98 171
62 98 163
62 99 173
62 98 167
62 99 167
61 98 167
63 99 171
63 99 174
62 98 166
61 98 167
62 99 173
62 98 166
62 98 164
63 99 167
62 99 168
62 98 165
63 100 174
63 99 171
63 99 172
62 98 165
62 98 165
62 98 164
62 98 160
62 99 171
63 99 171
63 99 169
62 98 162
63 99 171
63 99 175
61 97 164
62 99 169
63 99 172
62 99 167
61 98 169
63 100 174
62 99 165
62 98 163
62 99 170
62 99 167
62 99 171
62 98 165
62 99 171
62 99 171
63 99 170
62 98 162
62 98 167
62 98 165
62 98 164
62 98 169
62 98 168
62 98 164
63 99 171
62 98 162
62 98 162
62 98 159
62 98 159
62 98 162
62 98 159
61 97 158
62 99 167
62 98 160
62 98 162
62 98 164
62 98 159
63 99 169
63 99 171
62 98 162
62 98 159
62 98 163
63 98 163
62 98 160
62 98 165
62 98 162
62 98 160
61 97 157
62 98 163
62 97 159
62 97 160
63 98 162
61 98 161
62 98 158
61 97 156
62 97 152
59 94 143
62 98 160
61 97 155
62 98 168
61 97 156
60 95 144
61 95 144
61 95 147
95 98 65
114 111 0
114 110 0
119 116 0
120 116 0
112 108 0
119 115 0
120 116 0
129 124 0
117 114 0
115 111 0
125 122 0
124 120 0
124 122 0
127 123 0
132 127 0
133 129 0
134 132 0
132 128 0
140 135 0
133 131 0
135 130 0
140 136 0
137 133 0
139 135 0
141 138 0
131 128 0
137 133 0
135 133 0
139 134 0
138 134 0
140 134 0
137 132 0
133 130 0
139 133 0
134 130 0
139 135 0
137 134 0
140 136 0
146 140 0
140 134 0
140 136 0
146 141 0
144 139 0
140 136 0
139 135 0
146 141 0
146 141 0
143 138 0
145 141 0
145 139 0
144 140 0
149 144 0
144 138 0
147 140 0
149 142 0
144 137 0
146 139 0
148 142 0
146 138 0
145 138 0
149 143 0
147 140 0
146 139 0
145 137 0
147 142 0
147 140 0
145 137 0
147 137 0
148 139 0
150 140 0
150 140 0
152 152 0
161 169 0
162 173 0
165 178 0
166 178 0
161 172 0
164 179 0
168 183 0
166 181 0
167 181 0
166 179 0
169 185 0
168 182 0
165 179 0
168 183 0
169 186 0
167 181 0
168 184 0
166 179 0
164 178 0
168 184 0
167 184 0
168 183 0
168 186 0
169 188 0
169 188 0
168 184 0
168 184 0
170 189 0
168 184 0
169 188 0
170 186 0
168 186 0
171 189 0
169 188 0
170 187 0
221 235 252
218 233 249
219 234 250
219 234 253
216 232 245
219 234 255
218 234 255
218 234 255
217 233 255
217 233 255
214 231 249
210 227 230
202 220 206
196 215 181
197 215 182
196 215 173
195 214 169
189 209 151
183 205 125
177 200 99
176 200 88
179 202 84
176 199 84
177 200 88
174 198 80
175 198 84
177 199 76
178 200 88
174 198 72
180 202 105
176 199 88
175 198 67
176 199 72
175 198 72
178 201 88
172 196 62
175 199 76
176 200 76
174 197 80
176 199 67
178 201 88
176 199 80
178 201 92
177 200 84
176 198 80
174 198 76
177 200 88
170 194 67
175 198 76
176 199 80
175 198 72
175 198 80
176 198 95
178 201 92
172 196 80
172 196 67
171 194 57
177 199 80
175 198 84
178 201 95
175 198 62
174 197 76
175 197 72
176 200 92
176 198 67
176 199 67
178 201 72
179 201 95
175 198 88
180 203 92
188 208 137
187 207 142
191 210 161
200 218 194
211 228 230
217 233 250
220 235 255
218 233 250
216 231 242
219 234 252
220 234 252
221 235 252
223 236 255
223 236 254
223 237 253
213 228 220
189 209 130
183 205 111
184 205 108
186 207 117
188 208 133
180 202 92
184 204 108
173 196 36
173 196 0
167 191 25
143 166 90
139 164 107
124 149 110
131 155 94
142 166 82
165 188 44
166 189 0
166 188 0
165 188 0
168 191 0
148 171 60
60 95 145
61 97 148
61 97 151
61 97 154
61 97 158
61 97 156
61 97 155
61 97 155
60 96 154
61 97 156
60 96 154
60 96 156
60 96 150
61 97 161
61 97 160
62 98 163
61 98 162
61 97 158
62 98 163
61 97 157
61 97 157
62 98 168
61 97 166
61 97 166
62 97 158
60 96 155
61 98 169
62 98 166
61 98 164
61 98 165
62 98 165
61 97 163
61 97 162
62 98 167
62 98 167
61 98 163
61 97 160
63 99 172
61 97 164
62 98 166
62 99 173
62 98 161
62 99 168
63 99 173
62 98 167
62 99 174
62 98 163
62 99 171
61 98 167
61 98 168
62 99 172
61 97 159
62 98 168
62 98 169
62 99 175
62 98 165
62 98 166
62 98 162
62 99 174
62 98 168
62 98 162
62 99 173
62 98 169
62 98 164
61 97 162
62 98 167
62 98 164
62 98 165
62 98 167
62 98 168
62 98 164
64 100 175
62 98 166
62 99 170
62 99 166
62 99 171
62 98 168
62 98 169
62 98 167
62 98 164
62 99 172
62 98 165
61 98 167
62 99 171
63 99 169
62 98 162
63 99 171
63 99 169
62 98 167
62 98 167
62 98 165
62 99 171
61 98 162
62 99 170
62 99 167
62 99 172
61 98 166
62 99 171
62 99 169
62 99 171
61 98 165
61 98 165
62 99 172
63 99 175
62 98 165
62 99 170
62 98 167
62 99 172
62 99 170
62 99 170
61 98 168
62 98 166
62 99 169
62 98 165
62 98 162
62 99 172
63 99 171
62 98 165
63 99 170
62 98 165
62 98 169
62 98 168
62 98 161
62 99 167
62 99 173
61 98 165
62 98 171
62 98 165
62 98 167
62 98 166
62 98 166
62 98 165
62 99 169
61 97 156
62 98 162
63 99 170
62 98 163
61 97 159
62 99 166
62 99 165
62 98 169
62 98 162
62 98 162
62 99 168
61 97 162
63 99 168
62 98 167
62 98 157
62 99 167
62 98 160
62 98 161
62 98 162
63 99 165
62 98 161
62 98 161
62 98 159
62 98 166
62 98 163
63 99 174
62 98 159
62 97 156
62 97 156
62 98 159
62 99 166
62 98 157
61 97 160
62 98 164
62 98 156
62 99 164
63 98 163
62 98 163
61 97 151
61 97 153
62 98 159
62 98 158
62 97 155
61 96 145
61 97 152
62 97 157
61 97 156
61 96 155
61 96 156
61 96 145
60 95 139
60 93 135
106 107 68
117 111 0
114 111 0
117 112 0
119 115 0
116 112 0
115 112 0
125 122 0
117 114 0
129 124 0
120 117 0
124 118 0
127 123 0
125 120 0
121 117 0
122 120 0
125 120 0
129 125 0
130 127 0
135 130 0
133 130 0
133 129 0
136 132 0
134 129 0
133 128 0
136 131 0
139 135 0
135 130 0
141 137 0
132 127 0
146 140 0
136 133 0
129 126 0
141 137 0
136 132 0
138 135 0
139 136 0
141 137 0
146 142 0
140 136 0
144 138 0
143 136 0
143 138 0
137 134 0
143 138 0
138 135 0
145 139 0
142 135 0
145 139 0
141 135 0
146 142 0
141 134 0
140 132 0
143 137 0
147 141 0
146 138 0
144 138 0
149 142 0
149 143 0
148 141 0
149 141 0
143 136 0
146 139 0
149 140 0
146 138 0
148 140 0
149 140 0
149 141 0
146 135 0
143 133 0
148 140 0
154 151 0
163 173 0
157 166 0
165 178 0
166 179 0
165 180 0
165 177 0
165 178 0
166 181 0
167 182 0
167 179 0
165 179 0
166 179 0
167 180 0
171 186 0
165 182 0
165 180 0
163 178 0
165 179 0
171 187 0
169 183 0
165 179 0
167 184 0
168 184 0
169 185 0
169 187 0
168 186 0
168 185 0
169 187 0
166 183 0
170 188 0
171 188 0
169 185 0
168 187 0
170 189 0
170 189 0
168 187 0
218 233 248
218 233 250
218 234 253
217 233 253
218 234 255
217 233 255
216 233 254
215 231 250
206 223 226
201 219 196
201 219 196
199 217 184
199 217 186
189 209 151
183 204 135
178 201 102
177 200 84
180 203 99
177 200 76
179 201 102
174 197 76
177 200 95
175 198 84
178 201 88
175 197 72
177 200 92
173 197 76
175 198 62
175 198 62
176 199 84
175 199 84
176 199 76
176 199 84
177 200 88
174 197 99
177 200 62
175 198 72
177 200 76
175 198 76
177 200 67
176 200 88
176 200 88
173 196 88
178 202 105
175 198 76
178 200 84
178 201 108
174 197 67
174 197 72
177 200 105
173 197 92
176 199 92
174 197 67
176 199 88
175 198 76
175 198 80
177 200 88
176 199 76
177 199 88
175 198 57
179 202 102
175 198 95
179 201 92
176 199 80
178 201 92
176 199 95
178 200 95
174 197 72
174 196 80
173 196 72
173 196 84
176 199 84
173 196 80
187 208 130
187 208 144
191 210 153
199 217 194
208 224 224
216 232 248
219 234 254
218 233 248
219 234 250
218 233 248
221 235 253
220 234 249
223 237 255
221 235 249
211 226 214
190 210 137
184 206 117
183 204 102
183 204 105
185 206 111
185 205 120
180 202 80
169 192 54
133 158 110
133 158 105
109 136 130
134 159 114
122 147 115
125 150 111
143 167 80
168 190 0
163 184 0
168 192 0
156 178 54
61 96 149
61 96 153
62 97 153
62 97 155
61 97 150
62 98 164
62 98 156
61 97 159
61 96 155
61 96 151
61 97 156
60 96 155
60 96 160
62 98 161
61 97 157
62 98 158
61 97 157
61 97 157
60 95 154
62 98 160
61 97 158
61 97 158
61 98 163
62 98 166
61 97 163
60 96 160
61 98 169
62 98 169
62 98 167
62 98 166
61 97 164
61 98 163
62 98 169
62 98 170
61 97 165
62 98 165
61 97 160
62 98 169
63 99 171
61 97 162
62 98 161
62 98 166
62 98 165
62 99 171
61 97 163
61 98 168
61 97 166
62 99 172
61 98 164
61 97 164
61 98 161
62 99 169
62 99 169
62 98 169
62 99 172
63 99 170
61 97 163
61 97 162
62 98 167
61 98 165
61 97 162
61 97 163
62 99 169
63 100 176
63 99 172
62 99 169
62 98 170
62 98 167
62 99 171
61 98 167
62 99 168
62 99 166
61 98 169
63 99 171
62 98 168
62 98 163
62 98 170
62 98 169
62 98 168
62 98 162
62 99 170
62 98 168
62 98 169
62 99 170
62 99 170
61 97 166
62 99 173
62 99 172
62 98 165
63 99 167
62 98 165
62 98 168
63 99 167
63 100 174
62 99 169
62 98 167
62 98 167
61 98 165
62 99 170
62 99 170
63 99 174
62 98 163
62 98 166
62 99 168
62 99 171
62 99 168
62 98 163
63 100 170
62 98 160
61 98 161
61 98 162
62 99 169
62 98 163
63 99 169
62 99 166
62 99 167
62 98 165
62 98 161
62 99 172
61 97 156
62 98 167
62 98 165
61 97 163
61 97 160
62 98 164
62 98 165
62 98 160
62 98 165
62 99 168
62 98 163
62 99 168
62 98 164
62 98 166
62 99 167
62 98 163
61 98 163
62 99 169
61 98 161
62 98 165
62 98 164
62 98 168
62 98 168
61 98 162
61 98 158
62 98 160
61 97 158
61 97 160
63 99 164
62 98 159
62 99 168
61 97 161
61 97 154
63 99 165
62 98 164
62 98 158
62 98 159
62 98 162
61 97 158
62 98 161
61 97 150
61 97 161
62 98 161
61 97 158
62 98 160
62 98 161
62 98 158
61 97 154
62 98 163
61 97 155
61 97 157
61 97 156
62 97 153
62 98 162
62 98 162
61 97 153
61 97 154
61 97 152
62 98 160
61 96 150
61 95 144
61 96 150
60 95 146
61 96 146
61 96 145
59 92 129
99 101 68
116 113 0
118 115 0
117 113 0
120 114 0
115 111 0
119 114 0
118 115 0
109 105 0
127 122 0
114 110 0
116 113 0
116 112 0
130 127 0
122 119 0
124 119 0
128 125 0
130 126 0
128 124 0
123 118 0
132 127 0
131 125 0
133 129 0
132 128 0
132 129 0
130 127 0
127 123 0
141 137 0
136 132 0
139 133 0
134 130 0
140 135 0
139 135 0
137 132 0
138 132 0
141 135 0
139 132 0
143 136 0
140 136 0
137 132 0
141 135 0
145 140 0
139 134 0
141 136 0
138 132 0
145 140 0
142 135 0
145 140 0
140 134 0
143 137 0
145 139 0
143 136 0
144 135 0
139 134 0
146 140 0
145 137 0
146 139 0
150 143 0
150 143 0
144 137 0
145 138 0
147 141 0
148 142 0
149 140 0
147 138 0
147 139 0
142 131 0
148 140 0
145 135 0
149 139 0
157 159 0
165 176 0
164 173 0
162 171 0
163 176 0
167 180 0
162 175 0
169 184 0
169 183 0
167 181 0
162 176 0
162 175 0
167 179 0
166 180 0
170 185 0
167 180 0
165 182 0
167 183 0
165 180 0
166 183 0
169 183 0
164 177 0
170 185 0
166 182 0
167 184 0
167 184 0
169 186 0
167 183 0
168 184 0
171 190 0
171 189 0
171 188 0
170 188 0
170 187 0
171 191 0
167 185 0
168 185 0
171 189 0
218 234 253
218 234 254
218 234 255
217 233 255
217 233 255
212 229 240
201 220 204
196 214 181
192 211 163
196 215 173
192 212 163
183 204 120
180 203 114
178 201 88
176 198 80
177 200 80
178 201 92
178 201 102
175 199 92
175 198 88
178 202 102
176 199 80
178 200 84
176 199 88
175 198 88
176 198 76
175 199 84
178 201 84
174 198 72
175 198 76
172 195 80
176 198 76
175 199 95
176 199 95
175 199 92
173 197 62
177 200 102
175 198 62
174 198 67
176 199 84
178 201 105
175 198 72
175 198 67
175 198 95
170 194 57
176 199 76
175 198 76
175 199 80
170 193 62
176 200 84
176 198 76
174 198 62
177 199 80
178 200 88
175 198 84
174 197 84
172 196 67
177 200 95
173 196 95
174 197 51
175 198 88
173 196 57
172 195 67
176 199 76
174 197 76
175 199 67
174 197 57
176 199 80
173 197 51
171 194 67
178 201 95
179 201 105
177 199 99
177 200 84
173 196 57
176 198 102
176 198 72
182 204 114
195 214 169
195 213 189
213 229 238
218 233 250
218 233 250
220 234 253
220 234 252
221 235 254
223 236 255
221 235 250
223 236 253
205 222 199
183 205 108
184 205 111
181 203 92
183 204 105
171 193 126
120 143 166
65 100 164
68 103 159
69 103 150
65 100 155
69 103 151
98 126 137
104 130 131
123 149 111
151 175 65
164 186 0
139 164 74
61 96 147
61 97 154
60 95 145
61 97 158
61 97 157
61 97 152
61 96 155
61 96 154
60 96 152
62 97 155
61 97 158
61 97 157
61 97 152
62 98 166
62 98 163
60 96 156
62 98 157
61 97 152
60 96 160
61 97 159
61 97 158
62 98 162
61 98 162
62 98 164
61 98 171
62 98 171
61 97 162
62 98 165
60 96 162
61 98 168
62 98 168
61 97 153
62 98 165
62 98 164
61 97 159
62 98 167
62 98 168
62 98 172
61 98 167
61 98 162
62 98 166
62 99 171
62 98 172
62 98 166
62 98 163
62 98 167
62 98 167
62 98 168
62 98 165
61 97 159
62 98 165
61 98 167
62 99 171
61 98 168
61 98 166
62 98 167
62 98 170
61 98 166
62 98 161
63 99 169
63 99 170
62 98 163
62 98 159
61 98 166
63 99 167
61 97 156
62 98 169
62 98 173
62 99 167
62 98 163
62 99 169
62 99 168
61 97 163
62 98 169
62 99 171
63 99 167
62 98 163
62 98 167
63 99 173
61 98 166
62 99 170
63 99 173
62 98 168
62 99 169
61 98 164
62 99 171
63 99 173
62 98 165
62 98 169
63 99 173
62 99 168
63 99 168
62 98 167
62 98 168
62 99 167
63 100 173
62 98 168
62 98 166
62 98 166
62 98 164
62 98 166
61 98 164
62 98 167
62 98 156
62 98 168
62 98 163
62 98 167
63 99 167
62 98 168
62 98 165
61 97 160
61 97 156
62 98 169
62 98 165
63 99 167
62 98 165
62 98 165
62 99 169
62 98 167
62 98 167
62 98 162
61 98 165
62 98 163
63 99 168
62 98 169
62 99 168
63 99 171
62 98 166
62 99 169
62 98 160
62 98 168
61 98 162
63 99 170
62 99 171
62 98 164
62 98 162
61 98 162
62 99 166
62 98 162
62 98 165
62 98 170
63 99 166
62 97 158
61 97 156
62 98 162
62 98 160
63 99 167
62 98 162
63 99 164
62 98 163
62 98 162
62 98 160
62 98 162
62 98 162
62 98 164
64 100 171
63 99 165
61 97 155
63 99 166
63 99 168
61 97 155
62 98 156
61 97 156
61 97 148
62 98 161
62 98 157
61 96 150
61 97 163
62 97 155
62 98 157
62 98 161
63 98 161
62 98 153
62 98 159
62 98 151
60 96 151
62 97 152
61 97 150
62 97 155
61 97 154
61 95 142
59 94 147
61 96 152
61 96 151
61 95 144
102 105 71
115 111 0
104 101 0
122 117 0
119 115 0
113 108 0
116 111 0
115 110 0
121 118 0
124 118 0
118 114 0
121 118 0
125 119 0
127 121 0
122 119 0
128 124 0
130 126 0
129 125 0
128 123 0
130 125 0
130 123 0
131 127 0
131 126 0
135 132 0
131 127 0
140 135 0
131 129 0
130 126 0
136 132 0
130 125 0
137 133 0
141 136 0
139 133 0
135 129 0
134 129 0
136 132 0
140 134 0
139 133 0
142 137 0
138 132 0
144 139 0
138 133 0
139 132 0
144 138 0
142 136 0
143 136 0
144 138 0
144 140 0
141 134 0
143 137 0
139 133 0
146 138 0
143 135 0
144 137 0
144 138 0
145 139 0
145 137 0
147 140 0
143 137 0
146 138 0
143 138 0
148 140 0
143 135 0
146 137 0
148 140 0
148 138 0
150 140 0
146 135 0
147 137 0
160 167 0
158 169 0
163 174 0
165 172 0
169 183 0
163 174 0
165 177 0
163 175 0
165 176 0
167 180 0
170 186 0
166 179 0
167 183 0
165 177 0
167 180 0
165 180 0
166 179 0
168 182 0
165 180 0
167 185 0
167 184 0
167 184 0
168 186 0
169 187 0
167 182 0
163 180 0
169 186 0
169 185 0
169 185 0
165 181 0
170 187 0
171 190 0
169 184 0
168 186 0
168 185 0
169 187 0
170 188 0
169 188 0
167 188 0
217 233 254
217 233 255
215 231 253
204 221 209
200 219 189
195 214 175
202 219 188
192 211 165
181 202 99
174 197 72
176 199 84
175 197 88
174 197 80
177 200 92
175 198 76
179 201 88
179 201 102
176 199 80
174 198 67
176 199 84
179 202 99
176 199 92
177 200 84
177 201 95
172 196 57
174 197 62
177 200 92
174 198 72
173 197 51
177 200 72
173 197 84
176 199 92
174 197 84
176 200 80
174 198 72
174 198 51
177 199 72
175 198 92
172 195 76
176 199 72
175 199 72
176 199 80
174 199 72
174 198 67
177 199 76
174 197 72
174 198 99
174 198 76
172 195 67
173 196 76
173 197 72
175 198 57
173 197 67
177 200 80
177 199 95
173 196 62
174 197 67
173 196 84
179 201 76
171 195 57
172 196 62
178 201 102
172 195 76
176 199 76
171 194 67
171 195 80
173 196 76
179 201 76
173 195 88
176 199 76
176 199 72
176 198 92
177 200 84
175 198 105
178 200 92
177 200 88
176 199 72
175 198 95
174 197 62
179 201 105
181 203 117
194 212 167
204 221 203
217 233 249
218 233 249
219 234 250
221 235 253
222 236 254
221 235 252
223 237 254
219 233 240
208 224 201
181 203 99
181 203 84
141 163 159
127 148 181
98 124 179
62 98 168
75 108 162
79 110 156
64 100 159
65 100 157
68 102 153
88 118 143
92 121 129
121 146 108
136 160 84
61 96 141
61 96 137
60 95 145
60 96 151
61 97 149
61 96 154
62 98 161
62 98 162
61 97 156
61 96 153
62 97 153
61 96 154
63 99 165
61 97 153
61 97 163
61 97 156
61 97 159
61 96 154
61 97 156
61 97 163
61 97 160
62 97 161
62 98 164
60 96 155
61 97 164
61 97 151
62 98 158
61 97 155
61 97 161
62 98 168
62 98 169
61 97 165
62 98 165
62 98 165
61 97 159
62 98 168
61 98 168
61 97 160
61 97 163
62 99 170
62 98 164
62 99 173
62 98 173
61 98 169
62 98 169
62 99 169
62 98 168
62 99 170
62 98 172
63 99 173
61 97 163
61 98 168
62 99 170
61 98 169
62 98 162
62 99 171
61 98 165
62 98 160
62 99 169
62 98 162
63 99 168
62 98 164
62 99 169
62 98 165
63 99 172
62 98 166
62 98 166
62 99 168
62 98 168
61 97 161
62 99 169
62 98 168
61 98 163
62 99 171
62 98 163
62 99 169
61 98 167
61 98 161
63 100 176
62 98 164
62 98 170
62 99 172
61 98 167
62 98 168
62 98 167
62 98 164
62 98 168
62 98 165
62 98 159
63 99 170
62 98 162
62 98 174
62 98 166
62 99 167
62 98 167
61 98 166
62 99 168
62 98 165
62 98 165
62 98 165
62 98 165
61 97 158
62 99 170
62 98 170
62 98 160
62 99 168
62 99 166
62 98 164
62 98 171
62 99 170
62 99 167
61 97 157
62 98 163
62 99 169
62 99 166
62 99 168
62 99 164
63 99 169
62 98 168
62 98 166
62 99 168
62 99 169
62 99 167
62 99 168
62 99 166
62 99 162
62 99 168
62 99 169
62 98 161
62 99 166
62 98 168
62 98 160
62 98 167
62 98 160
62 98 167
62 98 162
61 97 158
63 99 167
61 98 162
62 98 161
62 98 162
60 96 155
62 98 164
62 99 167
62 98 157
63 99 169
62 98 165
61 97 161
62 98 163
61 97 151
62 98 161
61 97 161
62 98 162
62 98 162
62 98 162
61 97 160
62 97 158
62 98 161
61 97 158
61 97 158
63 99 163
63 99 171
62 98 163
63 98 160
62 98 158
61 97 157
63 99 161
62 98 158
62 98 161
62 98 160
63 99 160
61 97 159
62 98 164
62 98 156
61 97 154
62 98 157
62 98 161
62 98 155
61 97 152
61 96 148
61 95 142
61 96 152
62 97 150
61 95 149
60 94 147
95 100 66
114 107 0
109 106 0
120 114 0
113 109 0
120 112 0
128 125 0
120 115 0
124 120 0
113 109 0
113 107 0
130 124 0
121 116 0
124 119 0
126 120 0
130 125 0
129 126 0
126 122 0
129 124 0
130 125 0
127 123 0
130 124 0
123 118 0
127 122 0
126 119 0
132 129 0
135 131 0
139 131 0
132 127 0
136 130 0
135 127 0
137 131 0
136 132 0
135 130 0
134 131 0
139 131 0
139 133 0
137 130 0
140 132 0
142 136 0
138 132 0
144 138 0
141 134 0
139 133 0
140 135 0
143 137 0
141 135 0
145 138 0
144 136 0
141 133 0
140 131 0
142 135 0
143 135 0
149 142 0
146 139 0
143 136 0
143 134 0
146 137 0
142 133 0
144 135 0
145 137 0
147 139 0
142 133 0
145 135 0
146 136 0
145 135 0
144 132 0
151 148 0
162 171 0
163 172 0
165 175 0
164 178 0
163 172 0
164 175 0
164 177 0
165 177 0
165 179 0
165 176 0
161 173 0
169 183 0
162 173 0
167 179 0
166 180 0
165 176 0
168 180 0
165 178 0
167 179 0
166 181 0
166 182 0
170 185 0
166 180 0
168 184 0
172 188 0
169 185 0
169 188 0
170 188 0
169 184 0
166 181 0
167 184 0
167 185 0
171 189 0
170 187 0
167 184 0
170 186 0
165 181 0
169 187 0
168 185 0
168 186 0
212 229 241
200 218 198
198 216 188
198 216 171
189 209 144
184 206 125
180 203 117
178 201 95
176 199 76
178 200 108
181 204 105
175 199 105
174 198 67
175 199 92
173 196 84
175 198 72
176 199 57
174 197 67
172 196 72
176 199 92
176 200 67
174 198 67
175 198 67
177 200 92
175 198 72
175 199 80
173 196 67
175 199 72
175 198 76
174 197 62
178 200 95
170 193 67
174 198 84
177 201 84
174 198 84
172 195 57
175 198 88
172 195 72
174 198 80
175 198 72
175 199 67
176 198 67
174 198 80
175 198 76
174 197 67
174 197 95
175 199 67
173 197 76
174 197 72
171 194 51
174 197 88
175 198 88
175 197 76
177 199 95
177 199 92
175 198 76
174 198 72
175 198 57
177 200 88
177 200 67
171 195 72
179 201 84
175 198 80
172 195 67
177 200 88
175 199 80
174 197 76
177 200 80
176 199 95
174 197 84
178 201 102
177 200 88
175 198 76
177 200 88
178 200 95
175 196 72
178 199 99
173 195 88
174 197 72
175 198 76
177 199 88
180 202 105
182 203 102
186 205 140
202 220 198
215 230 237
219 234 253
219 234 252
221 235 254
221 235 253
222 236 252
223 236 252
217 231 233
192 211 144
119 143 168
114 138 185
124 146 196
62 98 169
64 100 166
69 104 166
61 97 159
68 102 161
72 105 150
65 100 157
71 105 160
81 111 142
95 124 126
66 99 145
60 95 142
61 96 145
62 98 156
61 96 145
60 96 153
61 96 153
61 97 152
61 97 151
61 96 154
61 96 144
59 94 150
60 96 149
61 97 156
61 97 159
61 98 159
60 96 155
61 97 155
62 97 162
61 97 156
61 97 158
61 97 160
61 97 157
62 98 166
62 98 158
61 97 161
62 98 163
61 98 164
61 96 159
62 99 165
62 98 165
62 98 165
61 97 164
61 97 163
61 97 160
61 97 163
62 98 165
62 98 165
61 97 159
61 97 162
62 98 169
62 98 164
61 97 159
62 98 156
61 97 160
61 97 164
62 99 169
62 98 168
62 99 168
62 98 166
61 98 164
61 97 164
62 98 162
61 98 164
62 98 163
61 97 162
61 97 165
62 99 167
61 97 164
61 98 164
62 98 166
62 98 165
62 99 169
61 98 167
62 99 172
62 98 165
61 97 161
62 98 168
62 99 170
63 100 173
62 98 165
62 99 169
61 97 161
61 97 158
62 98 165
62 99 170
62 98 165
62 98 165
62 98 166
62 98 168
63 99 169
62 98 166
62 99 167
63 99 177
62 98 166
62 98 162
62 98 167
62 98 165
63 99 173
61 98 163
62 99 167
63 99 162
61 98 166
62 98 169
62 99 167
61 97 161
62 98 167
61 98 168
62 98 170
62 98 165
62 98 167
62 98 165
62 99 167
62 98 164
62 99 168
62 99 169
62 99 166
63 99 165
61 98 164
62 98 166
62 98 163
62 99 168
62 99 165
62 99 170
63 99 166
63 99 171
63 99 168
62 99 165
62 98 160
62 98 164
63 99 165
63 99 167
62 98 168
63 99 173
62 99 167
62 99 170
63 99 171
63 99 169
62 98 163
62 99 168
61 98 164
62 99 169
62 98 165
63 99 172
61 98 164
62 98 165
62 98 164
61 98 165
61 98 161
62 98 161
62 98 164
62 98 164
61 97 159
62 98 161
62 98 162
62 98 165
62 98 162
62 98 155
62 98 161
61 97 157
63 99 168
63 99 163
62 98 164
62 99 164
62 98 163
61 97 153
63 98 160
62 98 158
62 99 165
62 98 158
62 98 157
61 97 150
62 98 159
62 98 158
62 98 159
63 99 163
62 98 160
62 98 159
62 98 157
61 97 151
61 96 152
62 97 160
62 98 159
60 96 152
61 97 155
61 96 154
61 96 143
62 98 158
62 97 151
60 95 148
61 96 152
62 97 153
61 96 144
60 94 139
62 97 155
97 101 67
113 108 0
117 114 0
122 116 0
113 108 0
124 119 0
117 110 0
128 122 0
110 105 0
116 110 0
121 117 0
123 120 0
124 118 0
128 124 0
120 115 0
128 124 0
132 128 0
128 122 0
134 130 0
130 123 0
142 136 0
132 126 0
134 127 0
131 126 0
130 125 0
131 125 0
133 129 0
134 130 0
135 129 0
136 130 0
131 125 0
143 136 0
140 135 0
134 128 0
138 131 0
136 129 0
140 133 0
141 135 0
143 136 0
143 134 0
137 131 0
137 129 0
144 136 0
140 134 0
138 130 0
141 133 0
144 138 0
142 135 0
138 128 0
144 135 0
142 132 0
141 134 0
145 137 0
145 137 0
138 131 0
146 139 0
138 131 0
149 139 0
144 135 0
143 133 0
139 129 0
146 137 0
147 139 0
149 139 0
142 130 0
144 131 0
152 154 0
161 170 0
163 173 0
162 174 0
162 174 0
165 176 0
162 174 0
163 174 0
166 180 0
165 178 0
164 176 0
166 180 0
165 179 0
166 177 0
160 168 0
162 175 0
164 177 0
167 180 0
165 177 0
167 181 0
167 183 0
170 187 0
168 184 0
164 179 0
167 183 0
170 188 0
166 182 0
165 180 0
165 180 0
167 181 0
168 185 0
167 185 0
166 183 0
168 185 0
168 185 0
170 188 0
169 187 0
171 189 0
170 187 0
169 187 0
168 184 0
169 187 0
196 214 179
191 210 153
188 208 151
179 201 95
177 200 92
176 199 76
177 200 80
175 198 80
175 197 62
176 198 80
177 200 72
177 199 76
177 200 80
175 199 80
174 198 72
178 201 95
175 199 88
176 200 80
175 198 76
177 199 80
177 200 84
176 199 92
173 196 51
173 196 72
174 197 88
170 193 67
176 199 88
173 197 76
175 198 51
174 197 84
176 199 84
174 197 57
172 196 76
173 195 80
171 194 72
175 198 72
176 200 92
175 198 95
173 195 76
171 194 76
174 197 80
173 196 62
175 199 80
173 196 76
173 197 72
171 195 62
175 199 72
173 197 62
177 200 88
174 197 67
176 199 102
173 197 84
172 196 67
176 198 76
174 198 88
176 200 92
176 200 99
176 199 62
177 200 80
172 195 80
174 197 67
173 197 62
177 199 88
175 198 67
174 198 67
170 194 62
175 198 80
176 199 84
175 197 76
176 198 84
175 198 88
177 200 84
176 199 92
174 197 67
175 197 62
175 198 72
177 200 102
175 198 67
175 198 72
175 198 80
176 198 57
177 199 84
172 196 76
174 197 84
176 198 95
186 207 133
199 217 182
209 225 226
220 234 253
217 232 242
220 234 250
219 233 244
222 235 250
222 235 252
126 148 187
115 139 193
94 121 181
75 107 172
61 98 164
62 99 169
62 99 168
63 99 171
62 98 162
66 101 160
67 102 157
67 101 157
63 99 159
82 112 149
77 108 143
63 98 154
60 96 148
62 98 161
62 98 157
61 96 154
61 96 153
62 98 163
62 98 156
62 97 157
60 96 151
61 97 157
62 98 162
61 97 159
61 97 159
61 97 162
61 97 165
61 97 159
61 98 161
62 98 160
60 97 161
61 97 160
61 97 154
61 97 159
61 97 169
61 97 154
61 97 163
62 98 161
62 98 162
61 98 165
61 97 155
61 98 166
61 97 154
61 97 158
61 97 153
62 98 167
61 97 163
62 99 169
61 97 162
62 98 165
61 98 163
63 99 172
61 97 167
61 97 158
61 97 161
61 98 168
61 97 164
61 97 157
62 98 166
61 96 152
61 98 170
62 98 166
63 99 168
62 98 164
62 98 162
62 99 167
62 98 165
61 98 167
62 98 162
62 99 173
61 97 163
62 98 165
62 98 165
61 98 166
62 98 164
61 98 167
62 98 165
61 98 166
61 98 167
61 97 156
62 98 168
63 99 166
62 98 165
62 99 167
62 98 163
63 99 174
61 97 156
61 98 163
62 98 166
62 98 167
61 97 159
62 99 169
62 99 169
62 98 166
62 99 169
61 97 160
62 98 163
62 98 160
62 98 166
62 98 165
61 98 165
61 97 164
63 99 168
62 99 172
62 98 169
63 99 172
62 98 166
62 98 163
62 99 169
63 99 169
62 99 168
62 98 167
62 98 159
61 97 162
62 98 163
62 99 167
63 99 166
61 97 155
63 99 165
62 98 165
63 99 169
62 98 168
62 99 164
62 98 162
63 99 165
63 99 170
62 98 162
62 98 168
62 99 167
62 98 159
63 99 165
62 98 160
62 98 164
61 98 161
62 98 164
61 98 165
62 98 161
62 98 168
62 98 165
61 98 161
62 98 165
61 97 156
62 98 164
61 98 162
63 99 160
62 98 163
62 98 163
62 98 156
62 98 167
61 97 156
63 99 173
63 99 165
62 98 165
61 97 162
62 99 168
62 98 159
63 98 156
62 98 162
63 99 166
62 98 158
61 97 154
62 98 158
62 98 161
62 98 159
62 98 157
62 97 152
62 98 164
62 98 161
62 98 159
62 98 162
62 98 160
62 97 154
61 97 156
61 97 152
61 96 152
62 98 159
62 98 156
61 97 157
61 96 149
62 98 162
64 99 169
62 97 154
61 97 155
63 98 162
61 97 152
61 96 154
62 98 153
61 96 153
61 97 154
61 96 148
61 96 152
61 97 149
60 95 134
61 95 145
95 99 83
119 112 0
123 116 0
106 102 0
121 116 0
119 113 0
124 118 0
124 116 0
117 111 0
125 117 0
124 116 0
123 117 0
123 117 0
125 118 0
122 115 0
123 119 0
130 125 0
129 121 0
126 122 0
134 129 0
127 123 0
128 122 0
131 126 0
130 125 0
132 124 0
132 126 0
128 123 0
133 128 0
134 129 0
133 125 0
130 123 0
139 135 0
136 130 0
133 128 0
137 131 0
135 129 0
141 134 0
137 131 0
138 132 0
144 135 0
141 136 0
144 137 0
135 129 0
143 135 0
143 135 0
143 136 0
141 135 0
148 139 0
141 134 0
142 134 0
142 135 0
141 133 0
142 133 0
141 135 0
145 136 0
144 135 0
147 139 0
141 131 0
147 138 0
142 131 0
141 131 0
143 133 0
142 132 0
143 133 0
148 141 0
160 166 0
165 173 0
162 171 0
162 171 0
164 174 0
168 180 0
164 175 0
164 175 0
169 184 0
166 178 0
163 176 0
161 171 0
165 176 0
165 177 0
165 178 0
168 181 0
166 179 0
165 178 0
165 179 0
166 180 0
167 181 0
168 184 0
168 183 0
165 180 0
167 181 0
168 185 0
163 177 0
169 184 0
167 181 0
168 185 0
169 184 0
166 182 0
168 185 0
169 188 0
169 189 0
168 185 0
168 182 0
170 187 0
169 185 0
168 184 0
170 189 0
168 185 0
170 189 0
183 205 125
181 203 105
177 200 88
176 199 67
176 199 80
179 202 92
180 202 102
175 199 76
175 198 51
175 199 80
177 200 76
175 199 76
177 200 76
178 201 72
174 198 67
174 198 76
173 196 44
172 196 51
174 197 80
175 199 67
174 197 62
175 198 80
179 202 99
172 194 57
178 200 67
173 196 67
173 196 72
175 198 80
173 196 57
176 199 88
170 194 51
175 198 92
173 197 80
175 198 67
172 196 57
174 197 80
171 193 57
173 195 72
178 200 84
172 195 51
174 197 76
175 198 62
174 198 76
172 196 57
174 198 76
174 198 80
175 198 72
175 198 72
172 196 84
175 199 88
173 195 72
176 199 88
171 193 44
172 194 72
174 197 57
174 197 76
178 201 88
173 195 44
174 197 80
172 196 80
171 195 57
173 195 62
176 200 62
177 201 88
172 195 76
178 201 95
174 197 84
173 197 88
172 195 92
177 200 88
175 198 80
175 197 88
175 198 57
173 196 84
173 197 80
173 197 76
177 200 84
177 200 84
173 196 80
175 196 76
175 198 62
174 197 92
179 201 84
176 198 80
177 198 76
174 197 80
179 202 95
184 204 117
193 212 169
210 226 224
219 234 252
221 235 255
216 230 246
218 232 252
155 174 209
88 117 172
107 132 187
89 118 177
62 99 167
65 100 167
64 100 169
61 97 158
61 98 165
61 97 157
64 100 162
61 97 163
63 99 156
64 99 154
63 98 153
77 108 152
62 98 150
60 95 147
60 95 150
62 97 156
61 97 158
60 96 153
61 97 161
60 96 155
60 96 155
60 96 153
62 98 160
60 96 156
62 98 165
62 98 165
62 98 162
61 96 158
62 98 161
61 97 158
62 98 163
62 98 165
61 98 165
61 98 161
60 96 156
62 98 162
61 97 162
62 98 162
62 98 161
61 98 165
61 96 157
62 97 160
62 98 163
61 97 159
61 97 169
61 97 159
61 98 163
61 97 158
61 98 171
61 97 162
61 98 168
62 99 169
60 96 162
61 97 163
62 98 166
61 98 166
61 97 164
62 98 165
61 98 172
63 99 176
62 98 165
61 98 163
61 97 161
62 98 167
62 98 164
63 99 171
62 98 163
62 98 165
62 99 170
61 97 159
61 98 163
61 98 164
61 98 163
62 98 168
62 99 172
62 99 170
62 99 166
62 98 160
62 99 168
63 99 168
61 97 160
62 98 169
61 98 164
62 98 165
62 99 169
62 98 166
63 99 169
61 98 164
63 99 172
62 98 168
62 98 165
62 98 163
62 99 168
62 98 168
62 98 166
63 99 167
62 99 169
62 99 168
62 98 166
61 97 162
62 98 165
61 97 162
62 99 168
62 97 157
62 99 168
62 98 167
62 99 169
62 99 167
61 97 159
61 98 161
62 98 163
62 98 163
62 98 168
62 98 166
62 99 170
63 99 170
62 97 156
62 98 158
63 99 169
61 98 164
62 98 167
61 98 159
63 99 173
63 99 171
62 98 168
62 98 160
62 98 166
61 97 159
62 98 165
62 98 163
62 98 162
62 98 164
62 98 164
63 99 167
62 98 168
61 97 161
62 98 164
62 99 167
62 98 163
62 98 166
63 99 169
62 98 163
63 99 166
62 98 163
61 97 158
62 98 162
63 99 166
61 97 156
62 98 162
63 99 164
63 99 167
63 99 167
62 99 167
62 98 162
62 98 165
61 98 162
62 98 158
62 99 169
62 98 163
62 98 159
61 97 157
62 97 153
61 97 152
62 98 162
62 99 166
62 98 164
62 98 162
61 96 147
61 97 151
61 96 152
61 97 153
62 98 158
61 97 160
61 97 158
62 98 159
62 98 157
61 97 158
62 98 159
63 98 157
62 98 159
61 97 153
61 97 154
62 97 155
61 97 155
60 95 141
62 97 159
62 97 148
61 97 149
61 97 154
61 96 147
61 96 147
61 96 147
60 95 137
60 94 138
90 97 79
106 103 0
117 110 0
106 102 0
112 107 0
123 116 0
120 112 0
119 111 0
123 117 0
111 105 0
120 114 0
115 109 0
124 119 0
119 115 0
125 119 0
117 110 0
130 124 0
128 121 0
129 123 0
122 117 0
130 125 0
126 120 0
131 124 0
126 119 0
130 124 0
134 128 0
132 126 0
138 133 0
136 129 0
129 120 0
144 136 0
136 131 0
128 119 0
141 136 0
132 125 0
139 132 0
140 133 0
144 137 0
137 128 0
138 130 0
138 132 0
138 132 0
138 131 0
139 130 0
143 136 0
138 131 0
140 131 0
143 136 0
144 136 0
142 133 0
140 128 0
137 127 0
148 139 0
142 132 0
142 133 0
143 132 0
146 137 0
145 136 0
142 132 0
140 129 0
143 132 0
143 128 0
142 133 0
152 151 0
165 175 0
157 162 0
158 167 0
165 177 0
164 173 0
163 174 0
164 175 0
163 173 0
164 176 0
156 167 0
162 171 0
164 176 0
168 181 0
166 179 0
166 178 0
164 176 0
167 180 0
166 181 0
168 184 0
166 180 0
166 180 0
168 182 0
167 182 0
165 179 0
167 180 0
165 177 0
168 183 0
167 183 0
169 186 0
169 184 0
169 184 0
170 187 0
169 185 0
169 186 0
167 183 0
169 188 0
170 187 0
166 184 0
170 189 0
166 185 0
170 190 0
171 187 0
165 183 0
169 187 0
176 199 88
176 199 95
176 199 62
179 201 95
178 201 88
177 200 95
175 198 84
175 198 72
176 200 92
175 198 76
174 197 57
177 200 80
172 196 57
178 202 92
179 202 95
173 197 72
177 199 67
172 196 67
176 199 80
175 198 80
174 198 72
172 196 57
174 197 84
172 195 84
177 200 92
174 197 80
171 195 57
176 199 80
171 195 67
173 197 72
175 199 76
172 195 72
175 199 67
175 197 72
176 199 80
173 197 67
172 195 51
173 197 76
179 203 111
174 198 72
172 196 88
172 196 62
172 195 67
176 200 95
174 197 76
174 198 80
175 197 76
173 197 57
172 197 72
171 194 57
174 198 72
172 196 67
175 199 92
173 196 80
173 196 80
173 196 76
171 194 62
173 196 67
175 197 67
175 198 80
172 195 62
176 199 92
176 199 92
176 199 92
174 197 80
175 198 84
176 198 62
176 199 84
175 197 76
173 195 76
174 197 67
175 198 76
175 198 76
175 198 95
176 199 72
174 197 44
175 196 92
174 197 76
176 199 84
173 196 76
178 200 92
173 196 51
172 196 67
174 196 72
177 200 84
176 198 80
177 200 99
175 198 72
177 199 102
179 200 102
197 216 175
210 226 224
217 231 252
217 231 251
194 209 236
90 119 179
100 127 187
112 136 189
84 114 179
62 99 170
61 98 163
62 98 171
61 97 163
62 98 164
62 98 159
62 98 157
61 97 161
61 97 159
63 98 158
67 101 150
68 102 148
67 101 148
62 98 157
61 96 147
61 97 154
61 97 159
59 94 145
61 97 157
61 97 160
61 96 158
62 98 161
60 95 155
60 96 154
62 98 166
60 95 150
62 98 165
61 97 162
61 97 156
59 95 150
62 98 163
61 97 161
61 97 158
61 97 162
61 97 163
60 96 157
62 98 162
61 97 157
61 97 158
62 98 164
61 97 161
62 99 168
62 98 169
61 97 165
61 98 160
61 97 157
61 97 162
61 97 155
60 96 158
61 97 163
62 98 162
62 98 168
61 97 166
62 98 166
62 98 166
62 98 163
61 98 162
63 99 169
62 98 162
62 98 164
62 98 165
62 98 158
61 97 163
62 99 172
61 97 158
62 98 165
62 98 165
62 98 164
62 98 161
62 98 164
62 98 170
62 99 165
62 98 166
61 98 168
61 97 161
62 99 169
62 98 168
61 97 158
61 98 165
62 98 167
62 98 165
61 98 163
62 98 163
61 97 160
61 98 165
62 99 168
62 99 168
62 99 170
62 99 168
62 98 165
60 97 157
62 98 166
62 99 165
62 98 164
61 97 160
62 99 169
63 99 165
63 99 167
62 98 165
62 98 163
62 99 170
62 99 169
62 98 166
61 98 166
62 98 164
61 98 164
62 99 167
63 99 169
62 99 166
63 99 165
62 98 167
62 98 164
61 97 163
63 99 167
63 99 168
62 98 165
62 99 168
63 100 177
61 97 158
62 99 166
61 98 165
62 98 167
62 98 166
63 99 170
62 98 165
63 99 166
62 98 161
62 98 163
62 98 162
63 99 165
62 99 165
62 98 162
62 99 168
62 99 168
63 99 166
63 99 163
63 99 163
62 98 166
62 99 164
63 99 170
61 97 166
62 98 162
63 99 165
63 99 165
62 98 162
62 98 160
61 98 163
63 99 166
62 98 163
62 98 163
61 97 157
62 99 166
61 97 157
62 98 164
61 97 154
62 98 160
63 99 169
62 98 160
62 98 160
62 98 162
61 97 156
62 98 157
61 96 149
63 99 166
62 99 167
62 98 159
61 97 156
61 97 155
62 98 163
61 97 162
63 99 162
62 98 157
62 97 157
62 98 159
62 97 156
62 97 152
62 98 161
62 97 153
63 98 162
61 97 154
61 96 149
60 95 144
60 95 145
62 97 155
61 97 151
61 96 154
61 97 151
61 97 149
60 95 147
60 95 146
61 95 149
62 96 138
61 95 143
99 100 68
114 108 0
109 102 0
119 112 0
120 112 0
115 109 0
116 110 0
116 109 0
112 105 0
119 113 0
121 113 0
125 117 0
122 115 0
128 122 0
118 112 0
128 119 0
131 125 0
130 122 0
129 123 0
126 120 0
136 127 0
127 121 0
128 123 0
132 124 0
133 126 0
126 120 0
134 126 0
125 119 0
134 130 0
134 129 0
129 123 0
135 128 0
138 130 0
131 125 0
133 127 0
141 134 0
136 131 0
136 129 0
140 130 0
137 131 0
126 121 0
137 127 0
137 131 0
138 130 0
141 132 0
145 136 0
141 134 0
139 132 0
143 134 0
137 130 0
141 133 0
138 130 0
141 131 0
145 136 0
141 131 0
143 132 0
139 127 0
140 127 0
143 133 0
144 133 0
143 131 0
150 144 0
153 157 0
162 171 0
159 166 0
157 165 0
162 171 0
163 174 0
161 172 0
165 175 0
164 175 0
162 172 0
163 172 0
162 171 0
160 168 0
162 171 0
163 173 0
165 179 0
166 180 0
163 174 0
167 181 0
166 178 0
165 179 0
168 182 0
166 180 0
167 180 0
164 177 0
165 179 0
168 182 0
163 178 0
166 182 0
170 185 0
169 184 0
167 182 0
169 185 0
169 186 0
166 182 0
168 186 0
168 185 0
167 185 0
167 185 0
169 185 0
172 189 0
168 185 0
169 187 0
170 188 0
170 188 0
168 188 0
179 202 99
175 198 62
175 198 67
177 199 84
173 197 57
175 199 72
176 200 84
174 198 72
178 201 92
175 197 99
174 198 84
172 195 57
176 200 80
172 195 76
174 198 62
177 200 80
176 199 84
174 197 84
178 201 99
178 201 88
176 199 67
176 200 80
176 199 84
175 199 80
175 199 72
174 197 76
173 195 62
172 196 80
175 198 72
175 198 72
174 197 62
171 194 67
173 197 72
174 198 80
177 200 84
173 196 67
173 196 72
174 198 95
173 196 72
174 197 62
170 194 51
173 196 88
175 197 62
172 195 57
171 195 57
172 194 80
173 196 80
172 196 88
175 199 76
174 198 92
172 194 88
171 195 76
170 193 51
174 198 80
170 193 80
176 199 84
172 196 67
172 196 76
174 197 67
176 199 72
177 200 72
174 197 92
176 199 102
175 198 84
173 196 72
175 197 67
170 194 80
172 197 72
174 196 76
171 193 62
172 195 76
175 198 84
175 198 67
175 198 88
172 195 51
176 199 84
177 199 88
174 197 92
175 197 72
175 198 72
172 195 67
173 196 62
173 196 76
175 198 67
176 199 88
176 198 102
178 200 88
176 198 95
176 198 95
174 196 67
171 194 72
171 192 129
170 189 190
199 215 228
209 224 247
100 126 186
77 109 178
78 110 180
83 113 177
69 103 173
62 98 173
62 99 175
62 98 164
62 98 163
61 97 166
61 97 166
61 98 162
61 98 163
62 98 159
61 97 157
61 97 159
66 101 160
66 100 153
61 96 150
62 97 157
61 96 151
61 96 158
61 96 153
61 96 153
61 97 158
61 97 154
60 95 148
61 96 148
60 96 159
61 96 159
61 97 159
61 97 163
61 97 158
61 97 160
61 97 156
62 98 158
61 97 160
61 97 150
60 96 155
62 98 166
61 97 164
62 98 163
62 99 166
61 98 168
61 97 162
61 97 159
61 97 165
61 97 161
61 97 157
61 97 162
61 97 162
62 98 158
62 98 162
63 99 170
61 97 161
61 97 161
61 97 161
62 98 167
62 98 169
61 97 161
61 98 167
62 98 162
61 98 169
62 99 171
62 98 165
61 97 158
61 98 159
62 98 165
61 98 164
62 98 166
61 97 158
62 98 164
62 98 165
62 98 166
62 98 163
62 98 165
61 98 170
62 99 170
62 98 162
62 99 163
62 98 163
63 99 168
62 98 168
63 99 169
62 98 158
62 98 167
61 97 163
62 98 166
62 98 170
62 98 166
62 98 162
62 98 164
61 98 165
62 98 163
61 97 163
62 98 164
62 98 167
62 99 166
62 98 165
62 98 165
63 99 166
62 99 167
63 99 167
62 98 163
62 98 162
62 99 168
62 98 171
62 98 165
62 98 162
63 99 168
62 98 164
62 99 165
62 98 169
62 99 166
62 98 170
62 99 169
63 99 175
62 99 167
62 98 166
62 98 166
62 98 161
61 97 159
62 98 165
62 98 166
62 98 162
63 99 164
62 98 165
62 98 168
61 97 159
62 99 167
62 98 167
62 98 166
61 98 159
62 98 166
62 99 167
63 100 173
62 98 162
63 99 165
62 98 161
62 98 167
61 98 159
62 98 164
62 98 159
62 98 159
62 99 166
62 98 160
62 98 165
62 98 164
61 97 158
62 98 169
62 98 167
62 98 157
61 97 158
62 98 165
63 99 166
62 98 162
62 98 160
63 99 169
63 99 162
62 99 165
62 98 163
61 97 155
62 98 163
61 97 154
62 98 157
62 98 164
62 98 163
61 97 157
61 97 157
62 97 155
61 97 158
62 98 160
62 98 164
62 98 159
61 97 162
61 97 153
61 97 152
63 99 162
61 97 155
61 97 156
61 97 158
62 97 155
61 97 152
62 97 155
62 98 158
62 97 155
62 97 151
62 97 152
63 98 161
61 97 151
61 95 142
60 95 147
61 96 143
62 97 151
60 94 136
61 95 143
59 94 133
107 106 57
116 109 0
108 104 0
117 109 0
121 113 0
123 116 0
116 108 0
115 109 0
126 120 0
118 109 0
125 118 0
114 110 0
125 118 0
116 112 0
119 112 0
122 115 0
123 117 0
122 115 0
118 114 0
131 123 0
127 120 0
129 122 0
132 124 0
134 127 0
129 122 0
131 126 0
128 119 0
133 124 0
131 123 0
131 122 0
131 124 0
129 122 0
133 125 0
133 124 0
135 128 0
140 133 0
133 124 0
139 129 0
136 128 0
137 129 0
138 129 0
135 128 0
142 132 0
138 131 0
136 128 0
136 128 0
139 130 0
145 136 0
139 130 0
138 128 0
143 133 0
141 131 0
144 133 0
135 125 0
144 133 0
143 133 0
145 134 0
137 125 0
142 129 0
148 138 0
156 158 0
156 159 0
160 168 0
159 167 0
160 168 0
161 170 0
162 169 0
161 170 0
162 172 0
158 165 0
165 174 0
162 172 0
162 172 0
164 178 0
164 177 0
160 171 0
167 179 0
165 178 0
164 178 0
168 183 0
165 178 0
161 172 0
168 182 0
167 180 0
167 181 0
168 182 0
163 174 0
166 181 0
173 190 0
169 183 0
164 178 0
164 178 0
167 184 0
168 185 0
167 185 0
169 185 0
167 184 0
167 183 0
170 187 0
172 190 0
167 185 0
168 183 0
167 184 0
168 186 0
170 188 0
167 182 0
170 187 0
168 186 0
176 199 67
178 200 95
172 195 84
176 199 76
176 199 88
176 199 95
174 197 76
177 199 95
174 198 51
177 199 76
176 199 76
176 199 76
173 195 72
172 196 62
177 200 88
174 198 72
175 197 76
178 200 84
174 196 84
174 197 62
171 195 67
174 197 76
174 197 80
178 201 80
176 199 67
172 196 62
175 198 51
173 197 76
176 200 92
175 198 76
170 194 44
173 195 76
174 198 57
174 198 67
175 198 84
171 194 62
173 196 84
170 193 67
175 198 67
170 194 67
175 199 80
173 197 76
174 198 88
171 195 80
173 197 84
175 198 62
175 197 99
173 197 105
175 198 92
176 199 84
175 198 72
171 194 67
173 197 76
172 195 76
174 198 67
171 196 67
172 196 72
174 196 62
171 194 72
174 197 72
170 193 67
175 199 72
175 199 80
169 193 72
172 195 76
177 201 102
172 195 67
172 195 62
173 196 72
173 195 76
173 196 51
175 198 95
173 196 92
174 197 95
172 195 67
173 196 76
174 196 51
171 194 67
168 191 72
177 200 99
174 197 76
178 201 99
177 200 102
175 198 88
172 195 80
174 196 84
174 197 88
177 199 80
175 197 92
174 197 72
175 197 88
147 169 139
146 169 145
134 158 147
164 183 198
124 147 193
92 121 181
90 119 181
93 121 182
83 113 177
61 98 174
62 99 167
63 99 174
62 98 168
62 99 168
62 98 161
62 99 171
61 98 165
61 97 157
63 99 169
64 99 159
65 100 155
68 102 162
66 100 162
60 96 151
61 96 149
60 96 148
61 97 151
61 97 151
60 95 149
60 96 154
60 96 156
62 98 159
60 96 147
60 96 146
62 98 166
61 97 161
60 95 154
60 96 158
60 96 160
61 97 154
60 96 159
61 97 166
62 98 167
61 97 163
62 98 161
62 98 163
60 96 162
61 98 167
61 97 153
61 97 162
60 96 162
61 98 165
62 98 167
61 96 162
62 98 165
61 97 159
60 96 159
62 99 168
61 97 160
62 98 165
62 98 162
61 97 166
61 97 164
62 98 166
62 99 167
63 99 166
61 97 157
62 98 164
62 98 166
61 97 159
62 98 163
61 97 163
61 97 161
62 98 167
62 98 167
63 99 170
61 97 157
62 98 164
61 98 165
62 98 165
61 97 162
61 97 163
62 98 164
62 99 168
62 98 156
62 98 162
62 98 166
62 99 169
61 97 158
62 98 163
60 96 157
62 98 159
62 98 167
62 98 168
62 98 166
62 99 168
62 98 169
62 98 165
63 99 171
62 99 167
62 98 165
61 97 161
62 98 160
63 99 168
62 98 165
62 97 155
62 98 165
63 99 171
62 98 170
61 97 156
62 98 166
62 98 170
62 99 171
62 98 165
63 99 167
63 99 173
61 97 161
61 97 162
62 98 162
62 98 158
63 99 168
62 98 166
62 98 165
62 98 169
62 98 165
62 98 168
62 98 164
62 99 169
63 99 165
62 98 167
62 98 164
62 98 166
61 97 155
62 98 159
62 98 167
62 99 169
62 98 163
62 98 162
62 98 161
62 98 162
61 98 162
62 98 161
62 98 165
62 98 158
63 99 168
62 98 164
63 99 162
62 97 157
63 99 164
62 98 164
62 98 165
62 98 167
62 98 165
62 98 160
62 98 160
62 98 164
62 98 160
61 98 161
62 99 167
62 98 159
62 98 163
61 97 162
62 97 150
61 98 162
62 98 160
61 97 155
62 98 159
62 98 160
62 99 164
62 98 158
63 98 160
62 98 162
61 97 154
62 98 156
62 97 150
62 98 158
61 97 154
61 97 157
61 97 155
62 98 160
62 98 160
61 97 157
62 98 158
62 97 153
62 98 157
62 98 164
61 97 151
60 96 144
62 98 159
62 98 151
62 98 158
62 98 159
61 97 144
60 95 146
62 97 152
60 95 143
61 96 149
61 97 152
61 95 140
62 97 147
60 94 137
105 106 72
122 112 0
108 102 0
114 107 0
114 109 0
121 114 0
118 110 0
129 120 0
123 115 0
114 107 0
123 116 0
114 109 0
121 114 0
122 116 0
120 112 0
126 117 0
123 117 0
117 110 0
128 120 0
129 121 0
127 119 0
133 124 0
133 124 0
123 114 0
130 124 0
128 122 0
131 124 0
134 128 0
131 123 0
132 123 0
137 128 0
139 130 0
139 130 0
135 127 0
132 124 0
137 128 0
138 130 0
135 126 0
141 133 0
136 128 0
137 130 0
137 129 0
134 125 0
132 123 0
140 130 0
141 132 0
142 133 0
137 127 0
136 126 0
140 129 0
134 125 0
141 131 0
141 128 0
144 133 0
138 127 0
136 124 0
140 126 0
148 137 0
152 151 0
155 158 0
158 164 0
157 162 0
155 162 0
154 158 0
154 158 0
159 165 0
163 174 0
161 169 0
160 168 0
162 170 0
163 173 0
160 170 0
166 175 0
160 169 0
162 173 0
164 176 0
161 171 0
164 175 0
162 175 0
163 173 0
164 177 0
167 178 0
163 178 0
167 182 0
169 182 0
165 178 0
164 180 0
162 173 0
166 181 0
166 182 0
167 182 0
167 183 0
167 182 0
167 182 0
167 181 0
167 184 0
168 181 0
170 188 0
165 181 0
161 175 0
164 182 0
171 188 0
168 184 0
169 186 0
170 187 0
168 184 0
164 181 0
170 187 0
173 196 88
180 202 99
174 197 62
175 198 76
175 198 72
174 197 84
175 198 88
173 196 72
175 199 80
173 197 51
178 201 84
175 197 72
175 198 72
173 197 80
172 196 62
170 193 25
177 200 105
174 197 57
176 199 67
171 194 57
175 199 88
172 196 62
176 199 80
175 198 72
176 200 92
173 197 62
173 196 84
175 198 76
173 197 72
173 197 76
175 198 84
176 199 99
174 198 72
171 194 57
177 201 99
172 195 67
173 197 84
172 196 62
175 198 76
173 196 67
172 196 80
173 197 84
174 198 67
172 195 72
173 197 67
172 196 72
173 196 76
172 196 84
174 197 72
172 195 62
175 198 67
174 197 36
170 194 67
174 198 72
172 195 80
174 197 80
171 195 72
175 197 84
175 198 80
167 191 67
173 197 76
170 193 67
174 198 88
174 197 88
173 196 67
173 196 67
176 199 80
176 199 80
170 194 51
170 194 57
172 195 76
175 197 84
170 194 51
170 192 72
173 196 80
171 194 67
175 198 67
174 197 76
174 196 80
173 196 95
175 197 67
173 196 67
175 197 88
173 196 44
173 195 92
178 201 92
175 198 88
177 199 88
172 194 72
176 198 84
173 196 72
143 167 140
133 157 140
120 145 150
131 156 139
125 149 145
111 137 171
97 125 188
85 115 175
93 121 185
77 109 177
63 99 173
61 98 169
63 99 172
62 98 166
62 98 164
62 99 167
61 97 159
64 100 168
61 97 164
62 98 157
61 97 165
61 97 158
65 99 156
64 99 152
61 97 155
61 97 156
60 95 149
61 97 153
61 97 151
61 97 157
61 96 151
61 96 156
61 97 157
61 97 158
62 98 158
62 98 161
59 95 153
61 97 162
60 96 153
61 97 161
60 96 154
61 97 162
61 96 156
60 96 162
62 98 166
61 98 163
61 97 161
61 97 163
62 99 166
62 98 161
62 99 165
62 98 161
62 98 163
60 96 157
62 98 166
61 97 159
61 97 159
62 98 162
62 98 166
62 98 165
61 97 159
61 97 161
61 97 160
61 97 158
61 97 162
62 98 166
62 98 166
63 99 167
62 99 167
62 98 165
62 98 163
61 97 160
61 98 162
61 97 161
62 98 169
62 99 169
62 98 163
62 98 165
62 98 159
62 98 162
62 98 164
62 98 166
62 98 163
61 97 157
62 98 167
63 99 171
62 99 166
61 97 160
62 99 170
62 98 164
62 98 166
63 99 168
62 98 159
63 99 168
62 98 161
62 98 164
61 97 160
62 98 163
62 98 165
62 98 166
62 98 161
61 97 164
62 99 168
62 99 167
61 98 166
62 98 163
63 99 166
62 98 163
62 98 160
62 98 163
62 98 166
63 99 171
61 97 159
62 99 168
62 98 160
62 99 167
61 97 160
62 98 160
63 99 163
63 99 166
62 98 162
63 99 169
62 98 167
62 98 163
63 99 168
62 98 166
62 98 165
62 99 166
63 98 162
62 99 167
62 98 168
62 98 161
62 98 161
61 98 163
62 98 160
61 97 156
63 99 166
61 98 163
62 99 167
62 98 165
63 99 169
62 98 166
62 98 165
61 97 152
62 98 161
62 98 166
61 97 160
62 98 162
61 98 165
62 98 166
63 99 164
62 98 157
62 98 159
62 98 159
62 98 161
62 98 161
62 98 162
62 98 164
63 100 169
62 98 167
62 98 160
62 97 153
63 100 170
62 98 162
62 98 159
62 98 160
62 98 162
62 97 156
61 97 153
61 97 154
62 98 159
62 98 159
62 98 160
62 98 160
61 97 155
61 97 155
62 98 158
62 97 151
62 98 151
62 98 160
62 98 157
61 98 159
62 97 155
61 97 153
62 98 154
61 97 155
62 97 155
61 96 150
61 97 150
62 97 148
62 98 162
61 96 145
61 96 148
62 97 152
61 96 141
61 95 148
61 96 149
59 94 139
61 95 147
60 95 144
60 95 138
96 97 67
110 102 0
121 112 0
118 109 0
120 112 0
112 104 0
113 104 0
114 106 0
115 107 0
117 108 0
114 105 0
123 115 0
129 122 0
123 115 0
125 118 0
123 114 0
124 116 0
124 116 0
112 106 0
130 120 0
135 128 0
127 120 0
119 110 0
126 118 0
128 120 0
129 120 0
128 119 0
130 118 0
134 126 0
133 124 0
131 123 0
132 123 0
130 121 0
132 125 0
136 127 0
136 126 0
135 124 0
131 119 0
135 126 0
135 127 0
136 125 0
138 129 0
139 128 0
133 123 0
139 128 0
139 128 0
144 131 0
137 126 0
137 124 0
138 127 0
136 122 0
139 125 0
139 126 0
138 124 0
141 128 0
147 137 0
147 142 0
150 156 0
156 160 0
155 159 0
158 162 0
157 164 0
156 162 0
161 168 0
159 167 0
161 170 0
161 169 0
163 173 0
160 170 0
158 163 0
162 173 0
164 174 0
166 178 0
164 172 0
163 177 0
164 175 0
158 166 0
164 176 0
162 173 0
168 181 0
166 178 0
167 181 0
168 183 0
165 178 0
165 179 0
167 182 0
165 175 0
168 184 0
167 181 0
164 175 0
168 181 0
169 186 0
167 182 0
169 185 0
169 186 0
164 178 0
168 184 0
167 183 0
166 182 0
169 186 0
167 185 0
168 183 0
168 184 0
164 181 0
164 181 0
167 185 0
168 186 0
168 186 0
176 199 88
176 199 99
175 198 80
177 200 80
174 197 88
176 199 76
176 199 92
176 200 108
173 197 57
173 196 80
177 200 88
174 198 57
176 199 80
174 197 67
177 200 80
174 197 76
174 197 80
168 192 67
177 200 76
174 198 57
171 194 67
176 199 72
175 197 67
174 198 95
174 198 84
173 197 72
174 197 84
171 194 57
174 197 67
176 199 84
174 197 76
173 196 76
172 195 72
169 192 57
173 197 72
173 196 80
173 196 62
171 194 57
174 198 72
175 198 72
174 197 67
170 194 67
173 197 72
171 194 62
171 195 72
170 193 51
171 195 76
168 191 44
175 198 92
175 198 72
172 195 76
170 193 57
171 195 51
170 194 62
178 202 105
173 197 95
175 199 95
174 197 80
171 194 72
172 195 76
171 195 84
175 198 76
173 196 92
170 193 57
171 194 76
176 198 80
168 191 67
172 196 80
175 198 88
174 198 88
171 195 72
171 194 57
174 197 95
173 195 80
176 199 72
174 197 84
172 195 62
172 195 62
172 195 76
173 195 88
171 194 62
175 198 84
170 193 62
175 198 95
174 195 88
175 198 99
176 199 72
172 195 72
177 199 92
173 196 84
178 201 102
158 181 125
124 148 157
126 151 150
130 155 145
141 164 131
129 154 143
114 140 157
84 114 175
110 135 190
88 117 180
62 98 170
63 99 172
62 99 171
61 98 162
62 98 169
61 98 159
61 97 163
62 98 168
61 97 164
61 98 167
62 98 163
61 97 153
60 96 151
61 97 159
61 97 158
60 95 140
60 95 148
61 96 158
60 95 147
60 96 148
59 93 143
60 95 152
60 96 149
60 95 152
61 97 155
61 97 158
62 98 161
60 96 152
61 97 161
61 96 161
60 96 150
60 95 156
60 95 155
61 97 163
61 97 161
61 97 167
62 98 165
61 97 161
61 97 163
60 96 155
61 97 160
62 98 157
61 98 162
61 97 163
62 98 166
61 98 166
62 98 164
61 97 163
61 97 167
61 98 163
62 98 164
62 98 161
62 98 171
63 99 170
61 97 160
62 99 170
61 97 162
62 98 164
61 97 164
62 98 164
61 97 162
62 98 163
61 97 157
61 98 164
61 98 164
63 99 164
61 97 165
62 98 167
61 97 157
61 98 167
62 98 164
62 98 166
61 97 159
62 99 167
61 97 158
61 98 161
61 97 161
62 98 163
62 98 164
62 98 161
63 99 171
62 99 167
61 97 158
62 98 162
62 98 162
62 99 168
62 98 166
62 98 164
62 98 168
61 96 154
62 98 167
61 97 158
62 98 161
63 99 165
62 98 162
63 99 168
62 98 163
62 98 165
62 98 166
62 98 163
62 98 167
62 98 163
63 99 163
62 99 167
63 98 160
61 97 153
62 98 166
62 98 169
62 98 167
62 98 158
62 98 160
63 99 164
62 98 159
61 97 156
62 99 165
62 98 165
62 98 164
62 98 166
61 97 158
61 98 162
62 98 167
62 98 161
62 98 165
62 98 163
63 99 167
62 98 162
61 98 159
61 97 154
62 98 166
62 98 163
62 98 161
63 100 170
62 98 164
62 98 162
63 99 164
61 98 162
62 98 159
61 97 156
62 98 165
62 98 158
62 98 158
62 98 159
61 97 159
62 99 165
62 98 159
63 98 159
63 99 162
62 98 163
62 98 163
60 97 154
61 97 154
62 98 160
61 97 159
62 99 164
62 98 161
63 99 159
62 98 160
61 97 157
62 98 160
62 98 166
62 98 159
61 97 154
62 98 160
62 98 160
61 97 151
61 97 156
61 97 159
63 99 163
63 99 162
61 97 154
62 97 156
62 98 159
61 96 153
61 97 159
61 97 154
61 97 156
62 98 157
61 96 148
61 97 151
61 97 149
61 97 149
60 95 140
62 97 153
60 96 142
62 97 154
61 96 144
61 96 146
60 95 140
61 95 147
60 95 145
59 93 133
106 101 41
105 96 0
117 109 0
107 100 0
111 102 0
117 107 0
110 103 0
128 118 0
116 109 0
124 117 0
124 114 0
123 116 0
120 112 0
123 113 0
113 106 0
124 114 0
126 116 0
124 115 0
124 115 0
134 128 0
122 114 0
130 120 0
127 118 0
127 119 0
131 122 0
130 121 0
130 122 0
135 127 0
130 120 0
132 123 0
127 117 0
131 122 0
137 128 0
133 125 0
129 122 0
134 125 0
136 124 0
134 125 0
131 121 0
140 129 0
134 122 0
136 126 0
135 126 0
139 129 0
141 129 0
144 133 0
139 127 0
142 131 0
137 126 0
137 126 0
139 128 0
141 130 0
141 129 0
137 126 0
142 138 0
156 161 0
153 155 0
154 157 0
160 168 0
161 168 0
154 158 0
158 164 0
150 155 0
155 161 0
155 162 0
161 170 0
154 157 0
162 173 0
164 173 0
163 175 0
165 176 0
163 173 0
160 170 0
163 170 0
159 169 0
163 174 0
163 172 0
162 172 0
164 176 0
167 180 0
167 177 0
166 179 0
163 176 0
167 179 0
165 178 0
168 181 0
166 180 0
168 180 0
169 185 0
168 184 0
162 175 0
167 181 0
167 183 0
167 182 0
166 181 0
166 181 0
168 183 0
167 184 0
168 185 0
169 186 0
167 181 0
170 186 0
170 187 0
166 183 0
167 185 0
166 181 0
170 188 0
167 185 0
176 198 67
175 198 67
177 199 80
173 196 44
174 197 76
174 198 88
177 199 76
174 197 80
178 201 80
172 196 57
175 198 72
173 197 80
172 196 76
174 198 76
170 194 57
175 198 84
174 198 84
172 196 25
172 196 76
172 195 76
175 198 57
174 198 80
175 198 92
175 198 80
174 198 72
174 197 76
172 196 57
173 196 76
175 198 72
173 196 67
172 196 67
171 195 44
173 197 72
175 199 88
174 197 72
173 196 67
173 197 67
171 195 62
174 198 67
171 194 76
175 198 88
174 197 80
169 193 67
171 194 51
174 197 57
172 196 67
173 197 51
173 196 51
170 193 57
175 199 88
172 196 76
176 199 99
174 196 80
175 199 99
172 195 76
171 194 62
172 195 76
168 192 57
171 195 76
170 194 72
170 194 80
174 197 72
176 199 76
175 198 84
171 195 72
175 197 80
171 194 80
171 194 51
176 199 76
172 195 72
171 194 62
172 195 92
174 197 80
169 192 44
174 197 95
176 199 84
172 194 67
175 198 80
173 196 72
168 192 57
174 197 88
172 196 72
174 197 84
174 197 76
171 195 80
175 198 99
174 196 84
177 199 99
171 194 72
175 196 88
169 191 57
173 196 95
120 145 143
118 143 150
123 147 141
131 155 145
136 159 160
121 146 152
109 137 145
109 134 171
88 118 182
75 107 175
62 99 177
62 98 173
62 98 168
62 99 168
62 98 169
61 97 168
62 99 172
62 98 165
61 96 159
62 98 167
60 97 165
62 97 158
61 97 163
61 97 155
61 96 155
60 95 154
60 96 151
61 97 158
61 96 153
59 94 153
62 98 158
61 96 161
60 96 156
61 97 156
60 95 149
62 97 157
60 96 149
60 96 145
61 97 153
60 96 154
61 97 160
61 97 161
59 95 159
61 98 161
61 98 168
61 97 158
61 97 155
61 98 163
62 98 168
61 97 155
61 97 160
61 97 156
60 96 156
61 97 163
62 98 164
60 96 158
63 99 169
62 98 162
61 98 162
61 97 164
62 98 163
62 98 167
60 96 158
61 96 157
62 98 162
60 97 160
62 98 163
62 98 161
61 97 163
62 98 166
61 97 160
61 97 156
62 98 167
61 97 166
61 97 161
62 98 162
62 98 163
62 98 161
62 98 166
62 98 163
62 98 166
63 99 165
61 97 160
61 97 164
62 98 164
62 98 163
61 97 160
62 99 164
62 98 164
63 99 170
62 98 165
62 98 169
62 99 169
61 98 165
62 98 163
62 99 167
63 99 169
62 98 161
63 99 169
61 98 164
63 99 166
62 98 161
62 98 165
62 98 158
62 99 168
62 98 160
61 98 164
62 98 167
62 98 166
61 98 163
61 97 158
62 99 166
62 98 160
62 98 165
62 98 158
61 97 159
62 98 162
62 98 163
62 98 161
63 99 170
62 98 164
62 98 163
62 98 164
63 99 168
61 97 157
62 98 161
61 97 156
62 97 160
62 98 161
63 99 165
63 99 167
62 98 167
62 98 164
62 98 167
62 98 160
62 98 165
62 98 165
63 99 170
62 98 167
63 99 165
62 98 161
63 99 168
62 98 166
62 98 162
62 98 168
62 98 161
63 98 163
61 97 158
61 97 156
62 98 160
63 99 169
61 97 161
62 98 165
62 98 158
62 98 157
61 97 156
63 99 162
61 97 156
62 98 157
61 97 156
62 98 159
62 99 164
62 98 159
62 97 152
62 98 161
62 98 157
62 98 162
62 98 158
61 97 155
62 98 164
62 98 156
61 97 153
62 98 157
62 97 156
62 98 157
62 98 156
62 98 160
62 98 162
61 96 148
62 98 163
61 97 149
60 96 144
61 96 144
61 96 152
62 98 155
61 97 149
62 97 157
62 97 148
61 97 152
62 97 150
61 97 155
61 96 143
61 97 159
62 97 154
61 96 148
60 94 140
61 97 152
61 96 147
63 97 153
61 96 140
112 102 25
110 101 0
114 104 0
108 101 0
109 101 0
109 99 0
112 101 0
115 107 0
109 100 0
121 112 0
112 103 0
120 111 0
119 109 0
125 116 0
123 114 0
116 107 0
123 113 0
116 108 0
129 120 0
132 123 0
135 125 0
124 115 0
133 122 0
127 115 0
125 116 0
124 115 0
132 122 0
124 115 0
129 121 0
127 118 0
132 121 0
128 118 0
135 125 0
132 122 0
133 123 0
137 125 0
130 121 0
132 120 0
134 124 0
136 124 0
133 123 0
130 117 0
142 131 0
139 129 0
135 121 0
136 125 0
143 130 0
140 128 0
141 126 0
142 129 0
139 125 0
141 131 0
147 142 0
155 159 0
151 152 0
153 158 0
151 154 0
157 164 0
156 160 0
150 157 0
152 158 0
157 161 0
160 166 0
163 172 0
155 161 0
160 168 0
159 166 0
155 161 0
160 169 0
161 172 0
159 169 0
164 175 0
161 172 0
161 171 0
163 173 0
164 174 0
163 176 0
162 176 0
162 174 0
162 176 0
166 176 0
164 178 0
161 173 0
164 177 0
163 176 0
166 180 0
163 178 0
165 179 0
166 183 0
164 179 0
167 179 0
167 182 0
165 181 0
168 182 0
164 180 0
165 182 0
167 184 0
168 185 0
170 188 0
170 188 0
169 186 0
168 185 0
167 182 0
168 184 0
167 184 0
167 183 0
170 188 0
171 189 0
172 196 62
177 200 92
175 199 80
176 199 80
176 199 99
174 197 76
174 198 72
176 200 76
175 199 62
176 199 88
175 197 88
174 197 80
173 197 72
175 199 72
173 197 76
174 197 80
172 194 67
175 198 76
173 197 72
174 197 80
174 198 72
172 196 44
173 197 72
174 197 67
171 194 67
174 198 67
172 196 44
175 198 88
171 195 57
171 194 62
170 193 51
172 195 67
175 198 76
176 198 72
170 195 51
173 197 72
174 198 72
177 200 88
174 198 67
173 198 80
173 196 84
170 194 44
170 194 84
171 194 72
170 193 72
171 196 67
172 194 62
170 193 62
173 196 62
171 194 62
172 196 67
174 197 72
170 194 62
172 196 84
170 194 76
174 198 72
170 193 88
172 196 72
173 196 84
172 196 62
171 194 57
171 195 76
174 198 67
172 195 51
170 193 76
172 194 80
174 197 80
166 190 67
172 195 62
176 198 80
173 196 80
172 196 72
172 196 76
171 194 67
171 194 76
175 197 84
175 197 67
173 196 76
171 194 80
170 192 67
176 198 80
173 196 76
174 198 84
175 196 76
176 199 76
172 195 51
173 195 95
173 196 62
172 195 57
176 199 88
173 197 57
170 192 76
126 151 133
117 142 143
112 137 143
114 140 153
124 147 156
128 152 140
121 146 147
119 144 148
104 131 155
94 123 179
72 105 177
62 98 173
63 99 170
63 99 173
61 98 163
62 98 168
62 99 166
62 98 164
61 97 163
62 98 167
61 97 162
61 97 161
60 96 157
61 97 163
60 96 155
62 98 156
60 96 154
61 96 148
60 95 146
60 95 156
61 97 160
60 96 150
61 97 160
61 97 161
61 96 150
59 95 153
61 97 157
60 96 156
60 96 155
60 96 153
61 97 163
62 98 162
62 98 164
62 98 163
61 97 159
60 97 156
60 96 156
60 96 155
61 97 158
61 97 159
62 98 160
60 96 158
60 97 156
62 98 166
61 97 167
61 97 163
60 96 160
62 98 164
61 97 159
61 97 162
62 98 164
60 96 160
62 98 167
61 97 161
62 98 163
61 98 165
62 98 165
62 98 164
61 97 159
61 97 158
61 98 162
61 97 158
62 98 164
62 98 160
61 97 158
61 97 161
62 98 164
61 98 168
61 97 161
61 97 159
62 98 162
61 98 160
62 98 165
61 97 160
62 99 168
61 97 162
61 98 163
62 98 166
62 98 161
61 97 160
62 98 167
62 98 164
62 98 158
62 99 162
62 98 163
61 97 156
62 98 167
62 99 165
62 98 164
62 99 168
62 98 162
62 98 164
62 98 166
62 98 165
62 98 159
62 98 161
62 98 160
61 98 163
61 98 164
62 98 165
63 99 164
63 99 168
61 97 158
61 97 165
62 98 160
62 98 163
62 98 165
62 98 166
61 97 158
61 97 162
61 97 157
62 99 165
63 99 168
61 97 159
61 97 158
62 98 163
61 97 157
61 97 159
62 98 158
62 98 164
62 98 160
62 98 160
62 99 166
62 98 163
63 99 166
62 98 163
62 98 156
63 99 170
63 99 169
62 99 164
62 98 163
62 99 166
62 98 162
61 97 156
62 98 164
62 99 164
63 99 164
62 98 164
61 97 154
63 99 166
63 98 163
62 97 154
61 97 159
61 97 155
61 97 156
62 98 159
62 98 163
61 97 152
62 98 158
62 98 163
61 97 156
62 98 161
62 97 161
62 98 161
62 98 161
61 96 145
62 98 156
62 98 157
62 98 153
63 99 160
62 98 157
61 97 153
62 97 154
61 97 159
62 98 157
61 97 158
62 97 153
62 97 151
62 98 155
61 96 151
61 97 154
61 97 149
62 97 150
61 97 152
61 96 150
61 97 154
62 97 149
62 97 149
62 98 161
61 97 150
61 97 155
61 96 148
61 95 142
61 96 153
60 95 137
60 95 147
61 96 149
61 95 139
62 97 150
60 92 125
109 99 0
100 89 0
101 91 0
123 112 0
109 99 0
125 114 0
113 103 0
125 115 0
118 108 0
122 113 0
117 106 0
121 112 0
121 111 0
119 111 0
122 112 0
123 114 0
126 118 0
123 112 0
133 121 0
130 120 0
121 111 0
122 113 0
128 118 0
125 115 0
129 117 0
129 119 0
131 118 0
127 117 0
127 116 0
132 121 0
133 123 0
133 121 0
133 120 0
137 126 0
137 127 0
134 122 0
140 127 0
136 124 0
132 121 0
133 120 0
134 119 0
133 122 0
134 121 0
137 123 0
129 115 0
137 125 0
133 117 0
136 121 0
131 116 0
135 121 0
147 145 0
154 156 0
153 158 0
153 158 0
151 153 0
154 159 0
154 159 0
153 160 0
157 161 0
155 159 0
155 158 0
154 159 0
156 162 0
151 156 0
158 163 0
155 161 0
154 159 0
159 166 0
157 165 0
162 170 0
161 169 0
159 169 0
164 174 0
163 175 0
161 168 0
165 177 0
166 177 0
159 166 0
163 175 0
164 175 0
164 176 0
169 185 0
168 183 0
167 182 0
166 180 0
166 178 0
166 181 0
166 179 0
167 182 0
163 177 0
166 181 0
169 184 0
166 182 0
170 185 0
169 185 0
164 177 0
167 181 0
169 186 0
167 183 0
167 184 0
170 186 0
165 182 0
166 183 0
166 183 0
169 186 0
168 186 0
170 189 0
169 184 0
176 199 95
177 200 76
173 196 76
173 197 84
176 199 72
176 200 95
177 200 99
174 198 92
176 200 92
172 195 72
175 197 51
174 197 76
171 194 67
171 195 57
175 199 95
174 198 76
175 198 57
175 199 62
170 194 72
170 194 72
175 198 67
171 195 92
174 198 76
175 198 92
175 198 88
172 196 72
170 194 62
175 198 76
173 196 67
175 199 84
172 196 67
168 192 36
173 198 76
174 197 88
175 199 62
174 198 72
173 197 51
171 195 62
173 197 80
173 197 84
175 199 95
172 196 84
170 194 57
172 196 76
168 193 76
170 193 76
173 195 72
173 197 72
172 197 72
173 196 95
173 196 84
173 196 80
170 194 72
171 194 72
171 195 76
172 195 62
172 194 57
174 196 57
168 191 67
169 192 36
173 196 76
173 196 88
175 198 92
174 198 84
173 196 72
172 196 76
173 197 72
170 193 84
174 196 80
170 193 51
174 198 92
173 196 67
174 197 88
172 195 84
176 199 76
171 194 88
171 193 72
174 197 72
173 195 88
173 196 76
175 198 92
176 197 102
172 193 76
173 195 72
172 194 72
170 193 84
172 194 72
175 198 80
173 196 88
174 196 99
176 199 88
175 197 88
155 179 110
102 129 147
101 128 153
129 152 158
133 156 151
132 156 142
110 136 150
122 148 141
124 148 150
109 134 156
94 122 171
62 99 177
61 98 170
62 99 172
61 98 170
63 99 171
63 99 171
62 99 169
62 99 171
61 98 164
62 98 164
62 98 165
63 99 169
62 98 159
61 97 156
61 97 163
64 99 162
64 98 153
60 95 152
61 97 155
60 95 151
59 95 152
60 96 160
59 95 154
61 97 160
60 95 156
61 97 151
60 96 159
61 96 152
62 98 158
62 98 161
61 97 161
62 98 163
61 97 156
60 95 147
62 98 164
62 98 159
61 97 158
60 96 154
62 98 158
62 98 167
61 98 162
61 96 156
62 98 162
61 97 166
61 97 156
61 98 163
62 99 169
62 98 162
62 98 160
60 96 162
62 98 169
61 97 155
62 98 160
62 99 166
61 98 163
62 98 164
60 96 155
61 97 158
61 97 162
61 97 160
61 97 159
62 98 163
61 97 159
61 97 161
61 97 162
62 98 162
62 98 168
61 97 160
62 97 159
61 97 160
61 98 161
62 98 164
62 98 164
61 97 161
62 98 162
62 98 162
62 98 159
60 96 153
62 98 161
61 98 164
63 99 171
61 98 162
62 98 162
62 99 170
61 98 163
62 98 164
62 98 163
62 98 164
61 97 161
62 98 166
62 98 158
62 98 163
62 98 166
61 97 155
62 98 162
62 98 160
61 97 153
63 99 168
62 98 160
61 98 165
62 98 160
62 98 164
62 98 161
61 97 165
61 97 161
62 98 160
62 98 163
62 98 163
63 99 166
63 99 165
61 97 155
62 98 160
62 99 170
62 98 161
61 98 161
62 98 160
62 97 159
62 98 164
62 98 165
62 98 159
62 98 165
61 97 153
63 99 164
61 97 160
62 98 163
63 98 162
62 98 166
63 99 161
62 97 157
62 98 161
62 98 160
62 99 168
62 98 162
62 97 153
62 98 164
62 98 163
62 98 166
61 98 160
62 98 159
62 98 162
61 97 155
61 98 165
61 97 159
61 97 155
62 98 165
62 98 157
62 98 163
62 98 162
62 98 161
62 98 159
62 98 165
61 97 157
61 97 152
61 97 155
61 97 152
62 98 158
62 98 157
62 98 158
62 98 156
61 96 149
61 96 153
62 98 160
63 99 163
62 98 158
61 97 154
61 97 158
62 97 151
61 97 150
62 98 158
62 98 154
63 99 162
61 97 152
61 97 158
61 97 152
62 97 152
61 97 154
63 98 157
61 96 149
61 97 147
61 96 151
62 97 150
60 95 142
62 97 146
61 97 149
60 94 141
60 95 140
62 97 151
60 95 145
64 93 132
117 106 0
103 92 0
115 103 0
110 99 0
117 105 0
120 109 0
110 99 0
116 103 0
114 105 0
110 101 0
114 103 0
115 104 0
126 114 0
125 113 0
120 110 0
123 110 0
119 107 0
126 116 0
119 109 0
122 108 0
123 111 0
122 112 0
117 108 0
123 111 0
127 117 0
120 107 0
131 121 0
126 113 0
134 123 0
129 118 0
131 120 0
127 116 0
133 123 0
130 118 0
124 110 0
128 116 0
130 118 0
137 125 0
131 118 0
132 119 0
132 120 0
138 126 0
132 118 0
132 118 0
134 119 0
132 118 0
140 128 0
146 143 0
144 141 0
149 149 0
149 152 0
149 153 0
142 140 0
148 150 0
150 151 0
154 158 0
154 157 0
157 165 0
157 163 0
153 159 0
156 163 0
160 166 0
156 163 0
162 170 0
156 163 0
157 165 0
160 167 0
155 164 0
162 172 0
162 170 0
163 175 0
159 166 0
160 170 0
162 173 0
166 178 0
163 175 0
163 172 0
162 171 0
165 177 0
165 177 0
165 179 0
165 180 0
163 174 0
160 170 0
162 175 0
165 181 0
161 174 0
167 180 0
165 179 0
164 181 0
162 175 0
164 177 0
167 184 0
166 180 0
164 177 0
167 182 0
166 182 0
166 181 0
170 189 0
168 184 0
171 189 0
169 185 0
162 177 0
169 187 0
167 183 0
167 183 0
170 189 0
171 190 0
173 196 67
176 199 72
176 199 80
175 198 76
174 198 80
174 197 72
174 198 80
175 198 62
178 201 99
174 197 62
173 197 67
175 198 67
173 197 76
174 197 72
174 198 62
174 198 76
171 195 67
175 198 72
175 198 67
173 197 72
173 197 88
175 199 72
174 198 76
173 198 80
171 194 67
171 195 67
170 194 44
173 197 76
172 196 57
172 196 72
175 199 67
169 194 67
170 194 62
171 195 67
172 197 72
172 196 67
171 195 57
174 197 72
173 196 72
171 195 67
170 194 67
170 194 76
173 197 72
173 197 76
173 196 88
172 195 88
170 193 51
173 196 88
171 195 67
174 197 72
173 198 92
172 196 95
174 197 72
169 193 84
166 190 57
173 197 57
170 193 92
172 194 62
172 195 76
172 196 67
174 197 80
173 195 84
170 193 72
172 195 72
170 193 80
178 200 88
170 193 62
173 196 76
170 193 84
170 194 80
171 194 72
174 197 84
167 190 80
174 198 84
171 195 51
175 198 76
171 193 57
171 194 76
170 193 72
172 195 67
172 194 51
177 199 84
170 193 72
177 200 92
175 198 88
174 197 105
172 196 76
175 197 88
173 196 72
172 194 76
177 197 102
175 197 88
173 195 92
100 127 133
122 146 168
103 130 145
123 148 158
125 149 142
109 135 152
121 146 148
131 155 140
113 139 159
105 131 154
107 134 162
68 103 172
62 99 169
62 99 173
61 98 167
62 98 166
61 98 168
61 98 167
62 98 166
62 98 167
62 98 164
62 98 163
62 98 169
60 96 152
60 96 158
61 96 154
60 95 154
63 98 153
61 96 150
60 96 154
59 94 147
61 97 156
61 97 161
60 95 155
60 95 151
60 96 156
61 97 158
60 96 151
60 96 157
61 96 158
61 97 159
59 94 149
59 95 154
61 97 158
61 97 159
61 97 158
61 97 153
61 97 152
60 96 159
61 97 166
61 97 163
62 99 166
62 98 169
61 97 162
61 97 160
61 97 160
61 97 160
61 97 156
62 98 166
62 98 164
61 96 157
62 98 163
62 98 160
62 98 167
62 98 165
62 97 158
61 98 167
61 97 165
61 98 164
62 98 164
61 98 159
61 97 151
62 97 162
61 98 161
62 98 162
61 98 163
62 99 168
62 98 160
62 98 163
62 98 162
62 98 159
62 98 162
62 99 167
62 97 159
62 98 160
62 99 166
61 98 165
62 99 164
62 98 163
62 98 158
63 99 172
62 98 164
62 99 168
62 99 166
62 98 164
62 98 165
62 98 163
62 98 159
62 98 156
62 99 171
62 99 170
62 98 164
62 98 165
62 98 158
62 98 158
62 98 162
63 99 159
62 98 162
62 98 162
61 97 153
61 97 159
62 98 162
61 98 166
62 99 170
63 99 163
62 99 169
63 99 168
63 99 162
62 98 164
61 98 161
62 97 159
62 98 162
62 98 164
62 99 168
62 98 163
62 98 157
62 98 162
63 99 170
62 98 164
62 98 162
62 98 165
61 97 160
62 98 159
63 99 161
62 99 169
62 99 165
62 98 160
62 98 160
63 99 167
63 99 165
62 98 167
62 98 160
63 99 166
62 98 163
62 98 160
62 98 159
62 98 156
63 99 163
61 97 150
62 98 156
62 98 164
61 97 156
62 98 156
62 98 161
62 98 157
63 99 163
61 96 145
62 98 162
62 98 153
61 97 160
63 99 164
62 98 159
62 98 161
61 96 153
62 98 159
62 98 164
62 98 152
62 98 162
62 98 160
61 97 157
62 98 161
62 98 156
62 97 153
62 98 157
61 96 147
61 96 147
62 97 153
62 98 163
63 99 162
61 97 150
61 96 150
61 97 151
60 95 152
62 97 153
62 98 154
61 95 140
61 96 150
61 96 149
61 96 150
61 96 149
61 96 143
61 96 143
60 95 141
61 97 151
60 95 143
60 94 139
61 95 149
60 95 139
74 92 117
97 85 0
109 100 0
111 99 0
116 104 0
104 93 0
113 100 0
108 95 0
108 97 0
119 109 0
111 100 0
111 99 0
118 107 0
120 109 0
123 112 0
114 103 0
120 109 0
116 104 0
117 106 0
131 120 0
119 107 0
127 114 0
125 113 0
125 113 0
122 110 0
127 114 0
128 118 0
130 119 0
132 120 0
135 122 0
119 109 0
129 116 0
126 114 0
128 116 0
133 120 0
130 117 0
131 120 0
125 113 0
129 115 0
122 108 0
134 119 0
131 117 0
130 115 0
129 115 0
137 125 0
138 132 0
143 141 0
148 149 0
152 153 0
150 151 0
150 151 0
146 149 0
149 150 0
148 149 0
150 154 0
156 161 0
153 157 0
159 167 0
156 160 0
160 168 0
156 163 0
155 160 0
161 169 0
156 161 0
159 166 0
159 167 0
158 166 0
160 168 0
164 173 0
156 162 0
161 169 0
160 169 0
165 177 0
164 175 0
162 173 0
163 175 0
163 172 0
163 175 0
161 173 0
164 176 0
160 172 0
163 177 0
162 173 0
167 180 0
165 179 0
163 177 0
166 180 0
162 173 0
160 170 0
162 175 0
167 182 0
167 180 0
166 181 0
161 175 0
163 179 0
164 178 0
164 179 0
166 181 0
166 181 0
166 180 0
169 185 0
165 182 0
167 184 0
170 187 0
164 180 0
167 187 0
168 186 0
167 183 0
168 183 0
175 198 72
175 199 84
173 197 72
173 197 76
172 195 57
172 195 67
176 199 84
175 199 80
171 196 67
173 197 67
174 198 57
175 198 80
173 196 72
175 198 84
172 196 76
173 197 76
173 198 84
177 199 95
173 196 67
174 198 72
171 195 72
175 198 72
172 197 72
171 195 62
173 197 76
175 198 76
174 197 76
173 197 84
173 197 92
174 198 80
171 195 76
169 193 76
174 198 80
169 193 76
175 199 72
173 197 76
176 199 88
174 196 72
172 197 57
169 191 51
171 195 51
173 196 57
172 196 67
171 195 72
170 193 72
174 196 67
174 197 76
171 195 80
171 195 72
169 192 67
174 197 84
175 198 67
173 196 67
172 195 67
172 195 67
168 191 72
173 196 44
171 195 95
170 193 76
173 195 80
166 189 44
173 196 92
172 195 76
170 194 84
169 193 62
171 195 57
170 193 67
174 197 72
172 194 76
174 196 67
171 195 84
172 195 62
171 194 44
172 194 72
173 195 72
173 196 80
168 191 51
172 194 67
168 192 72
174 198 88
176 198 108
172 195 84
171 194 76
172 195 72
175 197 80
172 194 62
172 195 84
168 190 72
174 195 88
170 192 72
175 197 80
173 194 72
175 197 67
142 164 133
111 136 150
115 140 157
100 127 154
121 145 151
111 136 153
121 146 147
119 144 148
120 145 151
119 144 150
113 138 151
102 129 141
75 108 164
62 99 175
63 99 173
61 98 173
63 99 171
62 99 173
61 97 160
61 98 173
62 98 166
62 98 162
62 98 164
61 97 161
61 97 160
62 98 165
61 96 151
60 95 147
63 98 161
60 95 145
60 95 152
60 95 148
60 96 153
60 95 145
60 95 156
61 96 161
60 96 158
60 95 151
60 95 153
61 97 161
62 98 159
61 97 153
61 97 154
60 96 153
61 96 154
60 96 154
62 98 158
60 95 158
61 97 158
60 95 154
61 97 155
61 97 155
61 97 154
61 97 162
61 97 161
62 98 166
62 97 156
61 97 158
61 97 158
61 97 153
62 98 165
61 97 167
61 97 162
62 98 164
62 99 164
62 98 160
62 98 162
62 98 158
62 99 168
61 97 163
62 99 168
61 97 159
61 97 157
62 98 163
62 98 167
62 99 165
61 97 161
62 98 164
61 97 160
62 98 161
61 97 159
62 98 164
62 98 162
62 98 164
62 98 169
62 98 159
62 98 161
62 99 167
62 99 172
62 98 163
62 98 157
61 97 161
62 98 162
62 97 157
63 99 167
62 99 166
62 98 169
62 98 163
61 97 156
62 98 163
62 98 159
62 99 169
62 98 164
61 97 159
62 98 160
62 98 161
62 98 162
62 98 160
61 97 157
63 99 169
61 97 154
62 99 168
61 98 159
62 99 169
62 98 159
62 98 165
63 99 165
62 99 167
62 98 161
61 97 158
61 98 161
61 97 161
62 98 162
62 98 161
61 98 165
62 98 161
62 98 161
62 98 160
61 98 161
62 98 164
62 98 159
62 98 159
62 98 161
63 99 168
62 98 162
61 96 159
62 98 160
63 99 169
62 98 158
62 98 160
62 98 159
62 98 163
62 98 162
62 98 161
62 98 161
63 99 165
63 99 163
61 98 161
62 98 161
62 98 161
62 98 164
62 98 164
62 98 159
62 98 159
62 98 162
61 96 153
61 96 151
63 99 166
62 98 158
63 99 164
61 97 150
62 98 154
62 98 164
61 97 157
62 98 159
62 98 167
63 98 155
61 97 156
61 97 158
62 98 156
60 96 149
63 99 164
60 96 144
61 97 155
61 97 152
61 97 150
62 98 160
61 97 158
62 97 149
62 97 154
61 97 152
62 97 152
61 97 152
62 97 153
61 97 153
62 97 155
61 96 145
61 97 155
60 95 142
61 96 144
62 97 153
59 94 129
60 95 139
62 96 149
61 95 145
60 95 135
60 95 139
60 94 143
77 91 99
104 92 0
102 86 0
102 90 0
95 83 0
114 100 0
115 102 0
108 98 0
113 100 0
102 90 0
107 96 0
118 105 0
120 107 0
116 103 0
115 102 0
118 107 0
116 103 0
108 95 0
124 111 0
126 111 0
124 110 0
127 115 0
120 109 0
128 117 0
123 109 0
122 107 0
126 111 0
126 113 0
123 110 0
131 118 0
126 112 0
123 108 0
127 113 0
128 114 0
128 114 0
130 114 0
132 117 0
128 114 0
131 112 0
128 112 0
130 115 0
133 125 0
134 126 0
139 139 0
151 153 0
143 141 0
151 152 0
148 150 0
151 151 0
144 144 0
143 146 0
150 153 0
149 151 0
142 143 0
153 156 0
153 156 0
150 152 0
155 159 0
153 158 0
155 157 0
158 165 0
160 167 0
153 159 0
159 168 0
158 163 0
158 165 0
165 174 0
156 163 0
158 163 0
156 165 0
159 169 0
165 177 0
165 179 0
164 176 0
165 175 0
166 179 0
162 171 0
160 171 0
161 174 0
162 175 0
167 180 0
166 178 0
164 177 0
167 180 0
163 178 0
162 174 0
162 178 0
164 176 0
166 184 0
166 179 0
167 180 0
165 182 0
166 178 0
165 181 0
166 181 0
167 182 0
164 178 0
167 183 0
164 179 0
169 185 0
168 185 0
169 184 0
172 192 0
169 188 0
168 185 0
167 186 0
168 184 0
169 186 0
170 187 0
174 198 67
175 199 88
172 196 80
170 194 57
173 196 84
172 196 67
173 197 67
175 198 80
174 197 62
174 198 67
171 195 57
174 198 62
174 198 95
173 196 62
172 195 72
168 193 76
175 199 80
171 194 57
174 198 72
175 197 72
171 195 76
168 191 67
174 197 80
175 198 44
174 198 62
174 198 92
171 194 62
172 197 92
173 196 62
173 196 67
173 197 80
174 199 88
174 199 84
173 198 88
172 196 51
172 195 57
171 194 67
171 194 67
170 194 67
173 197 105
175 199 67
172 196 62
171 194 67
173 195 57
173 198 76
172 196 92
173 196 76
169 192 67
172 196 84
174 197 88
169 193 67
171 194 44
173 197 67
171 194 44
171 194 57
168 191 51
172 195 99
173 196 80
176 200 102
173 197 76
174 198 80
172 195 62
171 194 67
173 198 57
171 195 72
170 193 80
171 194 67
173 197 88
173 196 72
170 193 57
173 196 67
170 193 72
171 195 67
171 194 67
174 198 67
171 194 72
171 194 99
176 200 88
174 197 62
174 197 72
171 195 80
173 196 84
171 193 84
169 192 88
171 194 67
168 190 80
177 200 105
170 194 67
174 196 92
172 195 67
172 194 76
173 196 88
170 192 76
156 178 92
110 136 154
116 141 155
112 138 149
102 127 150
114 139 148
101 128 149
101 128 139
120 145 151
110 135 152
117 142 153
97 125 152
84 114 147
86 117 161
62 99 171
62 98 169
62 98 170
62 99 172
62 98 170
61 98 171
62 98 163
61 98 167
61 98 168
61 97 164
61 98 167
61 97 162
62 97 155
60 96 157
63 98 163
61 97 158
60 96 147
58 93 150
59 94 141
60 96 155
60 95 148
59 95 143
59 95 154
59 95 150
61 96 155
61 96 151
58 93 149
60 95 152
61 97 160
62 98 163
61 97 162
62 98 158
61 97 154
60 95 153
61 96 153
61 97 156
61 96 157
61 97 162
60 96 155
61 97 157
61 97 157
62 97 163
61 97 164
62 98 163
61 97 156
61 97 157
61 97 163
61 97 157
61 96 156
61 97 157
60 96 158
61 98 161
62 98 162
62 98 163
61 97 159
60 96 157
62 97 157
61 97 158
62 98 162
62 97 155
62 98 163
61 97 156
61 97 161
62 99 167
61 97 155
62 98 160
61 97 159
61 97 161
62 98 163
61 97 158
60 96 149
61 97 156
61 97 165
61 98 160
62 98 161
61 98 168
63 99 169
62 98 161
61 97 161
62 98 160
61 97 158
61 97 157
62 98 163
61 97 160
62 98 165
62 99 167
62 98 160
62 98 161
61 97 159
62 98 160
61 97 160
63 99 170
61 97 154
62 98 155
62 98 161
62 98 161
62 98 160
61 98 166
61 97 159
62 98 165
63 99 168
62 98 162
61 97 154
62 98 164
63 99 162
62 98 164
61 97 159
62 98 164
62 98 161
62 98 160
62 98 165
62 98 164
62 98 167
62 98 163
62 98 161
62 98 159
62 98 161
62 98 162
61 97 158
62 98 160
63 99 163
62 98 165
62 98 159
62 98 157
62 98 161
62 98 160
63 98 160
62 98 158
62 98 162
62 97 160
62 98 165
62 98 159
61 97 159
61 97 155
62 98 155
62 98 162
62 98 160
62 97 155
61 96 152
62 98 160
62 98 161
61 96 149
62 98 162
62 98 159
62 98 159
62 98 155
61 97 156
61 97 150
61 96 151
61 97 154
62 98 156
61 97 156
62 97 151
62 98 153
62 98 159
62 98 159
61 97 153
61 97 152
60 95 148
62 98 158
62 98 161
61 97 156
61 97 149
61 97 153
61 97 153
62 97 155
62 98 154
62 98 157
61 97 149
62 98 155
62 97 153
61 96 148
62 98 154
62 97 149
61 96 145
61 96 145
62 98 153
61 97 147
59 94 136
60 95 141
60 95 141
62 97 152
62 96 144
60 94 131
86 91 82
98 89 0
107 98 0
106 94 0
101 90 0
110 94 0
111 98 0
105 88 0
100 88 0
109 96 0
108 94 0
105 92 0
113 99 0
108 93 0
122 110 0
113 100 0
122 109 0
113 99 0
113 99 0
119 105 0
125 111 0
123 109 0
122 109 0
120 107 0
126 113 0
120 106 0
122 108 0
124 110 0
120 106 0
131 116 0
124 110 0
122 106 0
126 111 0
125 109 0
122 106 0
135 121 0
134 124 0
129 121 0
138 133 0
140 138 0
142 139 0
141 139 0
146 149 0
143 143 0
140 139 0
143 143 0
146 146 0
148 150 0
154 155 0
149 151 0
151 156 0
142 141 0
153 159 0
156 160 0
156 160 0
151 154 0
152 154 0
156 163 0
153 158 0
155 161 0
160 167 0
155 160 0
161 168 0
156 164 0
160 169 0
158 166 0
159 168 0
157 164 0
160 170 0
160 169 0
160 169 0
156 165 0
159 167 0
162 175 0
166 178 0
162 173 0
162 173 0
160 173 0
163 173 0
164 177 0
161 174 0
163 177 0
164 175 0
162 172 0
162 176 0
164 175 0
166 181 0
164 179 0
166 182 0
164 180 0
165 179 0
165 182 0
163 176 0
168 184 0
170 186 0
167 183 0
165 180 0
168 184 0
167 183 0
169 185 0
167 182 0
168 186 0
169 184 0
169 187 0
167 184 0
163 178 0
168 187 0
167 186 0
169 187 0
174 198 88
176 199 62
173 197 76
174 198 72
171 195 80
173 196 57
177 200 92
176 199 76
172 195 51
175 198 72
168 192 36
177 201 84
174 198 67
175 199 76
170 194 76
172 195 44
171 195 62
171 196 80
174 198 76
175 199 80
174 198 76
173 197 80
173 197 72
174 197 72
170 194 76
173 196 62
174 197 72
172 196 80
175 199 76
173 197 80
171 195 88
173 197 80
169 193 36
174 198 57
174 197 84
174 198 62
170 194 44
174 197 62
171 195 62
173 197 84
174 198 80
175 198 76
171 194 72
170 194 62
171 194 72
173 196 88
171 195 72
171 195 88
169 192 72
173 197 95
170 194 80
168 191 80
173 197 62
170 193 72
171 195 72
172 196 88
171 194 72
171 194 72
172 195 51
172 194 62
173 197 80
170 193 62
173 197 72
167 190 51
170 192 44
175 199 88
171 194 88
173 196 84
168 191 62
170 192 76
172 196 57
170 193 76
170 193 88
172 194 62
171 194 62
170 192 72
172 196 76
170 194 44
170 193 80
168 191 72
171 194 84
173 196 72
174 197 72
172 195 80
166 189 51
173 196 92
170 194 72
172 195 62
169 192 51
170 192 57
175 197 84
170 194 76
170 193 57
169 192 82
115 140 155
91 119 141
102 128 150
112 138 151
106 132 141
116 142 153
116 142 150
109 135 161
123 147 144
103 129 135
116 142 143
83 112 143
95 124 142
73 105 155
62 98 167
63 99 173
62 98 169
61 97 168
63 99 173
61 98 167
61 96 158
61 97 159
62 98 160
62 98 163
61 97 157
61 97 159
61 97 160
62 98 157
62 98 160
59 94 150
59 94 149
59 94 145
61 96 155
61 96 155
59 95 144
61 97 158
59 94 147
60 96 154
61 97 157
60 96 161
60 96 153
61 97 162
62 98 160
61 97 157
60 96 152
60 96 153
60 95 153
61 97 161
60 96 155
61 97 159
61 97 162
61 97 158
60 96 153
61 98 160
60 96 157
61 96 156
61 97 161
60 96 156
62 98 160
61 97 161
60 95 149
63 99 164
61 97 159
62 98 163
61 98 164
61 97 160
61 96 160
60 96 151
61 98 164
61 97 155
61 97 155
61 97 160
63 98 161
62 99 163
62 98 165
62 98 162
61 97 160
62 98 158
60 96 158
62 98 158
61 96 155
62 98 167
62 98 159
62 98 158
61 98 162
61 97 156
61 97 157
62 98 161
62 98 163
62 98 161
62 98 157
62 97 157
61 97 155
61 98 164
61 97 157
62 98 160
63 99 166
61 98 167
62 98 160
60 96 158
61 97 157
62 98 164
61 97 158
62 98 162
61 96 152
62 98 160
62 98 166
61 97 161
61 97 159
61 97 157
62 98 166
62 98 160
61 97 155
61 97 156
62 98 163
62 98 161
62 99 164
62 98 163
62 98 164
62 98 160
62 99 165
62 98 164
62 98 162
62 98 164
62 98 160
62 98 160
62 98 157
62 99 162
62 98 155
63 98 159
60 96 153
62 99 164
61 97 157
61 97 157
62 97 159
62 98 162
61 97 161
62 98 157
62 98 165
62 98 154
62 97 156
62 98 157
62 98 161
62 98 162
62 97 156
62 98 162
62 98 158
61 98 158
62 98 160
63 98 158
62 98 161
62 98 159
61 97 155
62 98 160
61 97 157
62 98 155
62 98 156
63 98 161
62 98 157
62 98 159
62 97 155
62 97 158
62 98 158
61 97 153
61 97 147
62 98 156
62 98 156
62 97 156
61 96 148
61 97 153
62 98 161
62 97 158
60 96 142
61 96 151
62 97 154
60 95 147
61 96 142
61 96 151
61 96 148
62 97 157
62 98 160
62 98 153
62 98 155
61 97 150
62 98 153
61 97 149
61 97 150
62 97 156
62 98 154
60 95 141
61 95 140
59 93 130
61 96 147
59 93 132
60 94 140
61 96 146
61 96 142
92 99 76
101 95 0
93 86 0
105 99 0
105 101 0
104 97 0
115 111 0
110 100 0
115 105 0
106 93 0
107 93 0
100 86 0
106 91 0
115 103 0
108 92 0
105 86 0
118 102 0
121 105 0
107 92 0
121 108 0
113 98 0
119 103 0
116 98 0
122 107 0
116 101 0
119 101 0
121 107 0
115 98 0
120 106 0
123 108 0
128 116 0
123 112 0
120 111 0
131 126 0
132 124 0
139 138 0
134 130 0
130 124 0
128 125 0
139 139 0
141 142 0
139 136 0
146 144 0
151 154 0
142 142 0
142 144 0
142 141 0
155 158 0
141 142 0
150 153 0
152 155 0
150 155 0
143 144 0
150 153 0
147 149 0
156 162 0
156 160 0
151 159 0
153 160 0
157 160 0
157 163 0
152 157 0
157 163 0
155 163 0
157 166 0
154 160 0
159 166 0
157 163 0
154 162 0
160 170 0
157 168 0
157 167 0
164 172 0
163 173 0
164 175 0
164 178 0
161 173 0
165 178 0
164 174 0
165 180 0
161 173 0
166 177 0
164 180 0
162 175 0
163 178 0
165 179 0
165 178 0
167 181 0
164 177 0
165 181 0
167 181 0
167 182 0
165 181 0
165 179 0
163 178 0
166 182 0
163 178 0
169 187 0
165 181 0
167 183 0
167 182 0
167 183 0
166 185 0
168 185 0
168 185 0
167 183 0
167 183 0
171 187 0
169 185 0
176 199 72
175 199 84
175 198 67
173 196 57
172 196 76
175 199 72
173 197 67
170 194 57
172 196 57
173 197 95
172 196 72
174 198 84
173 197 67
172 194 67
173 196 67
173 196 84
171 195 62
172 195 67
173 197 57
173 197 72
176 200 92
174 198 80
172 196 88
172 196 72
172 196 84
170 194 44
171 195 72
174 197 76
169 193 62
170 193 57
173 197 99
173 197 80
175 199 76
172 196 76
172 196 76
173 197 76
170 193 62
169 193 76
175 199 72
168 191 80
174 198 76
173 197 67
170 194 72
174 198 67
172 196 67
173 197 80
167 192 72
169 194 84
170 194 84
173 197 88
175 199 84
168 192 57
173 197 72
168 193 84
173 196 76
174 198 67
172 196 72
170 194 84
170 194 72
172 196 84
170 194 72
171 194 80
168 191 67
170 193 76
171 194 57
172 195 80
171 195 92
173 197 84
170 193 80
172 196 95
174 198 92
170 194 80
169 192 84
171 194 67
171 194 57
173 196 88
171 193 62
166 190 72
170 193 88
169 192 67
171 194 84
172 195 80
173 196 88
170 193 76
168 190 67
171 194 84
171 194 76
167 190 62
169 191 67
168 191 72
171 193 92
170 192 76
169 191 72
174 197 80
133 156 117
106 133 153
104 131 147
110 136 155
115 140 153
98 125 154
113 139 156
104 130 148
97 125 153
116 142 156
110 136 143
114 139 148
84 114 154
97 124 143
82 113 151
63 98 167
62 98 166
62 99 170
62 99 172
63 99 174
61 97 159
62 98 167
62 98 167
62 98 165
62 98 167
62 98 164
61 97 163
61 97 164
62 97 155
61 97 157
61 96 152
60 95 154
60 95 154
62 98 159
60 95 147
61 97 158
59 94 143
61 96 154
60 96 159
61 97 156
60 96 154
61 97 154
60 96 157
61 96 154
60 96 153
61 97 156
61 98 162
62 97 160
61 97 157
61 97 161
60 96 151
62 98 162
61 97 163
61 97 159
61 97 160
61 98 162
61 97 157
61 97 161
62 98 157
61 97 161
60 96 151
62 98 163
63 99 162
62 98 166
61 97 163
62 98 161
61 97 156
62 98 160
61 97 161
61 97 158
62 98 161
62 98 160
61 96 151
61 97 158
62 99 167
62 98 165
62 98 165
62 98 166
61 97 159
61 97 155
62 98 165
62 98 161
60 96 159
62 98 161
62 99 166
62 98 162
62 98 159
61 97 158
61 97 158
61 98 159
62 98 159
61 97 157
61 98 161
62 99 164
62 99 170
62 98 161
63 99 169
62 98 162
61 97 155
62 98 163
62 98 157
62 99 172
62 98 164
61 96 150
62 99 167
61 96 152
63 99 164
62 98 158
62 98 164
61 98 164
62 98 162
62 98 161
61 97 157
62 98 161
62 98 160
61 97 157
62 98 161
62 98 164
62 98 165
62 98 165
62 98 160
62 98 162
61 97 156
61 97 157
62 98 164
62 98 160
61 97 154
62 98 153
63 99 163
63 99 161
63 99 165
62 98 162
61 97 156
62 98 160
61 97 156
62 98 160
63 99 164
62 98 157
62 98 161
61 97 150
62 98 163
62 98 161
61 97 161
61 97 156
61 96 156
62 98 163
61 97 149
61 97 157
62 98 164
61 96 155
62 98 157
62 98 153
62 98 160
62 98 163
61 96 148
61 97 148
62 98 161
63 99 163
62 98 163
62 98 156
61 97 159
62 97 160
61 97 156
62 98 157
61 97 151
61 97 150
61 97 156
62 97 153
61 97 152
62 98 156
62 98 157
62 98 153
62 98 158
62 98 153
62 97 156
61 96 156
61 97 154
61 96 145
61 97 153
62 98 160
61 96 150
62 98 159
61 97 151
61 97 158
61 96 147
61 97 151
61 96 145
61 96 148
60 95 140
61 96 142
60 95 143
61 97 152
62 97 148
60 95 139
59 93 131
60 95 138
60 95 142
104 108 63
106 103 0
107 106 0
119 112 0
110 104 0
121 119 0
102 97 0
113 107 0
104 102 0
105 97 0
113 108 0
116 112 0
110 106 0
109 102 0
116 106 0
115 107 0
102 90 0
105 96 0
117 107 0
115 109 0
112 101 0
119 108 0
116 105 0
118 109 0
128 121 0
121 111 0
115 108 0
126 120 0
124 116 0
123 118 0
129 120 0
130 125 0
132 128 0
138 139 0
137 133 0
132 132 0
134 135 0
147 145 0
139 138 0
148 149 0
142 139 0
140 140 0
142 143 0
144 144 0
146 148 0
147 148 0
144 145 0
143 143 0
145 144 0
146 147 0
142 141 0
154 158 0
154 158 0
148 151 0
150 153 0
151 151 0
155 160 0
155 162 0
153 159 0
156 161 0
155 162 0
150 153 0
162 171 0
160 167 0
161 168 0
156 164 0
161 170 0
161 172 0
158 168 0
167 178 0
165 178 0
161 172 0
164 176 0
161 173 0
165 178 0
161 170 0
162 173 0
165 178 0
161 175 0
165 178 0
166 179 0
164 177 0
160 171 0
161 171 0
163 177 0
160 174 0
162 174 0
165 179 0
165 179 0
166 180 0
168 184 0
164 179 0
166 181 0
163 177 0
168 184 0
166 184 0
167 183 0
167 182 0
164 179 0
165 179 0
166 182 0
165 182 0
169 185 0
165 179 0
166 183 0
167 185 0
164 182 0
166 183 0
166 183 0
173 197 80
173 196 72
173 197 76
173 196 76
174 197 84
171 195 62
173 197 57
177 200 84
171 194 57
173 197 57
172 195 57
174 198 76
173 197 67
172 195 51
172 196 88
170 194 76
173 197 80
175 199 84
172 196 57
175 199 92
174 198 72
174 199 99
171 195 62
173 198 80
173 197 88
171 194 80
170 195 80
173 196 67
175 198 72
171 195 88
173 197 67
173 196 72
173 198 92
174 198 72
172 196 67
173 196 72
172 195 62
172 196 80
172 197 108
170 194 84
174 198 84
168 191 51
171 194 57
171 195 62
173 196 102
171 196 76
172 195 57
172 195 88
171 195 88
173 197 72
173 196 76
169 193 62
169 192 76
170 195 88
176 198 80
168 192 67
166 190 62
168 192 57
170 193 84
170 194 67
169 193 67
173 197 80
167 190 88
170 193 80
172 194 88
167 190 57
173 196 76
172 196 51
172 196 88
173 195 95
171 194 72
168 192 84
172 196 62
168 191 80
172 195 76
173 196 72
172 195 92
173 196 67
170 193 80
168 191 80
167 191 88
171 193 67
166 188 51
170 193 80
168 191 80
170 191 51
169 191 67
169 192 72
169 192 62
168 191 80
176 197 88
174 196 92
169 191 67
172 193 67
158 180 97
105 131 153
107 133 149
101 128 160
113 138 157
99 126 147
104 130 154
101 129 148
90 119 150
113 138 151
126 149 145
114 140 139
102 129 135
88 118 154
85 115 149
86 116 143
69 103 166
61 98 166
62 98 161
61 98 168
61 98 163
61 97 167
62 99 170
62 98 166
62 98 169
62 98 164
61 97 159
60 96 161
62 98 166
60 96 157
61 97 158
62 96 149
59 95 153
59 94 143
60 95 150
60 95 148
60 95 153
61 96 158
61 96 157
60 96 149
59 95 152
61 96 154
59 94 150
61 97 160
61 97 155
60 96 153
60 95 160
61 97 156
61 96 153
61 97 159
60 97 160
60 96 156
61 98 162
62 98 163
61 97 161
60 96 153
61 97 152
61 96 154
62 98 162
61 97 156
61 96 158
61 97 152
60 96 154
61 96 155
61 97 156
62 98 162
61 98 166
61 97 159
61 97 161
61 98 165
61 97 164
60 96 151
62 98 158
61 97 166
62 98 157
61 98 167
61 97 156
61 96 154
62 98 163
62 98 158
62 98 160
62 98 163
62 97 160
61 98 161
61 97 160
62 98 163
62 98 161
62 98 166
62 98 164
62 98 164
61 98 159
61 96 150
62 98 163
62 98 159
62 98 164
62 98 158
62 98 162
62 98 162
62 98 160
61 97 159
62 98 160
61 98 165
62 98 160
62 98 164
62 98 160
61 97 158
61 97 157
62 98 162
62 98 159
61 97 157
62 98 158
61 97 157
61 97 156
62 98 163
62 98 160
62 99 165
62 98 164
61 98 162
61 97 158
63 99 165
62 99 166
62 98 164
62 99 165
62 98 158
61 97 156
61 97 157
62 98 156
62 98 163
61 97 159
61 97 155
62 98 167
61 97 156
62 98 162
62 98 166
61 97 155
62 98 163
62 98 161
62 98 157
62 97 153
63 99 162
62 98 159
63 99 166
61 97 153
63 99 169
62 98 159
61 97 154
62 98 160
63 99 165
62 99 163
62 98 165
61 97 153
62 97 157
61 97 158
60 96 149
62 98 154
61 97 153
61 97 156
62 97 157
61 97 152
62 98 156
62 97 160
63 99 159
62 98 160
62 98 156
61 97 153
62 98 163
62 97 156
61 97 148
61 96 142
62 97 148
62 98 154
61 97 150
62 97 151
61 96 151
62 98 161
62 97 156
60 95 148
62 98 158
62 98 151
62 97 154
62 97 150
61 96 145
61 96 149
61 96 152
61 97 154
61 97 148
61 96 147
61 96 148
61 97 151
61 96 143
61 96 143
61 96 142
60 94 134
60 95 134
60 94 133
61 95 140
60 94 135
109 105 19
119 120 0
117 114 0
108 105 0
111 106 0
114 106 0
106 105 0
114 110 0
113 107 0
109 102 0
107 102 0
112 104 0
115 108 0
116 113 0
111 107 0
115 108 0
115 111 0
113 104 0
112 107 0
121 116 0
116 113 0
114 110 0
123 117 0
118 112 0
120 116 0
125 121 0
126 121 0
119 112 0
128 125 0
129 125 0
125 122 0
128 123 0
125 123 0
134 133 0
140 136 0
134 131 0
131 128 0
140 140 0
134 129 0
140 137 0
148 147 0
137 134 0
143 144 0
140 142 0
146 146 0
149 150 0
145 144 0
152 156 0
147 150 0
146 147 0
147 153 0
154 156 0
151 156 0
156 162 0
158 161 0
155 161 0
154 159 0
150 155 0
152 158 0
154 160 0
153 161 0
159 167 0
161 168 0
154 162 0
159 169 0
159 168 0
160 169 0
155 162 0
164 177 0
160 167 0
160 171 0
158 167 0
163 173 0
163 174 0
162 174 0
166 179 0
164 177 0
166 180 0
161 171 0
164 179 0
161 171 0
164 177 0
163 175 0
166 179 0
162 174 0
168 183 0
166 179 0
162 175 0
164 178 0
159 171 0
162 175 0
164 179 0
165 181 0
160 173 0
164 179 0
166 183 0
164 180 0
167 183 0
162 175 0
168 184 0
169 186 0
165 182 0
169 185 0
163 176 0
169 186 0
168 185 0
164 179 0
170 186 0
169 188 0
176 200 88
173 196 44
173 197 84
175 198 80
177 200 95
177 201 88
172 196 84
171 194 62
168 192 76
177 200 92
174 198 67
170 193 62
175 198 57
172 196 92
173 197 76
172 196 72
173 196 67
171 194 72
175 198 62
174 197 80
172 196 57
173 197 51
174 198 84
172 196 84
171 194 62
173 197 57
174 198 67
172 196 84
174 198 76
170 195 88
171 196 88
173 198 84
171 195 72
171 194 57
167 190 62
174 197 67
171 196 72
171 195 76
171 196 62
175 198 99
175 198 67
173 196 67
171 194 80
171 194 76
167 190 57
169 193 84
171 194 76
169 193 51
169 192 80
173 196 92
175 198 80
169 192 67
169 192 72
172 196 80
172 196 80
171 194 80
171 195 62
174 198 80
172 195 84
169 191 80
170 195 72
172 195 76
172 195 84
170 193 67
167 191 80
174 197 67
170 193 92
174 198 95
173 196 92
169 193 99
171 194 57
170 194 76
167 191 62
170 193 80
169 192 80
166 188 72
168 191 57
168 191 67
171 193 51
166 188 57
165 188 57
170 194 80
169 193 80
168 191 76
170 193 95
168 192 57
169 192 62
174 196 76
169 192 44
172 195 76
170 192 88
171 193 67
173 196 72
171 193 72
168 191 80
121 145 144
96 123 154
100 127 148
97 124 138
107 133 149
100 127 150
97 125 149
97 125 137
95 123 148
101 127 145
113 138 159
107 132 145
107 133 137
83 113 137
86 117 147
88 119 149
69 103 161
63 99 176
62 98 167
63 99 169
62 98 167
61 97 163
62 98 166
62 98 165
61 98 164
62 98 163
61 97 161
61 96 158
62 98 165
61 96 155
60 96 154
61 96 144
59 94 151
61 96 160
61 96 153
60 95 149
59 95 145
62 98 163
60 95 154
61 96 153
59 94 152
61 96 159
60 96 148
61 97 155
60 96 154
61 97 157
60 96 151
61 97 156
60 96 160
61 97 157
61 97 160
61 97 160
60 96 155
61 97 155
61 97 159
61 98 158
61 97 162
61 97 158
61 98 162
62 97 155
61 97 161
59 94 150
61 97 152
61 97 159
62 98 162
61 97 161
61 97 162
62 98 164
61 97 156
62 97 157
61 97 161
62 98 159
61 97 158
62 98 164
62 98 156
62 97 158
63 99 164
62 98 162
62 99 170
61 97 160
61 97 159
62 98 171
61 97 161
61 97 152
62 98 160
61 97 158
62 98 162
62 98 159
62 98 158
61 97 161
61 97 162
61 97 161
62 98 163
62 97 154
62 98 163
61 97 153
63 99 167
61 97 154
62 98 159
63 99 161
62 98 161
62 98 159
62 98 159
61 97 159
60 95 148
61 97 152
62 98 159
62 98 161
61 97 154
62 98 165
62 98 164
62 98 157
62 98 160
62 98 160
61 97 159
63 99 167
63 99 164
62 98 168
62 98 164
62 97 155
62 98 156
62 98 157
62 98 163
61 97 156
62 98 160
62 98 164
62 98 161
61 97 154
61 97 153
62 98 163
63 100 171
62 98 159
62 98 158
62 98 160
62 98 158
62 98 158
63 99 164
62 98 161
63 99 161
60 96 149
61 97 155
63 99 162
62 98 158
60 97 155
62 98 166
61 97 150
62 98 159
63 99 162
61 97 148
62 98 161
62 98 157
61 97 155
62 98 159
62 98 160
60 95 144
62 98 162
61 96 153
61 97 154
62 98 159
62 97 156
62 97 153
62 98 161
61 97 152
60 96 149
62 98 163
62 98 161
61 97 148
61 97 156
62 97 149
62 98 159
61 97 151
61 96 154
61 96 151
62 97 152
62 98 154
62 97 156
61 96 149
62 98 154
62 97 154
61 96 142
61 96 143
61 96 150
61 96 147
61 96 149
62 97 150
60 95 136
62 97 148
61 97 151
61 96 139
60 95 138
60 95 149
60 95 138
61 96 141
61 96 143
60 94 136
71 96 125
117 117 0
113 113 0
113 110 0
112 111 0
108 108 0
116 116 0
112 110 0
112 110 0
104 99 0
108 106 0
117 116 0
117 114 0
120 118 0
112 107 0
114 113 0
119 119 0
119 113 0
115 108 0
121 118 0
111 105 0
125 118 0
124 122 0
124 119 0
119 113 0
114 111 0
123 119 0
126 121 0
128 124 0
123 120 0
132 130 0
133 133 0
134 132 0
138 136 0
137 136 0
137 135 0
136 135 0
137 134 0
148 147 0
148 150 0
136 134 0
147 144 0
141 142 0
144 143 0
146 147 0
144 145 0
149 152 0
147 152 0
151 153 0
151 156 0
145 150 0
152 156 0
151 154 0
151 154 0
149 154 0
149 154 0
153 159 0
152 158 0
156 163 0
155 159 0
157 161 0
155 161 0
152 156 0
154 162 0
159 165 0
159 168 0
158 165 0
159 169 0
156 165 0
156 163 0
158 165 0
160 169 0
164 175 0
164 176 0
164 177 0
163 175 0
167 180 0
163 172 0
159 171 0
164 178 0
160 172 0
162 172 0
165 180 0
163 175 0
162 175 0
166 180 0
163 176 0
164 177 0
166 181 0
165 179 0
169 184 0
166 178 0
162 177 0
164 177 0
167 181 0
165 180 0
160 173 0
165 178 0
167 183 0
165 178 0
167 184 0
166 182 0
167 185 0
165 184 0
165 180 0
167 182 0
165 181 0
166 184 0
168 185 0
167 185 0
170 194 67
172 195 36
172 195 72
173 196 80
172 196 62
174 197 62
169 193 51
172 195 72
172 196 62
172 196 76
173 197 76
174 198 84
173 197 72
172 195 88
174 199 72
173 197 67
174 198 76
173 197 92
175 200 80
177 200 95
173 196 67
173 197 80
173 197 84
175 198 80
172 195 80
170 193 57
173 196 88
173 197 72
173 197 102
172 196 62
174 197 92
175 200 95
171 194 80
170 193 88
172 196 80
170 194 62
173 196 62
168 191 57
172 196 57
172 195 62
173 196 44
172 196 72
170 194 62
170 193 57
170 194 44
170 194 92
170 193 76
174 198 95
172 194 72
169 192 62
172 195 99
167 190 36
169 192 57
173 197 84
168 191 67
168 191 57
173 197 72
171 195 67
175 198 62
173 196 62
166 190 76
173 197 67
170 194 57
175 199 99
168 192 80
168 192 62
168 192 67
169 191 67
174 196 57
174 196 72
169 192 76
171 195 76
167 191 62
168 191 72
172 196 95
173 197 92
170 193 76
172 195 84
170 192 57
170 192 84
170 192 84
170 192 62
171 195 76
167 190 72
171 193 62
169 193 67
166 189 57
168 192 76
168 192 80
172 195 80
166 188 67
173 196 88
168 190 88
167 189 72
172 195 84
138 161 122
91 120 147
115 140 150
112 137 151
116 141 156
94 122 154
84 113 154
106 132 153
94 122 155
109 135 151
103 130 160
100 128 151
114 140 144
106 133 139
91 120 150
79 110 157
93 122 152
69 104 168
61 97 165
62 98 170
62 98 171
61 97 165
61 97 158
61 97 161
61 97 161
61 97 167
61 97 162
61 97 160
60 96 159
61 97 156
59 95 147
59 94 147
59 94 146
59 94 147
59 94 154
59 95 149
59 95 151
60 95 153
61 96 157
61 96 151
60 96 151
61 97 162
60 96 151
61 96 151
60 96 155
62 97 155
62 98 161
62 98 156
60 95 155
61 97 157
61 97 164
61 97 158
62 97 156
60 96 151
60 96 156
62 98 156
62 98 162
60 96 158
62 97 158
60 96 154
61 96 150
61 96 157
62 98 155
62 97 156
62 98 159
62 98 161
60 95 155
61 97 156
61 97 163
60 96 152
62 97 157
61 97 158
61 97 156
63 99 169
61 97 151
61 97 153
61 97 158
62 98 166
62 98 158
62 98 158
61 97 161
62 97 157
61 97 154
61 97 159
63 99 166
61 97 159
62 98 165
61 97 154
62 97 155
62 98 164
62 97 160
61 97 164
62 98 160
62 98 165
62 98 158
61 97 155
62 97 156
61 97 157
62 98 160
62 98 158
62 98 165
63 99 162
62 98 162
62 98 157
61 97 153
62 98 160
63 99 162
61 97 153
61 98 159
62 98 155
62 97 150
62 98 160
63 98 161
61 98 161
62 98 164
61 97 157
62 98 160
61 98 161
61 97 159
62 98 159
63 99 163
62 97 157
61 97 158
61 97 154
62 98 160
61 97 157
63 98 162
62 98 161
62 98 156
62 98 157
62 97 154
60 96 151
62 98 158
61 96 145
62 98 160
62 98 156
62 98 159
62 98 158
62 97 156
62 98 163
62 98 158
62 98 159
62 98 164
62 98 157
61 97 155
62 98 158
62 97 161
62 98 157
61 97 151
62 98 161
63 99 164
63 99 161
62 98 160
61 97 154
61 96 149
62 98 159
62 97 155
61 97 152
61 97 153
61 97 151
61 97 150
61 96 152
61 97 151
61 97 148
62 98 156
60 96 150
62 97 152
61 97 152
61 97 152
62 97 153
61 97 155
61 97 150
63 98 151
62 97 156
63 98 153
62 98 155
62 97 155
62 98 156
61 96 145
61 97 145
61 97 152
61 96 148
61 97 148
63 98 161
60 95 141
61 97 150
61 97 149
60 96 144
60 96 145
61 96 145
60 95 136
61 95 139
60 94 139
60 95 138
60 93 139
87 105 107
117 118 0
114 113 0
114 115 0
110 106 0
115 112 0
114 114 0
110 107 0
121 120 0
112 110 0
112 105 0
123 123 0
111 111 0
117 114 0
120 114 0
117 115 0
124 122 0
121 120 0
116 114 0
118 115 0
122 115 0
122 117 0
126 123 0
128 125 0
132 131 0
125 124 0
134 132 0
130 126 0
123 121 0
139 137 0
133 131 0
128 124 0
132 130 0
133 134 0
136 134 0
140 138 0
132 128 0
138 137 0
134 134 0
148 150 0
144 148 0
140 141 0
143 145 0
140 141 0
137 136 0
150 153 0
147 149 0
151 153 0
137 138 0
145 150 0
151 154 0
147 150 0
148 151 0
155 161 0
153 157 0
151 156 0
151 158 0
149 153 0
153 158 0
160 168 0
152 159 0
153 161 0
164 173 0
154 160 0
155 162 0
155 164 0
159 167 0
161 171 0
156 164 0
163 171 0
162 170 0
161 170 0
154 161 0
162 172 0
163 175 0
158 167 0
163 175 0
161 175 0
161 175 0
162 177 0
164 176 0
164 176 0
166 180 0
163 176 0
165 182 0
163 176 0
166 180 0
166 179 0
165 178 0
166 180 0
166 180 0
162 176 0
166 180 0
162 177 0
166 179 0
166 180 0
164 179 0
169 185 0
167 183 0
164 179 0
170 185 0
164 182 0
166 182 0
166 183 0
168 186 0
170 187 0
163 178 0
166 184 0
167 186 0
166 184 0
176 199 99
174 198 84
171 195 62
175 199 102
172 196 88
175 198 67
173 197 72
173 197 62
172 196 67
171 195 76
175 198 84
172 195 51
169 194 80
172 197 88
171 195 57
175 198 88
172 196 62
174 198 99
176 199 76
171 196 80
167 190 57
171 193 51
170 193 72
169 192 57
171 194 80
172 197 88
171 194 62
172 196 62
173 196 57
171 195 62
168 192 62
169 194 80
170 195 95
171 195 84
171 194 57
172 196 57
167 191 51
168 193 51
171 196 95
169 192 44
170 193 57
170 194 80
171 194 72
172 196 72
173 197 76
171 194 62
171 195 72
173 197 72
169 192 72
171 194 57
172 195 76
172 195 67
173 196 76
169 194 80
172 195 80
171 195 80
171 195 80
170 193 67
169 192 76
168 191 57
172 196 88
169 192 67
172 195 72
170 194 84
172 196 67
165 188 62
167 190 57
171 195 95
171 194 80
173 196 51
171 195 80
170 193 62
173 195 67
166 189 84
167 191 67
172 196 84
169 192 76
171 194 62
174 197 88
170 193 84
168 192 62
172 195 80
167 189 76
173 196 92
170 194 84
173 195 72
170 191 62
170 193 67
169 192 80
168 189 88
171 194 76
171 194 62
166 189 76
168 190 72
170 193 72
157 180 90
109 135 164
89 117 150
95 122 156
97 123 150
115 140 145
110 136 145
102 129 146
91 120 156
100 127 149
97 124 139
99 126 144
111 138 151
101 128 146
105 132 128
87 116 139
89 119 145
81 112 150
72 105 160
62 98 171
62 98 172
61 98 164
62 98 170
61 97 165
62 98 167
61 97 161
61 97 164
61 97 164
61 96 159
62 98 158
59 95 150
59 94 151
61 97 159
60 96 146
60 95 150
61 96 150
60 95 154
61 97 159
60 95 150
61 97 161
60 95 143
61 96 151
60 95 145
61 96 152
61 97 159
62 98 168
61 96 157
61 96 153
60 95 151
62 97 158
61 97 159
61 97 154
61 96 156
61 97 159
61 97 158
61 97 155
61 97 158
61 96 147
61 96 156
61 96 153
61 97 161
60 96 154
62 98 165
60 95 151
62 98 161
61 97 153
62 98 156
62 97 154
61 97 157
62 98 162
61 97 159
60 96 155
62 98 157
61 97 152
61 96 152
61 97 158
62 98 166
62 98 164
61 97 158
61 97 157
62 98 159
61 97 162
62 97 158
62 97 158
62 98 158
61 97 157
62 98 162
62 98 163
61 97 159
61 97 157
62 98 157
62 98 159
62 98 154
62 98 157
61 97 154
62 98 164
60 96 152
62 97 155
63 99 163
61 97 160
61 96 153
62 98 160
62 98 159
62 98 159
62 98 165
63 99 166
62 98 163
62 98 163
61 97 155
62 98 159
62 97 156
62 98 161
62 98 163
62 97 157
62 97 158
61 97 156
61 97 156
62 98 164
61 97 155
62 98 157
60 96 154
62 99 167
62 98 161
62 98 160
61 97 158
62 98 160
62 98 160
62 98 161
62 98 153
62 97 158
62 98 157
62 98 159
61 96 154
62 98 164
61 97 158
62 98 161
61 98 162
62 98 163
62 98 158
62 98 158
62 98 154
62 98 161
62 98 162
63 99 164
61 97 153
60 96 152
61 97 153
62 98 156
62 98 161
61 97 153
62 98 160
61 97 152
62 97 155
62 98 157
62 98 156
62 97 154
61 97 152
61 97 159
62 98 161
62 97 155
61 97 150
62 97 155
61 97 155
63 99 160
62 97 155
61 97 156
62 97 152
63 98 160
61 97 152
63 99 160
61 97 158
62 98 155
61 97 153
62 97 149
62 98 156
62 97 154
62 98 159
62 97 149
61 97 153
61 96 149
61 97 157
60 95 137
61 97 153
60 95 143
61 96 146
61 96 144
61 96 144
61 97 145
61 96 145
61 96 149
59 94 134
59 94 129
60 94 135
59 93 125
60 94 140
96 105 85
116 118 0
113 110 0
115 113 0
112 115 0
120 120 0
111 106 0
118 117 0
112 109 0
104 101 0
115 117 0
117 113 0
120 120 0
116 114 0
114 112 0
122 119 0
112 107 0
123 119 0
118 114 0
126 124 0
120 116 0
114 109 0
121 117 0
127 123 0
122 121 0
129 126 0
131 129 0
129 125 0
132 132 0
130 131 0
130 130 0
131 129 0
141 141 0
138 140 0
141 141 0
139 138 0
140 142 0
135 135 0
135 134 0
145 149 0
141 142 0
147 147 0
138 139 0
147 151 0
147 152 0
142 142 0
149 150 0
145 150 0
150 155 0
145 148 0
151 154 0
142 141 0
155 159 0
153 160 0
151 154 0
152 158 0
155 161 0
162 170 0
158 166 0
153 158 0
153 158 0
154 162 0
153 159 0
159 169 0
154 159 0
159 169 0
161 173 0
161 169 0
154 164 0
161 169 0
159 168 0
156 165 0
163 173 0
159 171 0
165 178 0
163 175 0
165 180 0
159 169 0
170 186 0
165 180 0
162 172 0
164 176 0
163 175 0
162 175 0
162 175 0
161 173 0
169 185 0
165 179 0
161 176 0
166 181 0
165 178 0
164 178 0
166 182 0
163 179 0
166 181 0
166 179 0
166 183 0
165 181 0
167 183 0
166 182 0
164 180 0
168 187 0
165 180 0
164 179 0
168 186 0
166 182 0
168 186 0
166 182 0
165 182 0
167 183 0
171 195 57
173 195 72
172 196 51
172 196 80
173 198 72
175 199 67
170 194 88
174 198 51
174 197 67
171 196 76
175 198 76
174 197 84
172 195 76
167 191 51
173 197 84
172 196 88
170 194 57
172 195 80
171 195 67
171 195 84
172 197 72
173 196 67
169 193 57
175 199 76
172 196 67
169 193 76
173 197 72
169 193 67
173 197 67
170 193 76
170 194 72
171 195 72
173 196 67
173 197 72
174 198 67
169 193 76
174 198 80
170 193 36
168 193 72
173 196 67
173 197 72
168 192 72
173 196 57
172 196 72
172 195 80
171 195 76
170 194 72
169 193 76
171 195 80
172 196 80
170 193 62
169 192 62
170 195 72
174 198 76
170 194 102
169 193 88
168 193 76
171 194 76
173 197 72
170 194 76
171 195 95
174 197 57
169 192 80
167 190 51
167 192 92
171 195 84
171 194 92
169 193 76
170 194 67
167 190 76
166 190 62
171 194 72
162 186 72
170 193 67
171 194 84
171 195 76
174 197 72
170 194 67
164 188 72
169 192 57
170 193 76
175 198 99
171 194 72
169 193 80
166 189 80
173 196 62
167 189 76
166 190 76
167 189 76
169 191 80
167 189 67
169 192 76
173 196 92
170 193 51
169 191 57
174 196 88
114 139 136
110 136 150
107 132 142
104 130 151
91 119 147
103 130 168
115 139 161
104 130 156
100 127 158
93 121 145
96 125 143
100 128 145
110 135 142
103 130 126
115 141 122
90 119 143
88 118 144
91 120 143
76 108 150
62 99 168
62 98 165
62 98 166
62 98 167
62 98 166
63 99 172
62 98 162
62 98 165
61 96 156
61 97 164
60 96 155
60 95 148
60 95 160
59 95 146
59 94 153
60 95 151
61 97 155
60 96 157
59 94 151
59 95 151
60 95 155
61 96 154
60 96 161
62 98 155
59 94 151
62 97 157
61 97 151
61 96 158
61 97 157
62 98 165
60 96 151
61 97 160
61 97 157
62 97 159
61 96 149
61 98 159
61 97 155
61 97 156
61 97 161
61 97 160
61 97 158
61 96 150
62 98 160
61 97 153
62 98 162
61 97 158
61 97 149
61 97 156
61 97 155
61 97 154
61 96 156
62 97 158
62 98 160
62 98 160
61 97 156
61 96 148
62 98 160
62 98 163
62 97 156
62 98 162
62 98 161
62 98 157
62 98 163
61 97 155
62 97 155
62 98 156
61 97 157
61 97 161
61 97 157
61 97 161
61 97 157
62 98 161
60 96 152
61 97 160
63 99 167
61 97 150
62 98 158
61 97 156
62 97 152
61 97 157
61 96 153
62 98 163
61 97 155
61 97 153
61 97 153
62 98 159
62 98 162
61 97 155
61 97 159
62 98 159
61 97 158
61 97 148
61 97 158
61 97 151
62 98 157
62 98 163
62 98 163
62 98 160
61 98 158
61 97 160
63 99 164
62 98 156
62 98 158
63 99 160
63 99 164
61 97 155
62 98 158
61 97 158
62 98 162
62 98 161
61 97 156
60 96 150
62 98 163
63 99 163
62 98 163
62 98 157
62 98 154
61 97 155
62 98 159
61 97 156
61 98 162
61 97 160
61 97 151
62 98 156
63 99 167
62 97 156
62 97 155
62 98 155
62 98 159
62 97 150
62 98 162
61 97 155
61 97 151
61 97 156
62 98 160
61 96 151
61 97 155
62 98 159
62 97 156
62 98 160
61 96 147
61 97 152
62 98 156
62 98 154
61 97 151
61 97 147
62 98 156
62 97 151
61 97 150
60 95 133
62 98 155
61 97 151
61 97 150
61 96 150
62 97 153
61 96 145
61 97 154
63 99 163
60 96 141
61 96 148
61 96 147
62 97 148
61 96 147
61 96 144
61 96 145
61 95 142
61 96 142
60 94 137
61 96 140
60 95 142
62 97 148
60 94 135
60 95 143
61 95 142
59 93 120
108 117 81
113 113 0
116 115 0
118 118 0
106 105 0
122 120 0
111 108 0
111 110 0
120 118 0
122 121 0
119 116 0
129 126 0
119 116 0
124 122 0
125 126 0
119 118 0
123 121 0
116 116 0
121 118 0
126 126 0
125 121 0
121 117 0
131 129 0
123 119 0
120 122 0
129 129 0
124 119 0
135 132 0
125 121 0
131 130 0
122 119 0
136 136 0
132 133 0
140 143 0
136 136 0
132 132 0
144 147 0
139 139 0
149 152 0
146 148 0
149 150 0
145 147 0
143 145 0
145 146 0
147 149 0
144 145 0
145 147 0
150 153 0
150 155 0
156 165 0
147 152 0
156 163 0
148 155 0
150 157 0
150 154 0
148 153 0
154 162 0
157 162 0
154 158 0
149 157 0
153 161 0
158 165 0
158 163 0
159 166 0
164 175 0
161 168 0
157 165 0
162 170 0
158 167 0
160 170 0
159 169 0
155 162 0
161 171 0
164 177 0
160 172 0
157 167 0
161 175 0
162 174 0
166 178 0
165 180 0
161 173 0
163 175 0
162 176 0
165 178 0
162 177 0
164 176 0
161 173 0
163 176 0
166 181 0
167 185 0
164 178 0
164 178 0
165 180 0
161 176 0
167 185 0
162 176 0
167 181 0
164 180 0
162 179 0
165 178 0
166 182 0
167 185 0
169 188 0
166 185 0
164 181 0
166 183 0
171 190 0
167 185 0
169 188 0
167 184 0
174 197 76
177 200 95
173 197 76
173 197 80
173 197 84
175 199 76
172 195 84
172 195 57
173 195 62
171 196 80
170 194 84
175 199 80
175 199 95
172 196 76
174 197 80
172 196 62
174 198 62
172 196 57
171 195 76
173 196 72
169 193 67
173 196 80
169 192 67
168 192 67
172 196 67
173 197 80
173 196 57
170 193 67
171 195 57
169 192 62
170 194 62
172 196 88
173 197 76
172 196 67
173 196 84
173 197 80
172 196 62
172 197 62
172 196 72
166 191 76
170 194 84
170 194 62
171 194 57
172 195 80
173 196 57
171 195 72
172 195 57
170 194 57
174 197 76
172 196 80
169 193 80
172 196 67
170 193 76
168 193 80
168 192 67
172 195 62
173 196 76
166 188 51
168 192 67
168 192 80
170 194 80
171 195 84
166 189 67
170 193 67
169 193 84
166 190 80
170 193 80
169 193 88
170 194 84
168 192 72
167 190 72
168 191 72
169 192 76
170 193 51
170 194 72
166 189 62
165 188 51
165 188 76
166 189 51
164 187 62
169 193 76
170 194 62
169 193 84
174 197 88
170 192 80
168 190 72
172 195 76
172 195 88
171 194 102
164 186 67
170 193 67
171 192 57
171 193 76
171 194 88
169 191 76
172 194 88
144 168 134
98 125 141
110 136 154
98 126 154
98 124 153
100 127 159
106 133 144
95 123 148
95 123 157
96 123 145
109 134 136
111 137 141
103 129 143
112 137 147
95 123 137
104 132 136
79 111 155
90 120 143
89 118 139
71 105 159
62 98 167
62 98 166
63 100 175
61 97 162
62 98 165
60 96 157
62 98 165
60 96 158
60 96 159
61 97 158
60 96 149
61 96 158
62 98 160
60 96 156
61 97 156
60 96 153
60 95 149
60 96 154
60 95 149
60 95 147
60 96 156
61 97 157
61 97 153
61 96 158
60 96 150
60 95 148
61 96 153
61 96 156
61 96 147
61 97 155
61 97 157
61 97 155
61 97 158
62 98 158
61 96 154
60 95 149
61 96 153
61 96 158
62 98 159
60 95 154
61 97 161
60 96 149
60 95 144
61 97 152
60 95 152
61 96 154
61 97 161
61 97 159
62 98 162
61 97 157
62 98 159
61 96 156
61 97 156
61 97 153
60 96 149
62 98 160
62 98 162
62 98 157
61 97 153
61 97 151
62 98 160
61 97 157
62 99 165
62 98 158
62 98 161
61 97 151
62 98 167
62 98 153
61 97 156
62 98 163
61 96 151
62 97 152
62 98 159
62 98 157
62 98 163
61 96 153
63 99 166
62 98 159
61 97 161
62 98 157
61 97 156
62 98 157
61 97 161
61 97 154
62 98 162
62 98 160
62 98 159
63 99 166
62 98 163
62 98 158
61 97 157
61 97 158
62 99 165
62 97 161
62 98 161
61 97 158
63 99 165
62 97 152
62 99 164
62 97 156
62 98 156
61 97 151
63 99 162
61 96 150
61 97 153
62 97 153
63 99 164
62 98 161
63 99 167
62 98 161
62 98 162
62 98 160
62 98 156
62 99 168
61 97 153
62 98 157
63 99 163
61 97 154
62 98 161
62 98 161
62 98 159
61 96 151
61 97 157
62 98 158
61 97 156
61 97 155
62 98 160
62 98 156
62 98 154
62 98 156
62 97 155
62 98 158
62 97 153
62 98 157
62 98 159
61 97 154
61 96 155
62 97 155
62 97 153
62 98 156
61 97 150
62 98 156
62 98 158
60 96 151
62 98 158
60 96 147
61 96 145
61 96 147
61 97 153
61 96 144
61 96 144
61 97 145
61 96 144
61 97 151
60 95 141
61 96 143
61 96 143
62 97 154
61 96 141
62 98 152
63 99 160
63 98 156
62 97 144
61 96 144
62 98 150
61 96 144
60 95 135
61 96 147
61 96 142
60 95 137
60 95 134
61 97 146
58 91 125
58 92 132
106 108 31
112 115 0
115 115 0
121 123 0
127 127 0
121 121 0
118 119 0
120 120 0
116 115 0
114 116 0
123 122 0
125 125 0
117 117 0
123 125 0
117 116 0
129 127 0
130 128 0
127 128 0
125 121 0
132 133 0
131 132 0
124 121 0
134 134 0
129 131 0
132 132 0
133 131 0
126 123 0
136 139 0
135 133 0
135 132 0
138 140 0
133 135 0
141 145 0
128 126 0
140 141 0
144 146 0
144 144 0
142 142 0
138 138 0
144 147 0
146 148 0
145 147 0
147 149 0
139 140 0
146 149 0
153 157 0
143 145 0
146 147 0
152 156 0
154 159 0
153 157 0
151 155 0
152 158 0
149 154 0
150 158 0
151 158 0
155 163 0
161 169 0
150 153 0
160 169 0
156 164 0
155 162 0
158 166 0
152 158 0
157 167 0
159 171 0
157 165 0
157 165 0
156 167 0
152 159 0
158 168 0
161 172 0
159 167 0
163 172 0
162 173 0
162 172 0
162 173 0
164 179 0
161 172 0
165 175 0
161 173 0
164 179 0
160 173 0
161 174 0
160 172 0
160 175 0
164 178 0
163 177 0
166 179 0
165 178 0
167 182 0
166 181 0
162 178 0
164 179 0
168 183 0
168 187 0
168 184 0
164 180 0
167 183 0
165 182 0
169 188 0
164 179 0
167 184 0
168 183 0
168 186 0
164 180 0
166 185 0
168 186 0
168 186 0
167 183 0
174 198 88
173 197 84
173 196 72
172 195 76
175 198 76
173 197 67
169 193 57
173 197 57
173 196 88
171 195 62
174 198 80
176 199 92
174 197 62
174 198 67
173 197 80
171 195 80
167 190 51
175 198 62
172 196 67
173 197 67
170 194 88
171 195 72
171 195 76
173 196 76
167 190 51
171 196 72
173 197 84
169 194 92
173 197 76
168 191 57
169 194 76
169 192 84
172 196 57
170 193 76
168 192 51
170 194 76
171 195 72
172 196 72
170 193 62
172 196 80
170 194 80
170 194 84
175 199 92
169 194 84
169 194 67
171 194 80
169 193 67
166 189 62
172 195 84
171 194 80
169 193 62
170 195 67
170 194 80
169 192 51
170 194 92
170 194 76
173 196 57
169 193 62
164 189 80
170 194 84
171 195 80
170 194 62
171 195 72
164 186 67
170 193 84
170 195 84
170 193 76
171 195 72
168 191 76
169 192 57
165 188 76
170 193 80
169 193 80
168 191 67
169 191 62
168 192 67
171 195 72
172 195 88
171 194 88
170 193 67
163 186 57
169 192 57
167 190 76
170 193 84
166 188 72
167 190 51
169 192 72
170 192 67
170 193 88
165 189 44
170 192 62
166 190 62
168 191 76
171 194 76
161 184 72
171 193 84
156 178 84
99 126 150
101 128 157
99 126 145
97 124 138
91 119 148
98 125 156
95 122 149
95 123 146
83 113 151
113 139 155
99 126 151
91 120 146
107 133 152
98 126 148
101 128 137
99 126 132
88 117 147
86 116 136
87 117 150
68 103 165
62 99 170
61 97 159
62 98 165
61 97 157
60 97 159
61 97 159
60 95 152
60 96 159
62 98 161
60 96 159
60 96 149
60 95 153
59 95 148
60 95 148
61 96 158
59 94 156
60 95 150
59 94 145
59 95 144
59 95 152
59 94 146
62 97 154
60 95 150
60 96 156
60 96 158
62 97 155
61 97 158
61 97 154
61 96 155
61 97 161
61 97 158
61 97 160
61 97 154
61 96 150
61 96 157
60 95 145
60 96 157
61 97 160
61 97 156
61 97 155
60 96 155
61 97 158
61 97 155
62 97 154
61 97 162
61 97 159
61 96 148
62 98 160
60 96 150
62 98 161
62 97 155
61 97 158
62 98 158
60 96 155
62 97 158
62 98 161
62 98 160
62 98 161
61 97 158
62 98 157
62 98 158
61 97 153
62 98 158
62 98 160
62 98 160
62 98 161
62 98 159
60 95 148
62 98 164
61 97 159
61 97 159
61 97 153
62 97 159
61 97 156
62 98 161
62 99 167
62 98 159
61 97 158
61 97 158
61 97 151
63 98 158
62 98 162
61 97 153
62 98 159
62 98 158
63 99 163
62 97 156
62 98 160
62 98 161
62 98 153
62 98 162
63 99 162
63 98 159
61 97 155
61 98 161
62 98 160
61 97 151
61 96 154
62 98 158
62 98 153
61 97 149
62 98 165
61 97 157
63 99 167
61 97 154
61 97 154
61 96 154
61 97 151
61 97 156
63 99 163
62 99 164
61 97 158
62 97 156
61 97 154
62 98 160
63 98 160
63 99 163
62 98 159
62 98 161
61 98 161
61 97 154
61 97 154
62 98 164
62 98 161
61 97 153
62 98 158
62 98 158
62 98 163
61 97 154
61 97 152
62 97 156
62 98 161
61 96 149
62 98 159
62 98 152
62 99 164
62 97 152
61 97 153
61 97 153
61 97 153
61 96 148
62 97 150
62 97 153
61 97 151
62 98 156
61 97 148
60 95 141
62 97 154
61 97 156
61 96 143
62 98 158
61 96 145
60 95 143
62 98 155
62 97 148
62 97 150
61 95 145
61 96 147
60 94 139
60 95 135
61 96 148
60 95 140
62 97 150
61 96 141
60 95 137
60 95 140
61 96 143
60 95 139
60 95 135
61 96 141
61 96 139
60 94 134
78 102 111
118 119 0
118 119 0
117 114 0
120 123 0
121 121 0
118 118 0
118 118 0
120 121 0
120 118 0
115 116 0
119 119 0
111 110 0
127 128 0
124 125 0
120 118 0
123 121 0
134 134 0
125 125 0
126 123 0
117 116 0
125 126 0
122 122 0
132 131 0
127 127 0
137 138 0
123 123 0
132 133 0
137 138 0
136 136 0
142 144 0
131 130 0
134 136 0
138 140 0
142 146 0
142 143 0
141 142 0
140 141 0
149 152 0
139 141 0
140 140 0
144 146 0
147 149 0
144 148 0
143 147 0
140 144 0
148 153 0
149 152 0
149 151 0
146 147 0
149 153 0
147 151 0
148 151 0
155 162 0
152 160 0
150 155 0
157 165 0
150 155 0
155 164 0
152 159 0
153 158 0
157 167 0
156 164 0
153 160 0
155 163 0
160 169 0
155 165 0
160 171 0
163 176 0
164 175 0
160 170 0
159 170 0
161 173 0
158 169 0
162 175 0
161 172 0
162 174 0
164 174 0
162 174 0
164 177 0
158 169 0
164 180 0
164 178 0
164 176 0
162 171 0
163 178 0
160 173 0
162 176 0
166 180 0
161 176 0
167 181 0
168 184 0
160 173 0
166 182 0
166 181 0
168 184 0
166 181 0
167 182 0
166 182 0
167 184 0
162 180 0
165 183 0
166 183 0
170 188 0
165 183 0
166 180 0
168 185 0
164 181 0
165 184 0
165 183 0
167 184 0
173 196 72
175 198 80
175 198 80
172 197 88
173 196 44
168 193 76
171 196 80
170 194 67
172 195 67
174 196 72
173 196 76
173 197 92
169 193 57
167 191 62
172 196 95
172 196 88
171 195 72
172 196 92
171 194 67
176 199 57
171 195 92
167 191 67
168 191 80
171 196 84
171 195 72
171 195 51
169 193 62
170 194 67
172 196 95
171 195 76
169 193 72
172 196 80
172 196 92
174 197 51
169 192 76
176 199 80
173 197 84
174 197 80
170 195 92
167 191 76
166 191 67
171 195 62
167 191 62
170 193 44
170 193 67
171 195 76
172 195 80
172 196 76
170 194 67
170 194 92
173 196 76
168 192 92
168 192 62
174 198 108
172 196 80
170 194 51
171 196 84
172 195 62
172 196 88
169 192 62
166 190 102
173 196 76
174 197 76
167 191 67
167 190 62
169 192 67
171 195 84
166 190 57
168 192 92
173 198 72
167 191 67
166 190 44
170 193 76
170 194 72
164 187 72
167 189 67
167 188 62
169 192 76
165 188 67
170 194 72
169 193 80
166 189 72
167 190 67
169 193 88
175 198 99
168 191 72
163 185 57
167 190 84
167 190 62
168 190 57
169 191 88
170 192 76
162 185 51
169 191 62
169 191 80
169 191 80
168 190 72
117 142 122
94 121 126
95 123 151
87 117 154
94 122 145
93 121 145
103 129 151
93 121 150
94 121 150
94 122 154
99 126 146
87 117 145
97 124 148
107 133 151
95 124 144
83 113 148
114 139 128
71 104 148
89 118 141
84 114 148
71 105 166
62 98 165
62 98 167
62 97 157
62 98 163
62 98 165
62 98 160
63 99 169
61 97 157
61 97 157
61 97 163
61 97 156
61 96 150
61 96 156
59 94 142
60 95 153
61 97 155
61 96 151
59 95 151
60 95 149
59 94 144
60 95 147
60 96 153
59 95 149
61 97 150
61 97 157
61 97 158
59 94 143
60 96 159
62 98 163
62 98 158
60 96 152
61 97 152
61 97 159
60 95 150
61 97 153
60 95 149
60 96 155
61 97 159
60 96 145
62 98 164
60 96 150
62 97 157
60 96 154
61 97 158
61 97 156
62 98 160
62 98 162
61 97 159
62 98 159
61 97 162
61 97 154
60 95 142
61 97 158
62 97 157
62 98 158
61 97 158
61 97 158
62 98 155
62 98 160
62 98 159
62 98 160
61 97 158
61 97 150
62 98 157
61 96 152
62 97 158
62 98 156
61 97 158
62 98 159
62 98 161
62 98 158
61 97 151
62 98 156
62 97 156
61 97 152
61 97 157
61 97 151
62 98 159
62 98 157
62 98 159
61 97 155
61 97 159
61 97 152
62 98 158
61 96 150
61 97 158
62 98 160
62 98 158
62 97 155
61 96 151
61 97 149
61 97 153
63 98 159
61 97 159
62 97 155
61 97 155
62 98 165
61 97 152
62 98 159
62 98 159
62 98 161
62 98 160
62 98 160
63 98 155
61 97 150
62 97 156
61 97 154
61 96 152
62 97 153
62 97 153
63 99 162
62 98 158
62 97 156
61 97 157
61 96 149
61 97 151
62 97 158
61 97 158
63 98 158
61 97 151
61 97 155
61 97 151
61 97 149
61 97 151
62 97 156
61 97 155
62 98 157
62 98 164
62 98 161
61 97 154
61 96 154
61 97 156
61 97 145
61 97 154
62 97 152
61 96 147
61 96 152
63 99 160
63 98 157
61 97 148
62 97 150
62 97 154
61 96 151
61 97 152
62 98 153
62 98 156
60 95 140
62 98 152
62 97 154
61 97 149
62 97 153
62 97 155
61 96 144
62 97 153
61 96 149
60 96 142
62 98 149
61 96 147
61 96 150
61 96 148
62 98 148
62 97 149
61 96 147
61 95 143
61 96 142
60 95 135
60 95 133
60 94 134
59 93 129
61 95 127
58 92 131
91 108 88
122 126 0
115 114 0
119 121 0
123 124 0
101 102 0
123 126 0
121 123 0
115 114 0
123 124 0
115 112 0
128 131 0
123 124 0
123 125 0
123 121 0
124 126 0
124 124 0
127 128 0
126 129 0
138 140 0
137 139 0
127 127 0
124 124 0
135 138 0
135 138 0
142 143 0
136 138 0
135 139 0
128 130 0
126 124 0
138 137 0
142 144 0
143 144 0
140 145 0
131 132 0
147 151 0
138 141 0
138 139 0
137 140 0
142 146 0
150 157 0
147 148 0
142 145 0
150 154 0
149 152 0
145 148 0
148 151 0
151 156 0
148 153 0
149 151 0
143 147 0
153 159 0
150 155 0
156 163 0
155 163 0
153 159 0
155 165 0
152 160 0
152 159 0
155 162 0
154 163 0
155 165 0
157 168 0
156 169 0
156 166 0
155 166 0
153 162 0
160 169 0
155 166 0
158 168 0
153 164 0
158 170 0
160 172 0
155 165 0
159 171 0
159 173 0
163 172 0
158 173 0
161 174 0
164 177 0
165 175 0
166 178 0
162 174 0
165 180 0
164 179 0
163 176 0
161 176 0
160 174 0
162 174 0
163 176 0
163 178 0
162 176 0
165 180 0
169 186 0
165 180 0
165 180 0
164 182 0
163 179 0
163 182 0
166 181 0
166 182 0
164 181 0
164 180 0
166 183 0
168 185 0
167 184 0
168 184 0
169 186 0
167 183 0
163 179 0
172 191 0
173 196 57
171 195 67
173 197 51
175 199 80
175 198 76
174 198 76
172 196 84
173 197 95
173 196 62
173 197 80
171 194 80
172 195 72
170 194 67
172 195 76
170 195 92
173 196 80
172 196 72
170 194 67
171 195 62
170 194 72
172 195 51
168 192 57
170 194 84
169 193 51
169 193 67
173 196 67
172 195 67
172 195 57
168 192 36
173 196 62
171 196 84
172 195 72
171 195 88
171 195 72
172 197 88
170 194 84
171 195 67
171 195 72
170 194 76
164 187 72
169 193 76
171 194 72
168 192 84
171 195 62
170 195 84
166 189 57
167 191 57
169 194 88
170 194 72
167 191 57
170 194 67
172 197 88
169 192 51
170 194 62
168 192 57
171 196 105
167 190 62
169 193 72
167 191 57
172 195 76
174 197 80
170 193 72
170 193 72
169 192 62
172 194 80
171 194 80
170 193 76
168 193 80
169 193 76
169 193 62
167 190 84
168 191 57
169 193 84
168 191 57
170 194 84
165 187 62
172 195 72
169 193 76
168 191 84
166 189 80
169 192 57
170 193 72
168 191 72
167 191 62
169 193 25
170 193 76
164 188 76
166 189 44
167 189 67
164 186 72
164 187 57
166 189 67
167 189 51
169 191 62
171 195 76
169 191 67
166 190 62
145 167 92
91 118 134
98 125 140
93 121 141
97 124 150
98 125 144
101 128 151
98 125 147
95 123 140
94 122 149
102 129 154
101 127 137
92 119 147
105 131 145
96 124 154
97 125 138
96 124 140
85 114 145
88 117 144
83 114 147
80 111 147
66 102 167
62 99 171
61 98 163
60 96 163
61 97 162
61 97 166
61 97 160
61 96 153
61 97 160
61 97 157
61 97 157
62 98 164
61 97 158
61 97 155
60 96 157
61 97 154
60 95 147
60 96 149
60 95 153
58 93 147
60 95 145
61 96 154
60 95 154
59 94 154
59 94 147
60 95 147
61 97 157
60 96 155
60 96 154
61 97 155
61 97 150
61 97 158
61 97 157
61 97 157
60 96 151
61 97 152
61 97 153
61 97 160
60 96 148
61 97 158
60 96 153
61 97 153
61 97 148
60 96 144
61 97 156
61 96 152
61 97 161
61 97 159
62 98 159
62 98 157
61 97 157
62 98 162
61 96 152
61 97 156
62 98 159
61 97 155
62 97 153
61 96 147
61 97 156
62 98 163
61 97 159
62 98 158
62 97 156
62 98 156
61 97 168
61 97 152
61 97 154
61 97 154
61 97 156
62 97 157
61 97 157
61 97 156
62 98 164
61 97 158
61 97 152
61 97 150
62 97 156
60 96 148
61 97 153
61 96 151
60 96 150
62 98 158
62 97 156
62 98 156
62 97 154
62 97 155
63 98 160
62 98 153
62 99 165
61 97 159
62 98 159
62 98 161
61 97 155
62 98 161
61 96 149
62 98 156
62 98 156
62 98 154
61 97 154
62 98 156
61 97 155
60 96 148
62 98 159
62 98 160
62 97 152
62 98 167
62 98 160
62 98 162
61 97 158
62 97 156
62 98 157
62 98 156
61 97 152
61 97 151
61 96 148
62 97 153
62 97 152
61 98 161
61 97 150
62 98 153
61 97 149
62 98 162
61 97 151
62 98 163
63 99 161
62 98 157
61 97 151
62 98 155
62 98 157
61 97 158
61 97 157
62 97 150
63 98 160
61 97 159
62 97 156
62 97 153
61 96 147
61 97 155
62 97 152
62 98 158
62 98 156
62 97 158
61 96 144
61 95 136
61 97 147
62 98 160
61 97 148
61 96 143
62 98 157
61 96 142
62 98 154
60 96 142
61 96 145
61 96 143
61 97 151
61 97 148
61 97 151
61 96 144
61 96 144
60 95 142
60 96 143
62 97 151
60 96 140
60 94 136
61 96 142
61 96 140
60 95 136
61 96 137
62 97 146
60 95 140
59 92 121
105 111 68
120 122 0
123 124 0
118 119 0
125 127 0
128 132 0
116 115 0
116 116 0
129 133 0
115 116 0
125 127 0
124 125 0
131 134 0
132 133 0
122 126 0
124 128 0
124 124 0
127 129 0
133 132 0
130 132 0
123 125 0
126 129 0
133 139 0
136 140 0
138 139 0
134 134 0
132 130 0
133 132 0
141 144 0
128 129 0
139 143 0
132 135 0
140 143 0
143 143 0
142 147 0
136 137 0
134 140 0
143 148 0
138 138 0
139 141 0
147 153 0
145 151 0
142 147 0
152 159 0
151 156 0
146 151 0
150 157 0
144 147 0
147 155 0
148 155 0
154 161 0
150 155 0
152 159 0
151 158 0
156 165 0
153 160 0
154 161 0
156 165 0
155 165 0
153 159 0
156 163 0
152 162 0
155 165 0
154 163 0
154 164 0
155 162 0
150 159 0
161 172 0
156 163 0
159 170 0
157 169 0
157 169 0
160 170 0
160 172 0
161 171 0
158 168 0
164 176 0
161 173 0
166 178 0
163 174 0
160 170 0
157 168 0
167 181 0
163 174 0
159 172 0
162 174 0
165 183 0
164 178 0
162 176 0
163 176 0
164 181 0
162 173 0
157 172 0
162 177 0
161 176 0
168 184 0
161 177 0
161 176 0
163 177 0
165 180 0
161 176 0
166 184 0
165 182 0
167 182 0
170 187 0
169 187 0
169 188 0
168 186 0
167 183 0
167 184 0
166 184 0
173 196 72
174 197 76
171 195 44
170 194 67
172 195 62
173 197 67
171 194 51
173 197 57
174 198 72
173 197 72
173 197 76
172 196 62
171 194 62
169 192 67
175 198 72
171 195 76
169 194 92
172 197 88
171 196 84
169 193 67
168 192 72
170 194 88
171 195 76
172 196 72
172 196 72
171 194 72
173 198 67
172 196 62
175 199 88
171 196 84
168 192 72
173 196 84
170 193 67
170 193 67
174 197 67
169 193 51
170 194 80
170 194 44
172 196 72
174 199 102
170 194 51
166 190 72
169 194 84
166 190 51
172 197 102
173 196 84
169 192 36
169 192 76
168 192 88
173 196 72
167 192 67
171 195 62
171 194 72
171 194 80
167 191 84
166 190 51
170 192 72
169 193 62
166 190 44
172 196 80
172 195 72
169 193 76
169 192 76
163 186 67
164 188 72
172 194 72
170 193 72
171 194 76
164 187 76
170 194 72
166 187 51
168 192 80
169 191 76
170 193 51
167 190 44
169 193 76
166 189 84
169 191 76
170 194 88
166 189 72
167 191 67
168 193 80
172 195 76
168 192 76
167 191 67
169 193 84
168 192 80
170 192 95
168 191 80
170 192 67
168 191 67
164 187 62
167 189 80
171 193 62
166 188 76
169 191 57
169 192 72
169 192 78
103 130 139
92 119 142
93 120 152
98 124 150
90 118 153
89 117 129
85 113 145
103 129 164
94 122 147
104 130 140
91 118 134
96 124 148
103 129 151
98 125 155
103 130 144
92 121 137
91 120 144
93 122 140
78 109 149
94 123 143
88 117 143
65 100 157
62 99 173
62 99 166
61 97 160
61 97 161
62 98 164
61 97 157
61 98 158
61 98 163
61 97 160
61 97 157
61 97 158
62 98 162
60 95 151
59 95 144
60 96 148
60 95 153
60 95 147
61 97 160
59 95 145
60 96 149
59 94 132
59 94 148
60 95 155
61 96 149
60 96 155
61 97 160
60 95 144
60 96 157
60 95 151
60 95 150
60 95 146
60 95 150
60 95 155
61 97 155
60 95 148
61 97 156
61 97 156
60 96 152
61 97 154
62 98 158
62 98 160
62 98 160
61 97 153
62 98 155
60 96 148
61 97 149
61 97 152
60 96 158
60 96 161
62 98 159
61 96 155
60 96 148
62 98 159
63 99 167
62 98 160
61 97 160
61 97 157
61 97 160
62 97 158
61 98 160
61 97 152
62 98 157
61 97 150
62 97 156
62 99 164
62 98 160
61 96 156
62 98 160
61 97 155
62 98 160
62 98 165
61 97 157
62 98 156
62 98 157
61 96 148
61 97 150
61 97 157
62 98 159
62 98 156
62 97 153
62 98 163
62 98 159
61 97 156
62 98 160
62 97 152
62 98 162
61 97 152
62 98 159
62 97 148
62 98 160
62 97 157
62 97 158
62 98 164
61 98 160
62 98 159
62 98 160
61 97 156
61 97 153
61 97 153
62 98 160
61 97 157
61 97 157
61 97 154
62 98 159
62 98 155
61 97 150
62 98 158
60 96 150
61 96 151
63 98 155
61 97 151
62 98 158
61 97 157
62 98 164
62 97 158
62 97 151
61 97 151
62 98 158
61 97 155
61 97 154
62 98 162
61 97 148
61 97 151
61 97 151
62 98 153
62 98 157
62 98 160
62 97 152
61 97 151
61 97 156
62 97 153
61 96 151
61 97 155
61 96 149
60 96 142
62 98 160
62 98 158
61 97 154
62 98 152
62 97 154
61 96 143
61 97 152
61 97 152
61 97 150
61 97 147
61 97 153
62 98 160
62 98 157
62 97 153
62 98 161
61 97 144
61 96 153
61 97 147
62 97 150
61 96 145
61 96 144
62 97 149
61 96 143
61 95 140
60 95 142
60 95 139
60 95 137
60 95 134
60 95 135
61 95 144
60 94 140
60 95 136
59 94 130
62 93 125
119 120 31
119 121 0
119 121 0
124 127 0
117 120 0
122 127 0
123 125 0
109 111 0
119 121 0
127 129 0
122 124 0
127 128 0
130 134 0
121 121 0
122 124 0
126 127 0
132 135 0
130 136 0
130 131 0
129 129 0
125 126 0
133 137 0
129 134 0
136 139 0
137 139 0
139 141 0
138 140 0
133 137 0
132 131 0
133 136 0
133 134 0
134 134 0
147 151 0
141 145 0
141 143 0
138 141 0
145 149 0
146 151 0
135 137 0
144 147 0
140 141 0
143 147 0
144 149 0
143 149 0
144 149 0
143 146 0
151 156 0
142 149 0
142 145 0
155 164 0
144 150 0
150 154 0
151 158 0
146 151 0
158 165 0
151 159 0
155 162 0
157 166 0
149 156 0
157 165 0
158 168 0
153 161 0
153 161 0
158 169 0
158 166 0
158 167 0
160 170 0
156 164 0
161 171 0
152 161 0
162 173 0
160 172 0
165 176 0
154 165 0
158 168 0
157 169 0
163 176 0
165 178 0
162 173 0
158 168 0
164 179 0
160 174 0
159 170 0
162 175 0
162 174 0
167 184 0
162 177 0
163 179 0
165 179 0
159 174 0
162 178 0
162 174 0
163 176 0
163 177 0
163 177 0
164 182 0
167 184 0
160 175 0
165 179 0
167 182 0
167 185 0
166 182 0
164 181 0
166 183 0
166 183 0
168 186 0
166 182 0
167 181 0
168 186 0
166 183 0
169 187 0
171 195 57
174 198 72
174 198 95
173 197 72
172 196 80
168 192 62
173 197 62
172 195 67
173 196 67
174 197 99
170 194 80
173 197 84
171 195 62
171 195 76
172 196 92
171 196 76
170 194 62
169 194 84
173 198 88
173 197 72
172 196 84
171 197 114
170 195 102
171 196 67
170 194 57
172 197 76
169 193 57
172 196 76
168 193 72
169 193 76
172 196 72
171 195 57
171 195 72
169 193 84
174 197 62
172 196 62
170 194 36
172 195 62
169 193 80
173 196 72
170 194 84
172 195 76
171 194 76
170 193 72
168 193 88
170 194 72
170 194 72
169 193 76
164 187 72
170 194 72
169 193 88
169 193 67
172 196 80
169 192 36
169 192 88
168 192 57
171 195 67
167 191 92
165 189 80
168 191 72
170 193 57
168 192 76
166 190 72
173 196 57
171 194 72
168 192 72
173 196 76
174 197 72
171 195 62
167 189 67
169 192 72
167 190 92
171 195 80
168 190 67
168 193 80
170 193 57
168 191 84
170 194 80
165 188 76
168 191 80
166 189 67
163 185 57
170 193 62
164 188 51
166 188 76
171 193 84
173 197 108
170 193 80
169 192 72
169 192 99
167 190 76
168 191 62
167 190 88
162 184 67
164 187 72
168 191 92
165 188 57
164 187 76
130 155 126
94 122 140
99 125 145
88 115 128
106 132 157
108 133 154
103 129 147
98 125 151
90 118 129
98 125 149
97 125 156
99 126 147
85 115 134
109 135 161
112 137 150
79 109 140
79 108 143
88 117 145
84 113 139
90 119 134
83 113 139
77 109 155
62 99 170
62 99 167
61 97 155
61 98 167
62 98 167
61 97 162
61 97 158
62 98 166
62 97 158
59 95 152
61 97 161
61 97 157
61 96 155
58 93 146
60 95 157
60 95 148
59 95 153
59 94 148
60 95 149
60 96 149
59 93 154
59 94 150
61 97 155
61 96 161
60 95 149
60 95 153
61 96 149
58 93 153
59 95 155
62 97 158
61 97 159
61 97 156
60 96 149
61 96 149
59 94 143
61 97 154
62 98 161
61 97 154
61 97 157
61 97 158
61 97 157
61 96 149
61 96 145
61 97 156
62 98 163
62 98 156
61 97 162
61 96 153
62 98 164
62 98 160
62 98 156
61 97 151
61 97 157
61 97 159
61 97 159
61 97 155
61 96 153
60 96 150
61 97 155
61 97 151
63 99 168
61 97 154
60 95 147
62 98 156
62 97 158
62 99 164
62 98 156
62 98 161
62 98 158
62 98 156
62 98 159
61 97 157
61 98 158
62 98 159
63 100 173
61 97 158
61 97 156
61 97 153
62 98 160
62 98 163
63 99 158
61 96 154
62 98 152
62 97 155
61 97 155
62 98 159
63 98 160
62 98 157
61 97 163
62 98 164
62 98 160
62 97 152
62 98 158
60 95 144
62 97 157
61 97 154
61 97 157
62 97 158
62 98 157
62 97 161
61 96 147
62 98 159
62 97 153
62 98 157
61 97 156
62 98 157
61 97 156
60 96 152
60 96 143
62 97 152
61 97 155
61 97 151
62 98 158
62 98 155
62 98 156
62 98 161
60 96 147
62 98 156
62 98 159
62 97 152
60 96 147
62 97 154
62 98 156
61 97 151
62 98 155
61 97 153
61 97 149
62 98 157
62 97 153
61 97 153
61 97 149
62 97 149
62 97 155
61 96 150
61 97 151
61 97 150
63 98 158
62 97 152
62 98 159
61 96 150
61 96 149
62 97 157
60 95 145
61 96 143
61 97 150
61 96 143
61 96 144
61 96 143
60 95 140
61 97 153
61 96 149
60 96 142
62 97 149
61 97 148
61 97 152
62 97 154
62 97 145
61 96 151
60 95 144
60 94 139
60 95 136
59 94 129
58 92 126
60 95 134
60 94 136
60 94 129
60 94 130
61 95 133
76 101 118
117 123 0
121 123 0
117 120 0
124 127 0
129 133 0
114 117 0
120 122 0
124 128 0
122 126 0
131 135 0
135 141 0
130 134 0
124 125 0
126 128 0
128 131 0
124 127 0
139 141 0
134 139 0
131 134 0
134 134 0
140 142 0
129 132 0
131 134 0
132 134 0
136 136 0
134 138 0
134 137 0
134 135 0
133 135 0
144 151 0
146 153 0
132 136 0
129 130 0
134 137 0
145 150 0
140 144 0
144 150 0
146 153 0
144 152 0
145 149 0
143 150 0
148 150 0
148 153 0
143 149 0
150 156 0
146 153 0
149 158 0
145 150 0
145 153 0
150 156 0
150 155 0
153 160 0
153 161 0
149 157 0
155 163 0
147 155 0
157 164 0
150 156 0
156 163 0
149 156 0
159 167 0
150 158 0
153 162 0
156 165 0
159 169 0
159 168 0
159 170 0
159 169 0
153 160 0
160 170 0
160 171 0
160 172 0
156 166 0
163 176 0
160 172 0
159 170 0
165 178 0
158 171 0
158 170 0
162 174 0
164 180 0
160 172 0
164 178 0
160 173 0
165 179 0
164 178 0
162 175 0
162 178 0
165 180 0
165 178 0
159 174 0
168 185 0
163 177 0
163 178 0
166 181 0
164 179 0
166 183 0
166 183 0
167 184 0
162 178 0
163 178 0
164 177 0
166 183 0
166 183 0
165 182 0
165 181 0
167 186 0
165 183 0
166 184 0
168 184 0
167 185 0
173 197 76
172 196 92
175 198 72
171 195 72
170 193 44
176 200 62
167 191 62
173 197 80
168 191 51
171 195 62
170 193 67
171 194 72
174 197 62
173 196 57
171 195 88
170 195 92
173 197 80
170 194 84
173 198 84
171 195 80
167 191 62
174 198 76
169 193 72
169 194 88
172 196 72
170 193 57
169 193 67
167 192 84
170 194 72
168 192 57
171 196 44
167 191 72
168 193 72
168 193 80
171 194 84
170 194 76
174 197 92
169 193 72
171 195 76
171 195 67
172 195 72
168 192 72
171 194 72
168 192 51
170 193 57
172 196 88
168 193 80
168 192 80
168 192 72
171 195 62
171 195 76
171 195 72
167 190 51
168 193 88
167 190 67
167 191 57
166 189 51
172 195 72
175 198 80
167 190 57
170 193 57
172 196 84
169 192 51
168 192 57
167 190 57
171 195 62
172 195 80
168 192 36
164 187 62
170 193 80
167 191 72
167 191 72
169 193 57
166 191 99
166 190 72
165 189 67
169 192 67
167 190 67
172 195 67
170 193 76
168 191 80
167 190 76
163 186 72
168 191 72
168 191 72
166 189 57
167 190 72
168 191 67
167 190 76
167 190 72
164 187 67
166 188 88
166 188 57
165 187 80
167 190 72
168 191 80
168 191 84
172 194 84
158 180 105
98 124 135
97 125 143
91 118 139
93 120 144
114 139 153
104 130 144
109 133 148
81 111 147
98 125 142
98 123 150
93 120 143
87 116 144
101 127 141
106 132 156
96 124 129
96 124 126
96 124 140
88 117 130
86 115 133
86 115 137
77 109 147
68 102 159
64 100 164
62 98 163
61 97 163
61 98 160
61 97 164
62 98 157
60 96 157
61 97 158
61 97 155
60 96 149
61 96 156
59 94 145
59 94 147
58 92 138
60 95 144
60 96 148
59 95 147
59 95 156
59 95 152
59 93 150
59 94 149
59 95 148
60 95 156
61 97 152
60 96 151
61 96 148
61 97 152
59 94 140
60 96 150
61 97 153
60 96 148
61 96 152
61 97 153
60 96 157
61 96 150
60 95 144
62 98 160
61 96 146
61 97 153
61 96 154
61 97 153
62 98 150
61 98 161
61 96 150
61 97 158
60 96 154
61 97 158
62 98 167
62 98 164
62 98 162
61 96 152
59 94 147
61 97 159
62 97 157
61 96 148
61 97 149
60 96 150
61 97 155
61 97 153
61 97 154
61 97 156
61 97 151
62 98 157
63 99 159
61 97 158
62 98 159
61 97 154
62 98 157
62 98 159
62 98 156
61 97 156
62 98 156
62 98 155
61 97 158
61 97 156
61 97 149
62 98 157
61 97 152
61 97 158
61 97 155
62 97 156
62 98 160
61 97 153
61 97 154
63 99 164
61 97 159
62 97 151
61 97 155
61 97 154
62 97 154
62 97 154
61 96 144
62 98 158
63 98 160
61 96 150
62 97 148
61 97 156
62 98 165
63 98 157
62 98 157
61 96 145
62 98 161
62 98 164
61 96 147
61 97 152
61 97 156
62 98 162
62 98 162
62 98 153
62 98 160
61 97 152
62 98 158
62 98 159
62 98 152
62 98 158
61 96 142
62 98 155
61 97 149
62 97 151
63 99 163
61 96 150
61 96 144
61 97 150
61 97 148
61 97 155
61 97 147
62 98 154
62 98 159
61 97 151
61 97 150
63 98 157
61 97 151
61 96 149
63 98 150
62 97 147
62 98 156
61 97 151
61 97 155
61 96 142
62 98 162
61 97 151
61 96 145
61 97 150
60 95 143
62 98 154
61 96 144
62 97 144
63 98 154
60 95 136
60 95 143
61 96 141
60 95 141
61 95 133
60 95 142
61 96 144
61 96 144
61 96 143
60 95 135
60 96 143
61 96 144
61 96 142
59 93 133
61 95 133
60 95 133
60 95 141
60 95 138
58 91 123
111 123 84
129 135 0
121 125 0
120 125 0
129 136 0
125 129 0
122 130 0
118 119 0
126 130 0
130 136 0
125 131 0
129 133 0
131 136 0
134 137 0
129 132 0
135 139 0
128 131 0
136 134 0
131 136 0
129 135 0
130 131 0
128 131 0
133 135 0
132 136 0
142 145 0
125 129 0
136 141 0
136 138 0
143 149 0
139 142 0
136 139 0
134 137 0
144 148 0
134 138 0
142 148 0
144 147 0
150 159 0
146 151 0
146 153 0
144 148 0
139 145 0
141 148 0
140 147 0
145 153 0
153 158 0
145 151 0
143 147 0
149 157 0
147 154 0
148 153 0
151 160 0
149 154 0
148 154 0
147 154 0
156 167 0
147 157 0
151 160 0
149 156 0
154 164 0
154 163 0
155 164 0
154 162 0
150 160 0
155 164 0
160 170 0
153 166 0
153 162 0
155 165 0
157 167 0
156 169 0
160 173 0
157 168 0
160 168 0
158 172 0
161 173 0
158 170 0
161 176 0
164 178 0
157 168 0
159 172 0
157 170 0
164 177 0
163 175 0
162 174 0
162 176 0
162 178 0
165 179 0
161 176 0
162 176 0
160 175 0
164 179 0
165 181 0
164 178 0
167 184 0
168 186 0
166 182 0
162 176 0
166 181 0
163 179 0
163 180 0
164 182 0
166 184 0
163 176 0
166 184 0
162 178 0
166 186 0
167 183 0
166 184 0
164 180 0
165 181 0
164 180 0
170 188 0
170 195 72
174 198 80
172 195 62
172 196 76
175 197 57
170 194 44
175 198 88
170 194 62
174 198 80
174 198 95
172 196 67
168 192 57
173 197 80
172 196 80
170 194 88
171 194 72
173 198 80
170 193 76
169 193 67
172 196 72
170 194 67
171 195 76
173 196 67
168 192 57
172 197 99
171 195 57
170 194 72
173 197 84
171 195 67
168 191 62
168 192 67
172 196 84
171 195 80
171 195 57
167 192 62
169 193 72
173 197 84
168 193 72
172 195 62
168 192 62
167 191 92
170 195 62
171 195 62
171 195 76
171 195 88
167 190 44
170 195 88
169 192 57
171 195 62
169 192 57
171 195 67
166 191 84
166 190 62
169 193 80
166 190 76
170 194 76
169 193 80
172 196 84
168 193 51
164 188 80
168 193 76
168 191 76
171 195 67
173 196 72
169 192 62
169 193 62
168 191 57
173 196 72
170 194 76
165 189 44
166 189 80
167 191 88
169 193 80
169 194 102
168 191 57
169 193 57
169 192 57
164 187 62
168 192 51
166 189 72
166 189 57
173 197 84
168 191 84
167 190 80
165 186 51
168 190 72
168 192 84
166 190 67
161 184 76
167 190 76
167 190 62
166 188 67
160 182 62
163 184 67
162 185 67
168 191 80
170 193 88
168 190 62
162 184 67
106 132 122
108 134 151
104 130 156
98 125 159
96 123 146
94 122 147
108 135 148
105 131 150
103 128 151
92 120 145
94 121 141
85 114 145
98 124 140
103 129 142
106 133 141
95 123 136
80 110 141
99 127 145
97 124 133
79 110 144
92 121 141
75 107 153
86 115 148
61 97 162
62 98 167
61 98 166
60 96 154
62 98 157
61 96 157
61 97 158
61 96 156
60 96 155
60 96 145
60 96 154
59 94 145
60 96 153
60 95 149
60 95 145
61 97 157
60 95 154
60 95 136
61 97 153
61 96 150
59 94 150
58 92 141
61 97 149
59 94 148
60 96 151
60 95 141
60 96 159
62 97 162
60 96 149
60 95 145
61 97 153
60 95 152
61 96 155
60 95 144
60 95 144
61 96 149
60 95 140
60 96 158
61 97 157
61 97 160
60 96 148
60 96 147
61 96 147
61 97 155
60 96 153
61 97 155
62 97 151
62 97 153
61 97 153
61 97 157
61 97 155
61 97 149
62 97 159
61 97 152
60 96 148
61 98 160
61 96 154
62 97 156
62 98 157
62 97 156
62 98 158
61 97 156
60 95 147
62 98 160
61 97 157
61 97 150
63 99 162
62 98 160
62 98 156
61 97 149
62 98 157
62 97 151
61 97 160
62 97 158
61 97 151
61 97 155
61 97 159
61 97 151
62 98 155
62 98 156
61 96 144
62 98 161
61 97 155
63 99 164
62 97 154
61 96 155
61 97 157
60 96 147
62 98 159
61 97 150
61 97 154
62 97 156
62 98 162
62 97 155
61 97 156
63 98 158
62 98 159
61 97 157
62 98 156
62 98 161
62 97 155
61 96 152
61 97 152
62 98 161
62 98 160
60 95 145
62 97 153
61 97 155
62 97 153
62 97 156
61 97 157
62 97 153
63 99 161
62 98 155
62 98 158
61 97 152
62 97 152
61 96 150
62 97 153
62 98 154
62 97 159
61 96 148
61 96 148
60 96 145
62 97 155
61 97 148
62 98 154
61 97 152
62 98 155
62 97 155
63 99 160
61 96 149
61 97 151
61 97 149
60 95 137
60 95 140
62 97 152
62 97 149
62 98 153
61 96 143
61 97 148
61 97 145
60 96 143
61 97 145
61 96 143
61 96 141
61 96 143
61 96 140
61 96 140
61 96 144
60 96 147
62 97 152
60 95 141
60 95 142
62 97 145
60 95 136
61 96 142
59 94 133
61 96 145
60 94 129
61 95 139
60 95 135
60 94 134
60 95 135
57 91 125
59 93 118
111 118 41
131 135 0
133 143 0
128 132 0
125 130 0
129 132 0
136 143 0
123 128 0
118 120 0
126 131 0
122 129 0
126 135 0
133 139 0
128 132 0
133 133 0
125 128 0
127 129 0
131 133 0
130 130 0
136 143 0
134 142 0
131 131 0
138 142 0
129 134 0
135 143 0
141 147 0
140 147 0
140 144 0
139 143 0
137 144 0
143 149 0
140 146 0
143 149 0
133 137 0
136 141 0
139 143 0
145 152 0
144 149 0
150 155 0
144 149 0
138 143 0
147 150 0
144 150 0
148 156 0
153 160 0
144 151 0
149 156 0
146 152 0
152 161 0
151 158 0
148 159 0
151 156 0
150 156 0
149 157 0
158 165 0
150 159 0
153 162 0
144 147 0
149 156 0
158 170 0
158 167 0
149 157 0
154 164 0
151 161 0
154 163 0
155 166 0
160 170 0
155 166 0
159 173 0
162 174 0
155 166 0
159 171 0
160 168 0
161 172 0
160 170 0
161 175 0
159 172 0
157 172 0
157 169 0
160 174 0
159 172 0
165 180 0
164 177 0
161 174 0
163 178 0
159 170 0
165 179 0
166 180 0
165 179 0
164 182 0
166 181 0
164 180 0
164 179 0
164 180 0
160 177 0
166 181 0
164 177 0
166 184 0
167 182 0
165 183 0
164 180 0
165 181 0
167 182 0
165 182 0
167 183 0
169 186 0
166 184 0
168 186 0
164 179 0
163 182 0
168 184 0
165 184 0
169 192 76
174 197 76
174 198 72
172 196 51
172 197 95
174 198 67
172 195 57
169 193 44
173 197 80
172 195 72
171 196 84
174 197 99
166 190 76
172 196 84
173 197 84
169 194 72
174 199 92
171 195 72
172 196 76
172 195 67
166 190 76
168 192 44
173 197 76
172 197 84
172 197 95
171 194 51
172 195 44
172 196 62
169 193 76
170 195 76
173 196 72
172 195 51
172 196 51
162 186 67
169 194 92
170 194 80
170 195 92
171 196 95
170 194 88
174 197 62
171 195 80
172 195 80
169 194 67
169 192 51
169 195 95
171 195 72
169 193 76
167 191 80
168 192 62
170 193 57
169 192 80
164 188 62
166 189 76
171 195 84
167 190 51
170 194 80
169 193 72
165 188 80
173 198 67
167 190 62
168 192 84
167 191 88
165 188 67
168 192 44
167 191 67
167 192 72
169 194 88
171 194 72
170 193 80
168 193 92
168 191 62
165 188 57
165 188 92
168 190 62
162 184 72
167 189 67
170 194 88
166 189 67
167 190 57
168 192 95
172 195 76
164 187 76
164 188 76
167 191 57
160 183 51
160 184 62
169 193 80
169 192 62
167 189 62
168 191 72
168 191 72
171 193 105
166 188 62
165 188 99
168 190 76
168 191 76
167 190 88
165 187 102
167 191 80
134 158 111
85 114 130
91 119 142
94 121 151
106 131 141
112 137 165
92 118 134
98 125 154
88 116 141
90 119 150
98 124 148
108 133 149
96 124 147
83 112 142
95 122 136
86 115 148
83 113 143
84 113 136
102 130 137
92 121 129
91 120 131
84 114 146
88 117 140
71 104 153
60 96 157
60 96 154
62 98 165
62 98 166
62 98 159
61 97 151
61 97 151
61 97 155
60 96 158
61 97 155
60 95 150
61 97 158
60 95 150
60 96 144
60 95 152
58 93 134
59 94 145
61 96 150
61 96 148
59 93 148
60 96 147
60 95 149
60 95 144
61 96 155
59 95 155
61 97 158
60 96 151
61 96 154
61 96 155
60 96 149
61 97 153
61 97 154
60 95 154
59 94 144
62 98 155
60 95 150
60 96 152
61 97 151
60 96 147
60 96 152
61 96 142
61 97 155
62 98 157
61 97 157
62 98 162
61 97 152
61 96 155
61 97 161
60 96 144
62 98 161
62 98 156
61 97 154
61 97 162
63 99 166
62 98 159
62 98 158
61 97 159
62 97 156
60 96 148
62 98 158
61 96 154
62 97 160
60 95 147
62 98 156
61 97 153
61 96 147
62 98 159
62 97 152
62 98 158
62 98 163
61 96 148
62 98 158
61 96 151
62 98 158
62 98 160
61 96 149
62 98 161
61 97 155
62 98 153
61 97 152
60 96 153
61 97 156
61 97 153
61 97 153
62 98 159
61 97 152
62 98 160
61 97 153
61 96 150
62 98 160
61 97 151
61 97 155
62 98 155
61 97 151
62 98 151
62 97 155
62 98 159
62 98 153
62 97 157
62 97 157
62 97 152
61 97 150
62 97 157
61 97 153
62 97 159
61 98 160
62 97 156
63 98 157
62 98 159
62 98 154
62 98 156
61 97 149
61 97 151
61 96 151
61 96 144
61 97 149
61 97 154
60 96 151
62 98 153
61 96 150
61 97 150
60 96 144
61 97 148
61 96 143
61 97 147
61 96 148
61 97 149
61 97 148
62 98 156
61 96 141
61 96 143
62 97 157
62 97 154
62 97 149
61 96 143
63 98 157
62 97 148
62 98 156
61 96 152
62 98 155
60 95 139
61 97 148
61 97 148
61 96 145
62 97 150
61 96 148
62 98 151
60 95 135
60 95 136
62 97 149
60 95 137
60 95 141
60 95 141
61 96 148
61 96 141
61 96 145
61 95 135
59 94 129
60 94 137
60 95 139
61 96 136
60 94 133
59 94 130
60 94 130
78 102 114
119 126 0
133 137 0
121 127 0
127 131 0
129 134 0
126 133 0
131 137 0
132 140 0
127 130 0
122 128 0
126 130 0
126 133 0
123 127 0
134 138 0
132 140 0
126 132 0
126 128 0
135 140 0
139 144 0
132 137 0
136 141 0
127 130 0
131 136 0
131 133 0
143 149 0
133 136 0
137 138 0
132 140 0
142 146 0
145 150 0
131 134 0
142 147 0
135 141 0
143 149 0
135 141 0
133 139 0
141 148 0
143 145 0
150 153 0
143 147 0
146 152 0
142 148 0
148 153 0
144 148 0
149 155 0
147 155 0
148 153 0
153 161 0
143 148 0
152 162 0
151 159 0
154 162 0
153 161 0
150 159 0
155 162 0
156 164 0
146 155 0
156 166 0
151 161 0
154 164 0
158 168 0
155 165 0
156 163 0
157 165 0
154 164 0
160 170 0
158 168 0
160 175 0
156 166 0
160 172 0
156 167 0
161 173 0
155 166 0
159 169 0
163 175 0
161 171 0
162 177 0
159 170 0
162 175 0
160 175 0
159 171 0
164 179 0
162 174 0
166 180 0
155 168 0
167 182 0
166 182 0
161 175 0
165 180 0
158 172 0
165 183 0
161 178 0
160 174 0
162 178 0
162 174 0
165 179 0
164 181 0
167 185 0
163 177 0
162 178 0
168 186 0
163 182 0
163 180 0
170 187 0
166 183 0
167 185 0
162 179 0
168 184 0
167 184 0
165 183 0
164 182 0
167 186 0
174 197 76
173 196 76
171 195 84
171 195 51
173 197 72
170 193 72
173 197 80
172 195 76
172 196 57
172 195 72
172 195 72
172 196 62
171 195 72
169 192 62
173 197 88
172 196 92
173 197 72
170 193 57
166 190 72
171 195 72
169 193 62
171 195 105
172 195 80
172 196 84
173 196 76
169 194 44
170 195 76
172 196 72
170 193 62
169 193 62
172 195 76
168 192 72
168 192 72
172 196 84
168 192 95
172 195 80
170 195 72
171 195 67
172 195 62
167 192 84
168 192 67
171 195 76
173 197 72
171 195 80
169 193 88
169 193 67
170 194 76
171 194 67
170 194 67
169 192 62
171 195 67
173 197 72
172 196 80
165 188 67
170 194 76
171 194 62
167 192 84
168 192 67
169 193 76
167 191 80
172 196 76
167 190 62
170 193 76
167 190 62
169 193 62
167 190 76
168 191 51
166 189 62
169 193 72
169 194 95
170 194 72
166 189 76
167 190 67
165 189 76
167 190 88
166 190 76
171 194 99
162 186 67
168 192 62
164 189 99
168 191 80
167 189 57
160 184 76
169 192 92
169 193 84
166 189 62
165 187 67
161 184 67
164 185 72
171 195 67
169 192 72
166 188 76
165 188 84
165 188 67
167 190 84
160 182 36
163 186 67
167 189 84
164 187 72
155 177 105
93 121 137
107 132 155
92 119 146
81 110 141
92 119 149
93 120 143
82 111 137
96 123 137
104 130 147
90 118 153
91 119 148
102 128 158
90 119 146
90 117 134
93 121 145
96 123 134
94 122 138
96 123 131
84 113 132
95 124 141
80 110 134
81 111 144
70 103 150
62 97 161
61 97 164
60 96 157
62 98 162
62 98 162
61 96 160
61 97 155
59 94 148
62 97 155
60 96 151
61 97 159
60 95 153
60 96 150
60 95 149
59 94 146
58 93 148
60 96 154
59 94 146
61 96 152
60 95 149
62 97 149
62 98 158
61 97 154
60 95 150
61 97 157
61 96 151
61 96 151
61 97 151
61 97 156
61 96 150
61 96 154
60 95 147
61 97 153
60 95 150
61 97 156
61 97 154
59 94 140
62 98 155
60 96 151
60 95 144
61 97 160
61 97 158
62 98 159
61 97 151
61 97 149
61 97 151
62 98 164
61 96 152
61 97 156
62 98 162
61 97 157
61 97 153
62 98 160
62 97 153
61 97 157
61 97 155
60 96 146
61 97 153
62 97 154
61 97 151
60 96 152
60 96 152
62 98 156
62 98 156
62 98 159
62 98 156
61 96 149
63 98 165
62 98 158
61 97 150
62 97 150
61 97 152
63 99 162
61 97 152
61 97 148
62 98 160
61 97 152
62 98 158
62 98 161
62 98 161
62 98 156
61 97 154
62 98 158
62 98 156
60 96 142
62 98 155
61 96 150
62 98 157
61 97 152
62 98 158
61 97 155
61 97 154
63 98 155
61 97 153
62 97 153
61 96 153
60 96 144
61 97 154
62 98 155
62 97 152
61 97 151
62 97 155
62 97 150
61 96 143
63 99 158
61 97 151
62 98 153
61 97 155
61 97 152
61 96 150
62 97 151
62 97 152
61 97 151
62 98 161
60 96 143
62 98 155
61 96 149
61 97 149
62 97 152
62 98 156
61 96 149
61 97 155
61 97 150
61 96 144
62 98 157
63 99 161
60 96 148
62 97 153
61 97 155
61 96 147
61 96 145
61 96 147
62 97 153
61 96 142
62 97 150
62 97 154
61 97 150
61 96 145
62 97 151
61 95 141
62 97 154
62 97 151
61 97 147
61 96 149
62 97 149
62 97 149
62 97 152
61 96 145
61 96 140
61 97 145
62 97 150
61 97 145
61 96 144
61 97 145
61 96 142
60 94 137
61 96 139
60 95 141
58 92 130
59 94 133
61 95 137
59 94 129
58 93 125
59 92 129
91 108 94
120 127 0
117 122 0
131 139 0
123 130 0
127 135 0
125 131 0
132 144 0
132 137 0
130 136 0
126 133 0
123 125 0
132 136 0
121 129 0
132 134 0
134 141 0
131 134 0
128 131 0
133 136 0
138 142 0
123 127 0
132 136 0
137 144 0
130 134 0
141 147 0
125 126 0
139 144 0
130 135 0
135 142 0
139 146 0
147 153 0
147 155 0
138 142 0
147 154 0
148 154 0
145 151 0
148 156 0
143 150 0
148 156 0
143 150 0
151 158 0
152 160 0
146 156 0
148 154 0
145 152 0
153 161 0
154 163 0
144 149 0
148 158 0
142 147 0
153 161 0
152 159 0
143 147 0
152 161 0
157 163 0
152 160 0
147 156 0
159 171 0
159 165 0
152 160 0
152 162 0
161 174 0
160 170 0
155 165 0
151 163 0
155 166 0
156 166 0
165 178 0
160 171 0
154 165 0
161 174 0
161 173 0
153 166 0
160 172 0
161 175 0
162 176 0
161 174 0
164 177 0
160 176 0
160 176 0
159 172 0
164 180 0
163 177 0
164 179 0
162 175 0
163 179 0
162 173 0
158 173 0
162 176 0
164 180 0
159 175 0
163 178 0
165 182 0
164 178 0
168 186 0
163 177 0
164 182 0
164 181 0
163 177 0
165 181 0
167 183 0
161 178 0
165 181 0
160 176 0
164 181 0
168 186 0
170 187 0
169 187 0
166 184 0
168 187 0
166 185 0
164 183 0
170 190 0
171 195 80
171 195 80
172 195 72
174 198 92
171 195 80
170 193 67
174 198 80
169 193 67
172 195 72
172 196 72
173 197 84
169 192 67
170 194 76
171 196 67
171 194 51
173 196 80
172 197 88
171 195 67
174 197 76
168 192 67
170 193 84
168 193 67
169 193 57
172 197 99
172 196 72
172 196 67
171 195 72
172 196 92
169 193 62
171 195 62
168 192 62
169 192 51
169 194 92
168 192 67
172 196 80
169 193 57
166 190 114
167 190 51
169 192 57
170 194 88
171 194 57
169 193 57
168 192 62
167 191 88
168 192 99
170 194 67
168 191 72
171 195 80
165 190 108
165 189 62
165 189 80
169 193 76
171 195 80
165 188 80
168 192 80
164 189 84
166 190 67
164 188 72
168 192 62
170 193 84
168 192 99
171 196 72
167 191 84
170 193 76
168 193 92
166 190 99
167 191 72
164 187 76
166 189 88
166 190 62
163 186 44
170 192 72
167 191 76
165 188 57
162 186 67
162 185 72
168 191 67
166 189 67
161 184 72
165 190 72
163 187 72
167 189 51
165 187 62
170 194 92
168 191 76
165 187 67
166 188 88
167 190 76
165 187 92
166 189 67
163 185 67
166 189 62
162 186 72
165 188 62
167 189 72
168 192 67
164 187 57
165 187 80
167 190 67
160 182 67
118 143 124
97 123 138
88 116 131
91 118 146
94 122 140
83 112 131
98 125 147
100 126 148
95 122 141
88 115 143
81 111 144
105 131 147
102 128 137
78 108 141
105 130 140
91 119 136
88 116 131
85 114 137
86 116 141
96 124 137
93 121 137
86 115 146
84 115 143
76 107 139
63 98 162
62 98 164
62 98 169
62 98 163
61 97 159
61 96 158
61 97 158
61 96 152
61 97 162
61 97 156
61 96 155
61 97 156
60 96 157
57 92 138
58 92 138
61 97 148
60 96 146
61 97 161
61 96 151
60 95 145
60 95 146
61 97 155
59 95 147
60 95 158
60 95 149
60 95 149
60 96 152
60 95 145
60 95 150
59 94 141
60 95 143
61 96 150
60 94 137
59 95 144
62 97 155
62 98 159
60 96 149
59 95 150
61 97 156
62 98 162
61 96 153
61 97 152
60 96 150
60 95 145
62 98 159
61 97 154
61 96 153
61 96 155
61 97 154
62 97 159
61 96 158
61 97 150
62 97 158
62 97 155
60 95 156
62 97 155
61 97 154
61 96 153
62 97 155
61 96 149
62 98 158
60 96 143
61 96 150
62 98 159
61 97 148
61 97 154
62 97 158
62 98 161
62 98 160
60 95 150
61 97 154
60 96 149
62 97 157
60 96 145
61 97 160
61 97 149
61 97 149
61 97 149
61 96 155
60 96 147
60 96 148
61 97 151
62 98 156
62 98 162
62 97 151
62 97 150
61 96 151
61 97 157
62 97 156
61 97 151
61 97 155
61 96 151
62 97 152
62 98 161
63 99 163
62 98 160
61 97 151
61 97 150
61 97 150
62 97 152
62 98 154
62 97 148
61 97 151
62 98 153
61 97 159
61 97 150
61 97 155
62 97 152
62 97 154
62 97 153
62 98 154
61 97 151
61 97 148
62 98 153
61 96 148
61 97 150
63 98 157
61 97 155
60 96 142
61 97 153
62 97 154
62 97 154
62 98 156
62 97 156
62 97 150
62 97 153
62 98 152
60 95 137
62 97 149
62 97 151
60 96 150
62 98 152
62 97 152
61 96 149
61 96 148
61 97 148
61 96 140
61 97 156
61 96 141
61 96 147
60 95 137
62 97 153
61 97 145
60 95 134
60 96 149
59 94 140
61 96 143
61 97 152
61 96 148
60 95 141
60 95 143
60 94 136
61 96 141
61 96 141
61 96 143
60 94 136
60 95 141
59 93 128
58 93 121
59 93 121
58 91 130
59 93 129
61 95 139
120 131 57
123 132 0
127 134 0
135 142 0
124 131 0
122 128 0
127 132 0
125 129 0
115 120 0
130 138 0
125 132 0
131 140 0
127 133 0
135 140 0
143 151 0
137 143 0
137 142 0
140 149 0
138 143 0
139 147 0
134 142 0
125 132 0
146 151 0
135 144 0
128 134 0
145 152 0
140 146 0
135 144 0
139 145 0
143 146 0
140 148 0
144 152 0
153 164 0
146 153 0
136 143 0
142 148 0
142 147 0
141 145 0
146 153 0
144 153 0
141 148 0
144 150 0
144 150 0
153 162 0
146 153 0
150 155 0
155 168 0
147 154 0
150 160 0
151 161 0
148 155 0
149 160 0
155 166 0
152 161 0
159 169 0
150 159 0
154 165 0
156 166 0
152 161 0
163 173 0
160 172 0
150 159 0
157 167 0
152 161 0
158 167 0
159 169 0
155 165 0
156 166 0
159 171 0
159 171 0
160 170 0
158 172 0
158 169 0
153 165 0
164 179 0
156 168 0
156 169 0
161 175 0
161 173 0
161 173 0
163 176 0
160 173 0
159 170 0
157 171 0
160 174 0
167 182 0
166 181 0
163 177 0
164 178 0
160 174 0
160 177 0
158 172 0
161 175 0
165 178 0
161 177 0
168 183 0
161 176 0
162 180 0
162 177 0
165 181 0
168 185 0
159 170 0
166 183 0
168 183 0
165 182 0
166 184 0
164 181 0
168 185 0
167 185 0
164 182 0
168 187 0
166 184 0
166 183 0
175 199 80
169 193 67
171 195 76
172 196 67
171 195 80
173 197 92
172 196 80
170 194 57
174 197 72
171 195 57
174 197 95
169 192 57
174 198 76
176 199 80
170 195 67
169 193 44
171 194 67
172 197 84
169 193 76
171 194 51
169 193 76
169 193 44
173 197 76
170 193 76
170 194 80
170 194 57
169 194 80
171 195 57
168 192 84
172 196 67
170 194 84
167 191 72
168 192 72
170 195 72
169 193 76
169 193 67
169 194 80
171 194 57
172 195 72
164 188 62
173 196 84
169 193 72
170 193 44
167 191 67
174 197 84
169 193 84
170 195 99
169 195 67
172 196 80
167 191 80
165 189 51
161 184 62
170 193 67
167 191 57
171 194 51
169 194 84
168 191 51
168 191 84
169 193 67
169 193 62
162 185 36
165 189 88
169 193 67
169 193 76
168 193 88
172 196 84
166 189 57
168 192 67
167 190 51
168 191 62
171 194 57
165 188 88
169 192 95
172 195 51
167 191 76
164 186 62
167 190 88
174 198 84
168 190 57
163 186 84
167 190 80
166 190 84
165 189 88
162 185 80
167 190 72
162 186 88
161 184 76
169 192 67
166 188 62
163 185 57
165 188 67
168 190 80
167 190 84
167 190 57
166 189 88
155 176 57
160 182 76
173 195 62
165 188 51
163 185 62
142 166 100
97 123 143
96 122 141
97 123 148
103 129 148
97 123 151
92 119 147
94 121 153
103 128 161
97 124 150
93 121 148
96 123 145
89 117 151
99 126 137
93 121 131
97 123 154
101 127 147
88 118 136
87 116 141
100 127 126
92 121 132
86 114 133
87 116 140
82 112 141
80 111 146
62 98 162
62 98 165
61 97 161
62 97 158
61 96 161
61 97 159
61 98 165
61 97 158
61 97 158
61 97 153
61 97 156
58 93 142
59 94 144
61 95 146
59 94 144
60 95 141
60 95 149
59 94 137
61 96 149
61 96 148
59 95 140
60 95 148
60 95 147
60 95 141
60 95 140
61 97 151
61 97 151
60 95 140
61 97 150
61 97 154
60 96 148
60 96 149
60 96 154
61 96 145
61 96 154
60 95 154
61 97 155
61 97 155
60 95 150
62 98 157
60 95 151
60 96 147
63 99 163
62 98 158
61 96 151
61 97 151
61 96 150
61 97 152
62 98 163
60 95 146
62 98 155
60 96 153
60 96 147
61 97 156
62 98 156
61 97 152
61 97 159
62 98 158
62 97 153
62 97 156
62 98 156
61 97 158
61 97 155
62 98 154
62 98 163
62 97 156
61 97 163
61 96 151
61 97 153
61 96 150
62 98 159
61 96 142
61 97 160
62 98 162
61 97 155
61 97 148
62 98 161
62 98 155
62 97 156
61 97 151
62 98 161
62 97 153
62 98 156
60 95 139
61 97 156
62 98 153
62 98 156
62 97 156
62 97 153
61 97 160
62 98 154
61 96 150
61 97 149
61 96 148
60 95 147
61 97 153
62 97 155
62 97 152
62 98 160
62 98 159
62 97 152
62 98 157
61 96 147
60 96 148
61 96 149
60 95 137
61 97 148
61 97 155
62 97 155
61 97 147
62 98 151
61 97 153
62 97 158
59 94 136
62 97 149
62 97 155
61 97 147
61 96 144
61 97 152
62 98 153
62 97 154
61 96 148
61 96 145
62 97 156
62 98 157
61 96 148
61 96 141
61 97 149
62 97 152
61 96 147
62 98 154
62 97 151
60 96 149
61 97 150
63 99 157
61 97 149
60 95 141
61 97 147
60 95 142
62 97 147
59 94 131
61 96 145
61 96 150
59 94 129
61 97 147
60 95 134
61 96 144
61 97 142
61 96 142
60 95 140
61 97 143
61 96 142
60 94 136
59 94 131
60 94 139
60 94 134
61 96 143
59 93 131
58 92 125
58 92 121
60 94 131
81 106 105
128 133 0
134 142 0
134 142 0
122 129 0
128 134 0
119 125 0
134 141 0
118 125 0
123 130 0
122 134 0
128 134 0
131 136 0
123 129 0
127 136 0
133 140 0
136 142 0
132 137 0
133 142 0
133 141 0
130 134 0
141 148 0
124 127 0
140 147 0
134 140 0
139 144 0
146 150 0
137 145 0
140 146 0
135 138 0
140 148 0
138 146 0
134 142 0
143 151 0
141 148 0
136 142 0
148 155 0
138 144 0
138 145 0
136 141 0
152 161 0
151 160 0
149 155 0
140 149 0
151 160 0
144 155 0
142 149 0
152 160 0
147 157 0
147 156 0
151 160 0
148 154 0
150 159 0
151 161 0
153 161 0
154 164 0
150 156 0
151 158 0
150 159 0
158 167 0
154 162 0
159 170 0
155 167 0
158 170 0
155 167 0
157 167 0
153 162 0
156 168 0
157 171 0
165 179 0
160 175 0
153 163 0
156 166 0
162 175 0
157 167 0
158 169 0
158 171 0
156 170 0
160 174 0
161 174 0
157 170 0
164 178 0
156 166 0
165 180 0
164 177 0
161 176 0
162 177 0
163 177 0
167 182 0
164 179 0
163 179 0
165 183 0
162 175 0
161 178 0
164 180 0
165 179 0
168 186 0
164 182 0
160 176 0
165 183 0
158 174 0
164 181 0
162 178 0
165 183 0
168 183 0
163 180 0
166 185 0
164 182 0
163 180 0
163 180 0
166 184 0
170 189 0
165 184 0
165 183 0
172 196 51
170 194 67
173 197 72
172 197 80
172 196 72
170 194 67
170 194 76
170 194 76
174 198 84
171 195 72
175 198 57
172 197 80
169 193 57
170 193 84
171 194 67
171 195 88
170 194 72
168 191 57
167 191 51
171 197 92
168 191 57
171 195 62
171 195 62
170 195 80
170 193 62
169 194 88
172 195 57
170 193 62
169 194 72
170 195 80
170 195 62
170 194 76
169 193 80
172 195 57
170 194 72
168 193 76
170 193 80
169 194 72
168 192 57
168 192 76
169 193 57
169 194 72
171 195 76
164 187 67
169 193 67
171 196 88
171 195 84
170 194 51
172 195 80
168 192 62
170 195 76
167 190 72
170 193 80
168 192 57
170 193 80
170 194 72
169 193 72
169 193 57
164 188 62
167 191 88
171 194 67
168 192 67
170 194 72
168 191 57
167 191 67
167 190 62
166 191 80
167 192 80
167 190 84
169 193 67
167 191 76
166 189 62
168 192 80
167 190 57
171 195 67
164 189 88
169 193 92
166 189 67
165 189 67
166 190 95
164 187 57
168 191 72
156 179 57
163 185 57
165 188 57
166 189 80
166 189 80
167 189 62
161 184 80
167 189 95
167 189 76
165 188 84
164 186 76
162 184 72
162 185 67
166 189 57
166 190 80
166 186 88
161 183 88
160 184 57
158 181 72
108 133 114
103 129 147
82 111 141
105 131 149
98 124 145
96 122 143
98 124 150
95 121 146
94 121 148
96 123 153
89 116 153
100 126 151
92 120 156
106 132 143
102 128 155
95 123 148
98 125 141
84 114 137
103 129 121
96 124 134
80 111 151
83 113 137
81 112 148
79 109 138
73 106 155
61 97 154
62 98 166
62 98 162
62 98 156
62 98 159
61 97 159
61 97 154
62 98 161
62 98 159
61 97 159
60 95 149
61 97 149
60 96 150
60 95 145
60 95 141
61 96 145
60 95 157
60 95 145
61 96 149
62 97 153
60 95 148
59 94 145
60 94 141
61 97 145
60 95 148
62 98 157
61 96 148
60 95 148
62 98 153
60 96 151
61 97 156
61 97 151
61 97 154
61 97 158
61 96 154
60 95 143
62 97 153
62 98 161
61 97 153
60 95 148
61 97 160
61 97 150
61 97 148
61 97 154
62 98 158
60 95 146
60 96 144
62 97 154
61 97 156
61 97 154
61 96 148
61 96 152
61 97 153
61 96 150
60 96 151
61 97 150
61 97 153
61 97 148
62 97 153
61 98 161
62 98 162
61 97 152
61 96 149
60 96 154
62 97 156
61 97 154
61 97 154
61 97 148
62 98 157
61 96 149
62 98 154
62 98 154
62 98 154
62 98 160
61 97 155
60 96 152
62 98 160
61 96 148
61 97 154
62 97 153
61 97 154
61 96 151
62 98 157
61 96 150
63 98 159
62 98 156
61 96 149
61 97 155
61 97 153
62 97 155
62 98 158
61 97 155
63 99 165
63 98 159
62 98 158
62 98 158
61 96 150
61 97 153
61 96 150
62 98 152
62 98 157
62 98 157
61 97 148
61 97 152
62 97 151
62 97 152
61 96 147
62 97 154
63 98 154
61 96 143
60 96 150
61 97 151
61 97 152
61 96 151
60 95 140
61 97 149
62 97 156
61 97 148
62 97 152
62 97 159
62 97 147
61 96 141
61 96 143
61 96 148
60 95 141
61 96 152
62 98 154
61 96 142
61 96 142
62 97 145
62 97 153
61 96 145
61 97 140
62 97 155
62 98 150
61 96 140
61 96 150
62 98 153
61 96 140
62 97 152
61 96 142
60 95 137
59 93 131
62 98 150
61 96 148
61 96 137
61 96 143
60 95 134
60 94 141
60 95 139
61 96 137
61 95 141
61 96 148
59 94 131
60 94 139
61 96 143
60 95 137
61 95 126
60 94 135
57 91 120
105 117 70
124 131 0
123 133 0
135 142 0
127 131 0
131 139 0
128 136 0
131 141 0
129 137 0
120 128 0
123 131 0
135 142 0
130 137 0
124 133 0
129 136 0
135 144 0
136 142 0
135 141 0
131 138 0
135 141 0
138 143 0
135 143 0
138 143 0
136 142 0
143 150 0
144 152 0
137 146 0
140 146 0
132 138 0
134 141 0
140 147 0
149 158 0
148 156 0
138 146 0
139 145 0
137 146 0
146 153 0
145 150 0
145 154 0
145 152 0
140 145 0
138 144 0
145 152 0
150 157 0
148 155 0
146 154 0
141 149 0
153 163 0
147 158 0
152 161 0
146 156 0
154 165 0
150 160 0
154 160 0
155 166 0
148 157 0
155 165 0
155 165 0
155 167 0
159 171 0
155 165 0
152 163 0
155 166 0
152 163 0
158 169 0
154 165 0
155 165 0
160 173 0
159 169 0
159 169 0
158 173 0
159 173 0
155 169 0
159 171 0
159 174 0
162 176 0
160 174 0
158 170 0
160 174 0
156 168 0
165 178 0
159 173 0
163 177 0
164 178 0
163 177 0
158 172 0
163 179 0
162 177 0
162 177 0
161 176 0
164 181 0
164 178 0
159 174 0
164 181 0
160 176 0
164 180 0
166 183 0
165 181 0
164 181 0
164 180 0
161 177 0
162 178 0
162 178 0
166 182 0
164 182 0
167 185 0
162 178 0
166 183 0
164 180 0
165 184 0
164 181 0
165 182 0
168 184 0
167 186 0
172 196 62
174 198 76
172 195 44
171 195 62
174 197 72
172 197 99
172 196 67
171 194 92
171 194 44
171 194 62
171 194 57
168 192 67
168 193 76
171 194 51
172 196 72
171 196 80
171 195 62
169 193 67
168 192 76
168 192 80
169 192 57
171 196 88
172 196 62
170 193 67
168 192 36
174 197 72
171 195 67
171 195 67
169 193 76
170 194 67
169 193 76
168 192 62
170 194 62
168 194 84
168 192 62
168 192 76
169 192 44
167 190 62
167 191 62
170 193 72
167 191 62
173 198 88
168 192 72
171 195 84
170 195 84
168 192 88
172 196 80
170 194 88
165 189 62
166 190 92
164 188 57
168 193 92
170 193 88
173 196 72
173 198 99
170 193 80
172 196 72
166 190 62
168 192 92
167 191 72
167 191 51
166 189 72
168 191 84
173 197 88
170 194 84
166 190 67
171 196 80
167 190 62
167 191 72
165 188 80
163 186 76
162 185 62
168 192 84
169 193 72
167 191 84
167 190 62
167 189 51
166 190 84
168 192 80
168 191 72
164 189 76
167 189 76
168 192 67
166 189 51
164 188 76
160 182 72
168 190 72
161 184 92
164 189 88
165 186 80
163 186 51
164 186 72
166 188 72
160 182 76
168 192 84
160 183 67
163 185 62
173 194 88
165 188 84
159 182 84
166 189 76
142 165 105
90 117 129
94 120 133
102 128 157
94 121 144
107 132 143
103 128 155
91 118 142
104 129 159
88 115 143
104 129 152
97 123 148
97 124 136
94 121 151
91 118 138
107 132 147
101 126 136
78 108 136
85 113 132
95 124 133
96 124 134
89 118 132
74 105 145
96 123 129
80 110 146
66 101 163
62 98 162
61 97 163
61 97 157
60 95 151
61 97 157
62 97 159
59 94 147
61 97 159
60 96 153
60 96 153
61 96 148
60 95 155
59 94 145
60 95 141
59 93 146
60 95 154
59 93 145
61 96 149
60 95 151
58 93 139
60 95 149
60 95 146
60 96 152
59 94 145
61 96 149
61 96 145
61 97 153
61 97 154
60 95 147
61 97 151
60 95 145
60 95 149
60 95 149
62 97 148
60 95 145
61 96 149
60 95 145
61 96 145
60 96 156
61 97 155
60 95 146
61 97 152
61 96 151
61 96 149
61 97 153
61 96 151
62 98 161
61 96 156
61 97 160
62 98 158
61 96 149
62 97 156
62 98 158
59 95 142
61 97 151
62 97 154
61 97 151
61 97 148
62 97 159
61 97 152
61 97 154
61 97 156
63 99 162
61 97 150
62 97 153
61 97 153
62 98 155
61 97 157
60 96 149
61 96 150
60 95 148
61 97 155
61 97 145
61 97 149
62 98 156
61 96 143
62 98 155
61 98 159
61 96 150
60 95 142
62 97 150
62 98 154
60 96 145
62 98 156
61 97 149
62 98 156
62 97 154
61 97 155
62 97 152
61 97 147
61 96 151
61 97 151
63 98 153
61 96 151
62 97 150
62 98 153
61 97 156
62 97 153
62 97 152
61 97 147
61 97 156
62 97 153
61 97 149
61 97 151
62 98 157
62 98 162
62 97 157
60 96 145
62 97 150
62 98 152
62 98 159
63 98 157
62 97 148
62 97 154
62 97 153
61 97 150
62 97 152
61 96 143
61 97 150
62 98 152
61 96 145
62 98 152
61 97 152
60 95 147
60 95 142
61 96 142
62 97 154
62 97 155
61 96 140
62 97 154
62 97 145
62 97 154
61 96 144
60 96 140
61 96 148
61 96 147
60 94 133
60 95 139
61 96 142
62 97 151
61 96 142
60 96 140
60 95 139
60 95 141
61 96 144
60 95 135
61 96 144
61 96 140
61 96 137
58 93 133
60 95 140
62 97 145
61 96 144
59 93 124
59 94 134
59 93 126
60 94 135
60 94 133
61 95 124
115 125 36
128 136 0
124 133 0
127 136 0
120 128 0
130 138 0
136 144 0
120 131 0
121 131 0
131 140 0
130 135 0
136 144 0
133 141 0
140 150 0
130 137 0
140 147 0
136 144 0
137 146 0
127 134 0
130 139 0
137 146 0
137 141 0
136 142 0
137 146 0
137 144 0
140 146 0
135 141 0
139 147 0
141 151 0
148 159 0
140 145 0
142 148 0
144 153 0
148 155 0
139 147 0
149 158 0
150 159 0
143 150 0
144 150 0
141 148 0
143 151 0
141 150 0
149 158 0
139 147 0
145 154 0
152 160 0
145 155 0
146 153 0
149 158 0
151 162 0
142 150 0
156 166 0
157 170 0
156 164 0
149 161 0
152 161 0
153 160 0
154 167 0
152 162 0
150 160 0
154 163 0
146 158 0
157 168 0
157 166 0
166 178 0
155 166 0
153 164 0
160 174 0
155 168 0
157 169 0
156 168 0
160 175 0
156 168 0
162 176 0
160 176 0
160 172 0
158 171 0
161 175 0
158 171 0
159 173 0
157 171 0
165 180 0
160 176 0
160 174 0
160 173 0
164 179 0
159 172 0
162 179 0
163 177 0
157 170 0
159 175 0
167 182 0
168 182 0
164 179 0
164 182 0
162 178 0
168 184 0
166 182 0
162 179 0
166 182 0
165 182 0
165 183 0
158 175 0
164 182 0
164 180 0
165 182 0
166 183 0
164 182 0
164 181 0
167 186 0
163 181 0
161 181 0
167 184 0
163 180 0
168 191 67
173 197 62
174 198 51
170 193 76
170 194 76
173 197 72
173 196 62
170 193 92
173 196 67
170 195 84
172 196 88
170 193 62
172 196 62
172 197 92
171 194 76
172 196 67
171 195 84
169 193 76
170 193 72
169 194 80
174 199 95
171 195 88
172 196 76
172 195 72
167 191 72
169 194 84
170 193 76
173 197 76
171 196 76
172 195 67
170 194 76
168 191 51
170 195 88
167 192 72
170 195 84
169 193 67
174 197 62
169 193 80
170 193 84
170 194 67
166 190 62
166 191 80
169 193 76
169 193 72
172 196 80
166 190 51
168 192 92
165 190 57
171 196 62
166 190 67
172 196 62
169 192 36
170 194 84
172 195 62
166 191 84
161 185 62
168 191 57
169 192 80
170 194 84
172 196 88
163 187 80
164 188 72
166 190 80
167 190 62
171 195 80
169 193 67
164 189 92
168 192 95
170 194 84
166 190 72
167 191 76
162 185 72
166 189 72
166 189 72
164 188 51
169 192 84
168 191 80
164 186 62
165 188 67
167 189 72
161 184 51
161 184 67
165 188 88
163 186 76
164 186 72
168 191 80
159 182 62
164 187 92
167 190 92
165 188 76
158 182 76
164 187 76
167 188 80
163 187 76
166 188 51
161 184 76
163 186 76
159 183 62
156 178 57
155 178 67
160 182 57
159 182 72
109 134 136
93 120 133
102 128 145
101 126 138
85 113 143
88 115 142
95 121 146
94 122 139
81 110 133
108 133 161
96 121 148
87 115 149
90 117 139
85 114 132
110 135 144
101 128 151
80 110 136
82 112 139
91 120 131
95 122 134
91 119 131
83 113 138
82 111 138
72 103 134
76 108 146
62 98 162
61 97 159
61 97 159
61 96 154
62 98 162
60 96 153
61 97 163
61 97 161
61 96 148
60 95 147
60 95 147
60 95 153
60 95 145
59 93 151
60 95 143
58 93 144
59 94 143
59 94 139
60 95 147
60 94 150
61 96 144
60 96 155
60 95 147
60 95 143
60 96 151
61 97 152
61 97 151
60 96 151
61 97 148
62 97 150
60 96 148
59 95 143
60 96 146
61 96 145
60 95 143
60 95 143
61 96 151
61 96 148
60 95 140
60 96 149
61 97 157
60 95 143
60 95 144
61 96 153
61 97 157
62 97 148
61 97 153
61 97 160
61 97 147
61 97 154
60 96 147
61 96 150
61 96 145
62 97 151
61 97 150
62 97 153
62 98 158
59 95 142
62 98 158
60 95 140
60 95 142
61 97 151
62 98 153
61 97 147
61 97 160
60 96 143
62 97 155
61 97 150
61 97 150
61 97 147
62 98 158
62 98 156
62 98 155
61 96 149
61 96 153
61 97 149
61 97 150
61 96 148
62 98 161
61 97 151
62 97 151
62 97 153
61 97 158
62 97 156
63 98 160
60 96 155
62 98 158
62 98 156
61 97 153
62 97 153
61 97 147
61 97 150
61 96 153
61 97 151
62 98 154
61 97 149
62 98 154
61 97 155
61 97 150
62 98 152
61 96 145
61 97 144
61 97 154
61 96 144
62 97 143
60 95 145
61 96 151
61 97 150
62 98 151
61 96 145
60 95 149
61 96 144
62 97 154
60 96 139
60 95 141
61 96 151
60 96 145
61 96 144
60 96 144
62 97 150
61 96 142
62 98 154
62 97 154
61 96 143
61 96 144
62 97 147
62 97 157
61 96 142
61 96 141
61 96 141
59 94 133
60 95 137
61 96 142
60 95 149
61 96 144
62 97 149
61 97 143
61 96 145
60 95 142
62 97 151
61 96 144
61 97 150
60 95 135
61 96 136
61 95 136
61 96 141
61 97 147
61 96 149
60 95 142
60 95 133
60 94 134
59 93 131
61 96 137
61 96 141
60 95 136
60 93 126
60 94 131
59 93 118
86 109 84
127 135 0
136 143 0
131 138 0
122 134 0
124 133 0
121 129 0
133 142 0
130 138 0
130 143 0
125 132 0
124 134 0
124 131 0
137 146 0
131 138 0
129 140 0
140 151 0
133 140 0
126 135 0
139 149 0
130 136 0
138 147 0
137 145 0
137 146 0
128 136 0
135 144 0
132 140 0
141 149 0
150 159 0
144 151 0
137 144 0
144 150 0
144 152 0
155 163 0
143 149 0
141 149 0
147 155 0
150 160 0
148 160 0
146 155 0
147 156 0
144 152 0
149 160 0
147 155 0
147 157 0
153 164 0
155 168 0
147 156 0
155 166 0
152 161 0
154 166 0
144 153 0
151 162 0
147 158 0
149 160 0
151 162 0
154 166 0
151 162 0
158 173 0
151 160 0
154 165 0
152 161 0
149 158 0
159 168 0
152 161 0
156 169 0
158 168 0
158 171 0
160 173 0
159 172 0
162 174 0
157 171 0
159 172 0
155 167 0
159 173 0
160 174 0
161 174 0
161 175 0
157 169 0
156 170 0
163 177 0
163 176 0
162 176 0
159 174 0
159 175 0
166 179 0
160 173 0
156 169 0
161 175 0
160 175 0
159 174 0
160 175 0
155 170 0
160 178 0
166 182 0
165 181 0
163 180 0
157 175 0
167 185 0
162 178 0
161 177 0
161 176 0
164 179 0
163 178 0
165 182 0
167 186 0
166 185 0
166 182 0
165 183 0
169 187 0
167 187 0
160 177 0
164 185 0
162 179 0
168 187 0
171 195 88
175 199 88
168 192 44
171 194 51
171 195 67
171 195 92
176 199 88
168 192 67
172 196 80
174 197 80
171 195 80
174 197 67
170 193 72
170 194 67
173 197 80
172 196 80
169 194 76
173 196 57
170 194 80
171 195 88
170 196 84
169 193 84
165 190 72
166 190 67
172 196 76
172 196 72
170 195 80
171 195 67
171 196 88
168 192 62
170 194 80
170 195 72
167 191 88
166 191 72
168 192 67
169 193 84
166 190 72
169 193 62
169 193 62
172 197 92
173 198 95
170 194 67
169 193 84
166 190 67
167 190 57
172 196 92
170 194 80
169 193 72
170 195 88
163 187 80
173 196 62
170 192 25
164 188 62
167 190 57
167 191 76
169 193 72
172 196 84
170 193 95
168 190 44
163 187 80
167 191 80
169 192 76
166 189 62
168 191 80
169 192 51
165 189 51
166 191 80
170 194 84
161 184 62
164 187 72
171 195 80
170 194 84
167 191 76
168 192 57
168 192 80
164 187 67
169 193 92
165 188 54
161 184 76
164 187 57
161 185 67
163 187 57
161 185 51
166 190 88
165 189 51
169 193 92
163 187 84
162 185 44
164 187 67
163 186 84
162 185 67
161 184 62
170 193 80
167 190 72
160 182 62
164 187 67
162 184 80
158 180 62
166 188 51
164 185 80
161 183 72
158 180 76
127 150 110
81 108 130
94 122 158
93 120 141
72 103 141
96 123 145
96 123 145
107 132 155
101 126 146
104 130 145
87 114 131
96 123 143
77 106 133
94 122 144
94 121 134
95 121 148
104 129 128
82 111 134
81 110 131
90 119 140
98 126 140
88 118 142
71 103 142
85 114 136
80 110 141
69 103 153
62 98 159
61 97 161
61 98 164
62 98 161
60 96 153
61 97 159
60 96 155
59 94 146
60 96 149
60 96 149
59 94 147
60 96 150
59 94 145
60 95 141
59 93 140
59 94 147
60 95 150
59 94 151
60 95 144
60 95 140
61 96 155
58 93 139
59 94 143
61 96 144
58 93 137
61 97 161
60 96 154
60 96 153
61 96 147
60 96 150
60 95 144
62 98 155
60 96 147
60 96 148
62 98 155
61 97 155
61 96 146
60 96 148
60 96 148
61 96 152
61 97 155
62 97 155
61 97 155
60 95 148
62 98 160
62 98 160
61 97 156
62 97 153
62 98 157
61 96 153
61 96 144
61 96 150
62 97 145
61 97 157
61 97 154
61 97 154
62 98 159
60 96 150
62 97 153
61 96 146
62 97 151
61 97 149
61 97 154
61 96 143
61 97 152
61 97 156
62 97 149
61 97 152
61 96 149
62 98 157
61 97 155
61 96 150
62 98 155
60 95 143
61 97 149
62 97 153
61 96 153
62 97 153
61 97 147
62 97 157
60 96 144
61 96 144
61 97 152
61 97 154
62 98 155
62 97 155
60 95 142
62 97 151
61 97 145
62 97 152
61 97 152
62 98 158
60 95 144
62 98 160
61 97 151
62 98 152
62 97 154
61 97 149
61 96 148
60 95 139
60 96 147
60 95 141
62 98 156
61 96 152
62 98 156
61 96 147
63 99 162
61 97 147
61 96 147
62 97 151
61 96 147
61 96 147
62 97 148
61 97 153
63 98 157
61 96 145
62 97 151
61 96 148
61 97 147
61 96 139
61 97 147
62 97 147
60 95 142
61 97 144
62 97 147
61 96 144
61 96 147
61 97 151
61 96 145
61 96 137
60 95 147
59 94 134
61 96 153
61 96 143
61 96 149
61 96 145
60 96 136
61 96 151
61 96 148
62 97 143
60 95 135
60 95 143
60 94 137
61 95 141
60 95 139
59 93 130
60 94 137
61 95 140
60 94 131
61 96 143
59 94 137
59 94 128
58 93 124
59 93 124
61 96 133
58 91 117
59 93 132
105 117 67
129 137 0
133 143 0
128 137 0
133 143 0
133 140 0
133 142 0
129 140 0
135 145 0
138 150 0
138 145 0
134 143 0
127 137 0
137 144 0
130 141 0
123 131 0
136 146 0
136 146 0
135 144 0
134 138 0
148 158 0
130 139 0
144 154 0
135 142 0
135 141 0
135 146 0
124 132 0
144 152 0
143 153 0
140 151 0
138 148 0
146 157 0
144 151 0
149 158 0
152 160 0
149 158 0
142 153 0
147 158 0
149 160 0
149 161 0
145 156 0
147 154 0
143 150 0
146 157 0
147 156 0
142 151 0
146 154 0
150 161 0
154 164 0
153 163 0
149 160 0
157 169 0
151 162 0
156 166 0
152 163 0
149 158 0
152 163 0
153 166 0
151 162 0
152 163 0
150 158 0
153 167 0
156 167 0
156 169 0
158 169 0
160 174 0
156 168 0
157 170 0
159 171 0
151 162 0
159 172 0
161 176 0
163 177 0
160 176 0
161 176 0
159 173 0
163 179 0
158 172 0
161 173 0
159 173 0
157 171 0
158 172 0
161 176 0
162 176 0
159 174 0
166 182 0
164 179 0
157 172 0
160 177 0
167 183 0
157 172 0
160 176 0
160 177 0
160 176 0
165 181 0
162 176 0
161 181 0
166 184 0
160 175 0
163 180 0
163 178 0
167 186 0
163 181 0
165 182 0
165 182 0
166 184 0
167 185 0
166 183 0
163 180 0
161 176 0
166 185 0
170 188 0
161 179 0
167 185 0
161 181 0
175 199 80
171 194 76
169 193 57
173 197 88
174 198 80
172 196 72
171 195 62
171 195 95
170 194 88
173 197 67
171 196 80
173 198 92
168 192 76
171 195 57
172 196 67
172 196 88
172 197 72
170 194 62
174 197 76
170 194 88
171 195 88
171 194 57
172 195 80
169 193 57
171 195 76
171 195 67
172 197 72
171 195 84
171 195 76
169 195 88
171 195 51
170 195 67
172 195 62
172 196 88
170 194 84
170 193 76
170 194 72
170 193 62
169 193 76
166 191 88
167 191 80
170 194 76
167 191 62
171 193 62
169 193 76
167 191 57
169 193 67
164 188 88
166 189 76
166 191 88
167 192 76
171 195 88
170 194 80
168 192 57
169 194 72
169 192 62
166 189 51
170 194 80
168 192 67
167 191 57
167 191 76
166 190 62
165 190 88
166 190 80
164 188 72
169 192 84
168 192 84
170 194 72
164 187 84
166 189 72
163 187 80
166 190 67
166 190 76
167 192 80
166 190 72
164 189 72
163 187 88
164 187 57
161 184 62
165 189 62
163 185 57
156 180 67
155 177 51
163 186 76
163 186 62
163 187 88
162 185 76
159 183 62
168 190 76
167 191 72
163 186 62
164 187 80
164 188 62
161 184 72
166 190 76
164 187 76
168 190 76
166 188 80
165 187 92
159 181 72
162 184 62
158 181 62
154 176 88
105 130 132
92 119 138
100 126 149
91 119 140
101 127 150
102 127 139
89 116 138
91 118 142
108 132 150
93 120 141
96 121 140
87 114 146
84 111 125
79 108 148
106 132 137
90 117 125
85 112 132
86 115 138
90 119 133
96 123 132
88 117 134
95 122 136
75 106 136
85 114 133
81 111 143
67 101 150
62 98 158
62 98 165
61 97 157
60 96 149
60 96 155
60 95 149
61 96 147
59 95 154
60 95 147
60 95 150
60 95 145
60 96 151
60 96 143
59 94 141
58 93 139
60 95 140
60 94 140
60 96 151
60 95 147
60 95 144
60 95 146
61 96 145
60 95 142
59 94 143
61 96 150
60 96 150
60 95 145
60 95 149
61 97 151
61 96 148
60 95 143
61 97 159
61 96 145
61 96 150
61 97 152
61 97 151
60 95 140
61 97 156
61 96 152
61 97 154
61 96 151
60 95 144
61 97 152
61 96 149
62 98 152
61 97 156
60 95 142
61 96 153
61 97 154
61 96 145
61 97 148
61 96 154
61 96 152
61 96 149
62 98 159
61 97 155
61 97 154
61 97 155
61 96 142
62 98 156
62 97 154
61 97 151
61 97 154
61 96 145
62 97 150
63 98 158
62 98 155
61 96 141
61 97 150
61 97 149
61 97 154
61 96 153
61 96 151
61 96 150
62 97 155
62 98 154
61 97 154
61 96 144
61 96 152
61 97 151
62 97 154
60 95 149
62 98 154
61 97 158
61 97 151
62 98 161
61 96 147
62 97 151
62 97 154
61 96 149
62 97 152
62 97 152
62 97 154
61 97 150
60 96 147
60 95 137
62 97 148
62 97 154
60 96 151
61 96 151
60 96 147
61 97 150
62 97 156
62 97 149
60 95 137
61 96 144
61 96 148
61 97 148
60 96 145
61 96 149
61 96 149
62 98 155
61 97 149
61 96 147
61 96 151
62 97 150
61 97 150
61 96 141
61 96 151
61 96 144
61 96 144
61 96 144
61 97 149
60 94 135
59 94 142
61 96 155
62 97 150
61 96 140
61 96 141
61 97 145
60 95 142
61 97 147
61 96 141
62 97 148
60 95 141
61 95 136
60 95 139
61 96 136
60 95 141
60 95 137
60 95 135
60 95 134
61 96 136
59 94 134
62 97 144
59 93 128
59 94 126
60 94 130
59 94 125
60 94 134
60 95 134
59 94 134
60 95 128
59 93 130
59 94 131
72 95 103
135 147 0
130 140 0
128 138 0
132 142 0
132 143 0
129 138 0
131 141 0
125 133 0
134 144 0
133 142 0
130 140 0
135 141 0
135 144 0
133 142 0
138 145 0
133 142 0
132 142 0
134 143 0
131 143 0
134 142 0
134 144 0
145 154 0
140 148 0
133 141 0
135 142 0
144 154 0
139 148 0
143 152 0
145 156 0
136 146 0
144 154 0
142 153 0
140 147 0
148 154 0
146 154 0
146 154 0
151 159 0
143 152 0
136 145 0
146 154 0
143 152 0
143 151 0
152 161 0
141 154 0
142 151 0
151 160 0
150 161 0
146 159 0
152 163 0
149 159 0
149 157 0
150 158 0
151 162 0
151 161 0
153 163 0
150 163 0
153 165 0
155 165 0
150 159 0
156 169 0
158 170 0
156 167 0
155 168 0
154 167 0
160 175 0
157 172 0
152 164 0
159 173 0
153 165 0
152 165 0
148 159 0
153 167 0
153 168 0
160 174 0
159 177 0
163 174 0
161 175 0
157 171 0
160 172 0
155 167 0
158 172 0
162 177 0
160 175 0
162 178 0
161 179 0
160 176 0
165 182 0
161 176 0
162 177 0
164 180 0
162 179 0
160 177 0
167 185 0
162 179 0
163 177 0
165 183 0
165 182 0
162 179 0
165 182 0
166 184 0
164 181 0
163 182 0
166 183 0
168 186 0
164 183 0
164 183 0
166 187 0
161 179 0
168 187 0
167 185 0
165 185 0
169 189 0
166 185 0
165 182 0
165 181 0
173 197 72
170 195 67
172 196 72
171 195 80
170 194 92
171 195 62
172 196 62
173 198 76
174 199 102
172 196 84
170 194 67
172 195 51
168 192 72
168 192 67
169 193 62
176 200 76
169 194 67
170 193 80
165 188 57
166 190 62
171 195 84
172 197 84
167 191 67
170 194 80
170 194 88
167 191 62
170 194 76
172 196 88
171 195 72
170 195 72
165 190 57
170 194 76
171 195 76
168 193 72
171 196 80
165 189 67
165 188 51
164 189 84
168 192 72
167 191 92
173 196 72
170 194 67
169 194 76
165 190 62
168 192 84
166 189 44
168 193 84
170 194 57
171 195 57
168 192 67
170 195 88
169 193 72
171 195 76
171 195 76
170 194 67
163 186 76
168 191 44
168 191 57
161 184 57
165 189 80
170 193 72
169 192 36
168 191 80
169 193 80
164 187 62
170 194 57
161 183 72
166 190 72
164 188 72
164 188 76
168 191 80
166 190 80
164 188 67
167 190 84
168 190 76
165 189 67
168 191 82
166 189 67
166 188 72
166 190 92
165 188 67
167 190 84
162 185 44
163 186 44
160 183 67
170 193 80
164 188 80
165 188 72
166 188 67
158 182 80
163 186 44
159 182 67
161 184 72
168 191 84
164 186 62
161 183 67
166 189 76
160 183 67
158 181 88
164 185 99
158 180 62
162 185 92
160 182 80
113 137 115
90 117 135
86 114 133
91 117 134
97 124 148
91 117 144
89 116 127
92 119 137
99 123 150
86 114 140
92 119 141
96 122 126
77 105 148
86 115 134
97 122 135
86 113 130
103 129 143
81 112 144
88 117 129
78 109 147
88 117 133
93 121 120
88 117 132
84 113 137
89 118 135
77 108 137
61 97 157
60 97 159
62 98 158
61 97 157
59 95 147
61 97 153
60 96 153
60 96 151
60 96 150
60 95 150
60 95 141
59 94 145
61 97 148
60 95 148
59 94 143
60 96 149
59 93 148
58 93 140
60 95 149
59 94 144
59 94 148
61 96 147
58 93 141
59 94 143
61 96 143
59 94 144
60 96 145
60 95 151
61 97 151
61 96 144
61 96 150
59 94 140
60 95 145
60 95 141
62 97 153
60 96 149
60 95 145
60 95 150
62 98 155
62 97 152
62 97 149
62 97 150
61 97 150
61 96 147
62 97 153
60 96 146
61 96 148
61 96 149
61 97 152
61 96 154
61 97 147
61 97 152
61 97 153
61 97 153
62 97 148
61 96 150
62 97 153
61 96 148
61 97 149
61 96 149
61 97 148
61 97 151
61 97 151
61 97 150
61 97 149
61 97 152
60 96 149
61 97 150
61 96 147
61 96 147
61 96 148
61 96 145
60 95 141
62 98 155
61 96 141
60 95 145
62 98 157
62 98 155
61 97 150
62 97 153
61 97 150
61 97 148
61 96 145
61 96 144
62 97 150
61 96 148
61 97 148
61 96 150
62 97 151
61 96 142
61 96 142
61 96 144
61 97 152
60 95 141
62 97 149
61 97 153
62 98 153
62 97 152
61 97 150
60 96 139
61 96 141
61 97 149
61 96 147
61 96 148
61 97 150
60 96 142
62 98 159
61 96 147
62 97 151
61 97 148
61 96 142
61 96 144
61 96 141
62 97 150
61 96 152
62 98 154
61 96 148
61 96 145
61 97 155
61 96 144
61 97 151
61 97 148
60 95 145
61 96 147
61 96 139
60 95 139
61 96 145
61 96 147
60 95 135
60 95 139
62 97 151
59 94 131
60 95 142
60 95 143
61 96 143
61 96 149
61 97 149
61 96 136
60 94 130
60 95 130
61 96 149
61 95 147
61 96 143
59 94 131
59 93 128
59 94 136
60 94 130
60 95 136
61 95 137
60 94 134
61 96 142
60 94 133
59 92 124
59 93 130
59 93 125
107 124 74
131 140 0
130 140 0
120 129 0
127 135 0
124 134 0
126 134 0
135 147 0
127 137 0
133 141 0
123 133 0
128 137 0
127 136 0
134 143 0
137 147 0
126 133 0
125 134 0
140 149 0
140 153 0
136 147 0
129 139 0
136 147 0
143 152 0
143 154 0
128 135 0
141 152 0
147 155 0
139 150 0
140 150 0
139 150 0
139 147 0
144 153 0
141 151 0
142 152 0
145 152 0
150 161 0
142 151 0
146 155 0
145 155 0
143 151 0
145 155 0
151 161 0
153 164 0
147 158 0
144 155 0
156 167 0
146 155 0
146 157 0
147 156 0
154 167 0
155 164 0
148 157 0
147 157 0
154 166 0
153 161 0
152 165 0
154 165 0
147 157 0
155 165 0
152 166 0
161 175 0
153 167 0
156 168 0
154 167 0
155 168 0
156 170 0
158 171 0
158 170 0
155 166 0
159 172 0
160 173 0
150 161 0
158 173 0
156 169 0
157 169 0
163 176 0
163 177 0
161 174 0
160 175 0
163 174 0
152 165 0
163 179 0
156 174 0
161 178 0
158 174 0
161 177 0
165 182 0
160 175 0
155 171 0
156 170 0
162 177 0
162 178 0
159 174 0
164 179 0
157 173 0
166 183 0
166 183 0
163 180 0
163 179 0
157 172 0
166 186 0
164 181 0
165 182 0
163 182 0
163 178 0
165 182 0
165 183 0
166 183 0
164 183 0
168 185 0
164 181 0
168 186 0
167 186 0
166 182 0
161 178 0
170 189 0
172 196 80
171 195 62
173 197 80
171 195 62
171 195 92
168 193 88
176 199 88
171 196 80
169 193 76
168 193 80
170 193 67
172 197 76
170 194 72
171 196 76
170 193 57
171 196 80
171 195 72
171 196 67
170 194 72
169 192 72
171 196 72
171 195 80
171 194 72
169 193 67
167 191 57
171 196 76
168 192 67
170 196 105
170 194 76
170 194 84
169 194 72
169 194 92
167 192 108
170 194 57
166 189 80
169 194 84
165 190 76
166 190 62
169 193 67
165 189 62
170 193 62
170 193 62
166 190 62
170 193 57
167 191 92
171 195 76
168 192 76
171 195 72
168 192 80
168 192 62
169 192 44
169 193 57
169 194 76
171 195 57
172 196 84
165 189 62
166 189 62
170 194 84
165 189 51
170 194 76
167 191 84
166 191 80
165 189 57
171 195 84
169 193 80
169 193 88
166 189 80
167 192 92
165 189 67
161 186 72
166 190 36
169 193 76
162 186 57
162 187 80
167 191 88
171 194 72
165 188 80
160 183 57
166 190 72
158 182 57
165 189 76
159 181 51
166 189 72
164 186 57
167 190 72
164 187 88
167 189 80
166 189 51
160 182 76
164 186 72
162 185 72
155 178 72
165 188 76
168 191 92
163 185 72
164 187 80
159 181 88
164 185 76
163 185 76
163 185 95
162 184 88
164 186 62
157 179 72
154 177 78
89 117 136
87 115 123
97 123 149
101 127 147
101 125 140
99 126 142
96 123 142
101 126 142
104 128 148
89 117 131
78 107 140
90 117 143
91 118 143
97 123 145
86 114 147
95 123 137
90 117 139
76 106 140
79 109 141
89 118 132
90 119 139
90 119 129
76 107 148
74 105 138
74 105 146
79 111 155
62 98 164
62 98 160
60 95 151
60 96 156
61 97 152
60 95 153
61 96 153
60 95 146
61 96 149
60 95 143
59 94 144
60 94 140
61 96 149
60 95 144
59 94 154
59 94 139
59 93 141
60 95 152
59 94 143
61 97 149
60 96 136
59 93 138
59 94 139
61 96 144
61 96 141
61 97 153
61 96 148
60 94 141
60 95 147
61 96 145
61 96 148
61 97 156
61 96 149
60 94 137
61 97 149
61 96 148
61 96 154
61 96 148
61 97 151
61 96 149
62 98 158
61 97 156
60 96 149
62 97 155
60 96 139
60 96 148
60 96 148
61 97 154
61 96 148
60 95 143
61 96 153
61 97 148
61 96 147
61 96 147
61 96 147
61 96 146
60 95 141
61 96 143
60 95 143
61 97 147
61 96 148
60 96 145
60 96 150
61 96 145
61 97 153
62 97 151
61 97 157
60 95 143
62 97 154
62 97 154
62 97 154
62 98 155
61 96 148
61 97 148
62 97 152
60 96 148
61 97 150
61 97 152
61 97 154
60 95 143
62 98 155
61 97 151
61 96 145
61 96 139
60 96 144
60 95 143
61 96 151
62 98 155
61 96 147
62 98 155
61 96 143
61 96 155
60 96 145
62 97 152
60 96 145
62 97 150
61 96 149
61 97 150
61 96 148
62 97 154
61 97 151
61 97 147
62 97 152
61 96 150
61 96 143
62 97 151
62 97 150
62 98 155
61 96 147
60 95 142
61 96 149
60 95 143
63 98 160
61 97 151
61 97 152
60 95 140
61 96 145
60 95 136
61 96 149
61 96 147
61 96 150
61 96 149
61 96 143
61 96 142
60 95 144
61 95 144
61 96 143
62 97 153
60 95 139
61 97 149
61 96 148
60 95 142
62 97 144
62 97 151
60 95 140
61 96 144
61 97 145
61 96 145
60 95 140
60 95 136
61 96 144
61 96 144
59 93 128
60 95 141
61 96 134
60 94 137
59 93 124
60 94 133
59 93 135
60 94 133
58 92 124
60 93 134
60 94 129
66 93 104
115 125 18
127 137 0
134 146 0
139 152 0
133 142 0
128 139 0
128 138 0
130 142 0
134 144 0
134 145 0
132 141 0
121 132 0
133 140 0
131 141 0
130 138 0
130 142 0
134 146 0
137 148 0
142 152 0
139 150 0
135 144 0
130 137 0
141 153 0
137 148 0
136 147 0
136 145 0
138 150 0
134 144 0
136 143 0
138 150 0
146 158 0
140 149 0
146 153 0
132 141 0
138 148 0
141 152 0
141 151 0
144 156 0
142 152 0
147 159 0
139 147 0
153 164 0
147 154 0
149 160 0
153 163 0
131 142 0
142 152 0
156 169 0
151 161 0
151 161 0
157 172 0
148 160 0
153 166 0
157 169 0
151 162 0
144 154 0
154 167 0
149 161 0
157 170 0
152 164 0
161 177 0
152 165 0
157 170 0
155 169 0
153 168 0
157 171 0
150 164 0
156 169 0
154 167 0
157 171 0
152 163 0
156 170 0
155 170 0
161 175 0
154 167 0
160 175 0
154 166 0
156 169 0
163 179 0
159 173 0
155 168 0
162 179 0
157 170 0
161 177 0
162 177 0
161 179 0
164 182 0
162 178 0
163 180 0
156 171 0
159 175 0
165 182 0
163 180 0
161 178 0
165 180 0
163 180 0
164 182 0
160 178 0
165 180 0
162 180 0
166 184 0
164 180 0
163 180 0
164 181 0
162 180 0
162 177 0
165 181 0
163 180 0
166 185 0
166 184 0
166 184 0
164 182 0
169 189 0
166 183 0
167 186 0
166 185 0
168 192 80
172 196 72
169 192 51
172 196 84
167 190 62
174 199 84
173 198 95
169 193 44
168 193 72
169 193 92
167 192 76
169 193 76
162 186 51
172 196 72
168 192 72
169 193 84
171 195 72
169 194 62
170 195 80
170 192 67
173 198 67
171 196 67
170 194 76
173 196 57
169 193 57
166 191 67
165 189 84
167 191 76
169 192 57
170 195 80
166 190 72
170 194 76
165 190 62
172 196 72
174 198 67
169 193 84
165 190 51
171 195 62
167 191 62
170 194 67
174 198 72
169 193 76
170 195 72
168 192 88
171 195 84
168 191 72
169 193 62
167 190 51
165 189 72
161 186 76
170 194 76
166 190 80
172 197 67
165 189 62
167 192 72
172 196 95
168 191 72
169 193 88
171 195 76
170 194 72
168 192 80
164 188 57
164 188 57
172 195 57
170 194 72
169 193 72
162 185 44
165 188 51
161 185 44
168 192 67
166 190 76
167 190 72
164 190 88
163 186 72
164 187 44
159 182 36
166 190 88
162 185 95
161 184 67
165 188 67
162 185 72
163 186 51
155 178 60
166 190 84
167 191 51
166 189 67
158 182 76
166 189 65
167 189 88
163 186 72
163 185 72
165 188 44
166 189 84
161 184 57
155 178 44
163 187 57
163 186 76
160 183 88
159 181 72
160 183 80
165 188 92
163 185 80
164 187 62
166 189 76
122 145 124
92 119 139
82 110 139
86 114 124
95 121 139
103 128 145
90 118 132
88 115 149
103 127 148
95 122 146
81 110 143
90 117 129
78 107 140
96 122 149
102 127 144
78 108 144
81 110 140
86 115 143
90 117 133
85 115 129
93 121 141
91 119 126
82 112 143
75 105 138
88 117 139
79 110 140
62 98 165
61 97 153
62 98 159
61 97 159
60 96 144
61 97 159
60 95 143
61 96 147
59 95 150
60 95 150
60 95 151
60 95 147
59 94 135
59 93 140
59 94 142
58 93 143
60 95 142
60 95 141
58 92 139
60 95 148
59 95 144
61 96 145
60 95 145
60 96 140
60 95 144
60 95 137
60 95 142
60 96 150
60 95 144
60 95 140
60 96 147
60 95 147
59 94 143
60 96 144
61 97 151
61 96 152
61 96 155
61 96 148
61 97 153
61 97 153
61 96 150
60 96 144
61 97 149
60 95 147
61 96 148
61 97 150
61 97 154
61 97 152
62 97 151
60 95 141
61 97 154
62 97 151
61 97 149
62 98 158
61 97 154
60 95 142
61 97 148
62 97 153
61 97 154
62 97 151
61 97 148
61 96 144
60 96 143
62 97 150
61 97 156
61 96 148
61 97 147
60 96 148
62 98 157
61 97 145
60 96 147
61 97 154
61 97 152
61 97 152
60 96 145
62 98 156
60 96 147
62 97 150
62 98 155
60 95 140
63 98 153
61 96 147
61 96 145
60 96 145
62 97 150
61 97 143
61 97 151
61 96 149
61 96 147
61 97 147
62 97 154
61 96 142
61 96 149
60 95 145
62 97 148
61 96 155
61 97 152
61 97 148
60 95 143
61 96 153
61 97 149
60 96 140
61 96 141
61 96 149
62 97 149
60 96 142
61 96 143
62 97 147
61 96 147
62 97 148
60 96 143
61 96 145
61 97 144
61 96 147
61 96 144
60 95 137
61 97 145
61 96 150
61 96 143
61 96 140
61 96 147
60 96 137
60 95 137
61 97 151
62 97 144
61 96 144
62 97 145
60 95 142
59 94 128
59 94 129
62 97 144
60 96 143
60 95 139
59 94 136
60 95 143
61 97 144
60 95 141
61 96 145
59 93 125
60 95 137
61 96 141
60 94 129
62 96 145
61 96 143
62 96 142
60 95 137
60 94 135
60 95 141
59 93 114
58 92 120
60 94 128
58 92 118
59 93 131
98 117 67
130 142 0
129 139 0
129 141 0
128 138 0
126 138 0
131 144 0
122 130 0
127 139 0
133 145 0
133 144 0
143 155 0
146 160 0
139 151 0
134 144 0
129 138 0
140 154 0
147 158 0
133 143 0
136 147 0
129 139 0
133 142 0
145 157 0
138 150 0
145 155 0
147 157 0
141 150 0
138 145 0
138 150 0
141 153 0
143 152 0
140 153 0
147 156 0
138 150 0
132 141 0
137 147 0
147 161 0
147 160 0
151 164 0
146 156 0
149 159 0
143 155 0
148 159 0
143 156 0
140 152 0
142 153 0
138 145 0
145 153 0
150 162 0
146 155 0
150 164 0
156 168 0
153 165 0
151 162 0
157 170 0
145 156 0
148 161 0
154 166 0
149 162 0
155 168 0
156 166 0
155 168 0
152 165 0
157 170 0
158 170 0
155 169 0
156 170 0
157 169 0
161 173 0
151 163 0
161 175 0
156 170 0
157 173 0
158 172 0
145 160 0
157 172 0
162 177 0
160 177 0
157 169 0
160 176 0
164 178 0
160 173 0
157 171 0
156 171 0
164 179 0
165 181 0
160 174 0
162 180 0
161 175 0
163 180 0
161 175 0
159 176 0
158 172 0
160 178 0
164 182 0
166 182 0
159 178 0
158 173 0
163 181 0
161 177 0
164 181 0
165 181 0
162 179 0
166 184 0
163 180 0
165 182 0
164 181 0
169 186 0
169 185 0
164 181 0
165 184 0
168 186 0
165 181 0
170 188 0
167 186 0
167 187 0
167 182 0
174 199 80
170 194 72
168 192 62
175 199 67
170 194 76
172 195 67
171 194 67
172 196 62
170 194 80
171 195 72
170 195 67
170 194 80
174 197 62
176 200 62
172 196 84
168 193 44
171 195 95
167 192 76
170 194 95
172 196 57
171 195 92
172 196 76
167 191 80
170 195 72
172 197 92
171 195 72
168 192 88
171 196 84
169 193 67
168 192 92
170 194 57
168 192 72
169 193 62
167 192 67
168 191 76
168 192 62
168 192 76
170 193 44
167 190 62
169 192 57
168 193 80
170 195 92
170 195 92
168 192 57
167 191 80
167 190 67
167 191 57
164 188 67
164 189 51
164 189 72
167 190 84
168 193 76
167 191 44
167 191 88
170 194 80
167 191 84
165 189 76
163 187 67
173 197 72
165 189 72
167 191 80
170 195 92
168 192 67
164 188 84
169 194 80
166 191 84
165 189 76
165 189 88
168 192 76
167 191 84
165 189 84
166 189 67
168 192 62
167 191 62
165 188 67
164 189 67
168 192 72
160 183 76
164 188 72
161 185 62
160 184 62
159 181 51
164 187 67
167 190 76
168 191 76
162 186 84
163 185 80
163 186 88
158 181 72
170 192 80
163 187 92
151 174 36
159 181 57
157 180 76
161 184 36
162 185 72
164 186 57
158 181 67
156 179 76
159 182 51
166 189 84
161 183 67
148 170 62
162 184 57
144 166 94
93 119 128
88 115 131
94 121 136
88 116 129
114 138 153
103 127 147
90 117 137
101 127 149
93 119 138
108 131 140
85 112 136
91 118 137
90 117 129
86 112 133
92 118 144
98 125 132
87 115 146
86 114 133
94 122 136
85 114 138
93 121 131
96 124 124
89 117 120
71 102 147
78 107 136
70 103 147
60 96 150
61 97 157
61 96 152
61 97 160
61 97 154
62 97 153
61 97 151
60 96 145
60 95 151
61 97 152
59 94 145
59 94 137
60 94 140
60 96 146
60 95 149
60 94 134
61 96 146
61 96 149
59 94 143
60 95 146
59 93 140
60 95 147
59 94 147
60 96 147
60 95 143
59 94 144
61 96 149
60 95 143
61 97 148
60 96 147
60 96 146
61 96 146
59 94 128
61 97 147
61 96 151
60 95 145
61 97 156
59 94 138
61 97 158
60 95 142
62 97 153
60 96 147
59 94 146
61 96 142
60 96 149
61 96 149
60 96 151
60 95 137
61 97 150
60 95 144
59 94 134
61 96 150
62 97 152
61 96 150
62 98 153
61 96 151
62 98 155
61 96 148
62 97 151
61 97 156
61 96 147
61 97 148
60 95 143
61 97 150
61 96 148
61 97 151
62 97 151
61 97 150
61 97 151
61 96 135
61 96 155
62 97 152
61 97 145
61 96 150
62 97 151
60 95 144
62 98 159
60 96 143
62 97 149
61 96 148
61 96 147
62 98 154
60 96 142
60 95 147
61 97 150
61 97 149
61 97 149
61 96 147
62 97 149
62 98 150
61 97 150
62 97 152
61 96 145
59 94 128
62 98 157
62 97 151
60 95 148
60 95 137
61 96 151
62 98 156
61 96 147
59 94 136
61 96 151
61 96 134
61 96 147
61 96 149
60 94 139
61 96 145
61 96 143
61 96 142
61 96 142
61 96 143
62 97 145
61 97 149
60 95 149
61 96 147
60 95 147
62 98 157
60 96 135
60 96 147
62 97 144
60 95 137
60 95 136
62 97 149
61 96 143
61 96 141
60 95 137
61 96 149
61 96 148
59 94 136
60 95 140
61 96 147
60 96 140
60 94 130
61 96 145
61 96 144
60 94 131
61 96 144
59 94 130
60 95 136
59 93 133
61 96 140
59 93 121
60 94 139
62 97 143
60 95 139
60 94 135
60 94 136
59 93 125
60 94 128
59 93 120
61 93 115
129 142 31
135 145 0
127 136 0
123 134 0
126 135 0
127 137 0
133 146 0
136 147 0
126 138 0
126 135 0
130 143 0
136 149 0
131 142 0
132 144 0
127 139 0
137 151 0
135 147 0
144 155 0
128 140 0
136 148 0
140 151 0
135 147 0
134 143 0
130 143 0
134 143 0
140 151 0
137 150 0
143 153 0
140 152 0
136 145 0
135 146 0
144 154 0
144 155 0
140 151 0
145 156 0
137 147 0
142 153 0
145 154 0
150 162 0
139 150 0
143 154 0
150 164 0
148 162 0
156 169 0
142 152 0
153 165 0
153 162 0
147 157 0
152 165 0
148 159 0
148 160 0
150 160 0
149 161 0
151 165 0
148 162 0
151 162 0
152 168 0
150 164 0
155 168 0
156 170 0
157 169 0
150 165 0
146 158 0
156 169 0
158 173 0
157 167 0
154 168 0
158 171 0
153 166 0
152 167 0
155 170 0
158 174 0
157 169 0
163 179 0
158 172 0
156 169 0
161 175 0
160 173 0
156 172 0
161 176 0
157 172 0
162 177 0
163 178 0
162 179 0
166 182 0
159 173 0
162 178 0
162 174 0
158 171 0
162 179 0
166 184 0
159 175 0
163 183 0
159 174 0
163 180 0
160 177 0
168 184 0
164 181 0
162 181 0
163 179 0
165 182 0
167 184 0
167 185 0
166 183 0
164 181 0
164 181 0
168 186 0
166 184 0
168 186 0
168 189 0
163 179 0
165 184 0
168 189 0
168 185 0
170 188 0
168 185 0
168 185 0
169 192 62
171 196 80
175 200 99
169 192 57
173 197 67
173 197 76
171 196 95
173 197 72
167 192 67
171 194 76
172 196 67
171 195 67
172 196 84
172 195 62
167 192 67
168 193 72
170 194 57
170 195 92
170 194 51
166 191 67
171 196 62
171 196 80
170 193 76
170 195 62
169 194 80
164 188 36
169 193 76
171 195 80
168 192 72
166 189 51
171 195 62
168 192 80
163 187 76
166 190 84
169 193 80
169 193 44
171 196 80
168 192 62
173 197 92
169 193 80
167 191 76
164 190 105
168 192 57
166 191 62
168 192 72
165 189 92
166 189 92
164 188 44
162 186 67
172 195 67
170 193 57
167 191 67
166 191 80
169 192 72
167 191 76
164 188 72
165 189 80
171 196 108
166 190 62
167 192 80
165 189 51
169 192 51
165 189 88
167 189 72
165 190 72
168 192 57
168 192 76
163 187 72
163 187 99
164 188 51
165 188 57
166 188 84
170 194 99
168 192 72
158 181 84
167 190 88
168 190 62
169 191 67
159 182 44
163 186 67
167 190 95
164 188 80
162 185 67
166 189 57
167 190 76
164 188 76
161 184 62
156 180 57
162 185 84
164 188 67
162 185 62
162 186 67
157 180 62
161 185 51
159 181 62
165 188 72
156 178 57
158 180 84
154 176 72
162 184 67
151 173 51
161 182 80
158 181 57
156 178 84
161 185 44
115 138 116
88 115 129
90 118 134
81 110 139
99 123 145
104 129 138
90 116 139
103 128 151
88 114 133
88 115 137
92 117 145
97 121 142
89 115 134
88 115 140
89 116 140
90 117 143
96 123 134
84 113 140
89 117 134
85 114 135
89 118 144
91 119 134
99 126 126
76 105 134
72 104 141
76 106 140
66 99 147
61 97 155
61 96 156
61 96 151
61 97 155
61 96 151
60 96 150
62 97 153
60 95 148
60 96 149
61 96 148
59 93 137
59 95 152
61 96 145
59 94 140
59 94 140
59 93 135
59 94 143
61 95 145
60 94 140
60 95 145
59 94 133
60 95 143
61 96 145
60 95 139
60 95 147
60 95 147
61 96 146
60 95 142
60 95 148
61 96 152
61 96 145
61 96 153
60 95 145
61 96 149
61 96 149
60 94 146
61 96 149
60 95 147
60 95 144
62 97 155
61 96 147
62 97 156
60 95 145
61 96 151
61 97 149
60 96 144
62 98 159
61 96 151
59 94 139
61 97 157
60 95 148
61 96 143
61 97 151
61 96 150
62 97 149
61 97 152
61 96 150
62 98 154
60 96 150
61 97 154
60 95 137
61 97 153
60 96 150
60 95 142
61 96 148
62 98 161
61 97 153
61 96 142
62 98 156
61 96 148
60 96 141
61 96 143
61 96 150
62 97 159
60 95 136
61 97 150
61 96 147
62 97 144
61 97 148
62 97 155
60 96 148
61 97 149
60 95 137
61 96 152
61 96 151
61 96 140
61 97 150
62 97 153
61 96 149
62 97 152
61 97 153
62 98 156
61 97 147
62 97 150
62 97 150
61 96 147
61 96 145
61 97 145
61 96 142
60 95 142
61 97 151
61 97 149
62 97 152
61 96 151
61 97 147
60 95 140
62 97 143
61 96 148
62 97 154
61 96 140
61 95 145
61 96 139
62 97 148
61 97 143
61 96 139
62 97 150
61 96 140
61 96 141
61 97 145
62 97 150
62 96 142
60 95 142
61 96 142
61 96 145
62 97 147
60 95 142
60 95 135
61 96 141
60 95 135
62 97 150
60 95 139
60 94 131
62 97 144
61 95 136
59 94 128
61 96 136
60 94 135
60 95 129
58 92 122
60 94 133
60 95 134
59 93 124
59 94 126
60 94 134
60 94 139
59 93 125
59 94 131
58 92 126
60 94 130
57 91 105
103 121 86
135 148 0
127 138 0
132 141 0
141 152 0
138 149 0
130 142 0
134 145 0
143 157 0
123 132 0
124 135 0
128 141 0
131 142 0
121 133 0
137 148 0
125 135 0
134 145 0
143 156 0
125 135 0
131 140 0
131 143 0
143 153 0
137 148 0
139 151 0
135 147 0
131 140 0
142 155 0
137 146 0
141 153 0
133 143 0
145 156 0
144 158 0
143 157 0
142 151 0
138 148 0
146 157 0
145 156 0
141 153 0
138 149 0
148 160 0
143 155 0
143 153 0
148 160 0
152 162 0
146 157 0
146 161 0
149 161 0
154 166 0
150 162 0
148 159 0
148 160 0
145 157 0
149 163 0
153 166 0
149 164 0
156 169 0
151 165 0
150 164 0
154 169 0
153 168 0
156 166 0
155 169 0
156 168 0
154 169 0
155 168 0
157 170 0
153 165 0
155 168 0
160 175 0
149 162 0
155 167 0
154 166 0
162 177 0
158 173 0
159 174 0
158 171 0
155 170 0
156 169 0
160 176 0
156 172 0
158 172 0
158 173 0
155 169 0
156 171 0
159 174 0
165 181 0
163 178 0
162 176 0
160 177 0
160 175 0
163 181 0
162 176 0
166 183 0
162 179 0
160 176 0
164 180 0
165 180 0
167 185 0
167 185 0
165 181 0
166 184 0
159 176 0
161 178 0
168 187 0
167 186 0
160 177 0
165 183 0
163 181 0
163 181 0
163 178 0
164 182 0
166 186 0
160 177 0
164 183 0
162 178 0
163 180 0
164 184 0
167 187 0
174 198 92
169 193 67
172 196 72
170 195 76
168 192 57
172 196 76
168 193 67
171 195 67
172 196 84
174 199 92
173 196 62
173 198 92
171 195 88
170 194 62
171 195 92
171 196 80
172 197 92
171 195 67
171 195 62
171 196 88
170 194 67
170 194 76
171 194 67
171 195 57
170 194 76
171 195 76
168 193 76
170 194 57
168 193 67
169 193 84
165 189 72
169 193 88
168 193 76
167 192 72
167 192 80
169 193 76
165 190 67
172 195 51
167 193 84
171 194 57
171 195 72
171 195 84
171 195 67
169 192 62
169 192 62
172 195 67
164 187 67
167 191 67
166 190 67
167 192 72
168 192 36
167 192 76
168 192 72
169 192 72
163 186 67
165 189 76
168 193 80
166 189 67
165 190 84
167 191 67
168 192 72
168 193 99
166 190 84
164 188 80
164 187 76
165 188 51
166 190 76
162 186 67
164 187 51
169 193 72
169 192 88
160 183 80
165 189 62
160 184 62
165 189 108
162 186 72
160 183 72
165 188 62
166 189 80
161 185 57
162 185 44
166 190 84
158 181 62
166 189 76
160 183 72
154 176 57
165 188 67
162 185 92
162 185 51
157 181 72
161 184 80
158 181 36
150 174 62
163 185 72
157 181 57
165 187 84
162 185 76
163 186 67
158 180 62
155 178 76
159 182 62
164 186 80
156 179 67
153 175 62
157 178 67
146 168 97
81 110 126
89 115 133
86 114 129
87 113 127
85 111 131
107 132 150
98 124 133
102 128 143
85 111 128
94 120 140
100 125 144
92 118 146
86 110 124
79 107 137
106 131 153
99 124 133
98 124 139
81 110 131
96 123 134
86 114 132
90 120 143
94 123 138
79 109 139
86 115 143
78 108 124
76 108 153
60 96 156
62 97 155
61 97 155
61 97 148
62 97 153
61 97 148
62 97 158
59 94 144
59 94 147
58 93 140
61 96 145
60 95 139
60 95 150
57 91 134
60 95 143
59 94 143
61 96 147
60 95 144
60 95 151
60 95 143
59 95 138
60 95 145
59 94 140
61 96 144
60 95 140
62 97 151
60 96 144
59 93 138
59 94 136
61 96 150
61 96 149
60 95 143
60 96 143
60 95 142
60 96 148
59 94 141
60 96 144
62 97 153
60 96 143
60 95 140
60 95 141
61 97 147
61 96 144
60 95 141
59 94 133
61 97 150
60 95 136
60 95 146
61 96 145
61 97 150
61 97 151
61 97 151
61 96 143
61 97 153
62 98 154
60 96 147
60 96 151
59 95 139
61 96 144
61 97 157
60 95 139
61 96 149
60 95 138
60 95 141
61 97 148
61 96 144
60 95 135
62 97 154
61 96 150
60 95 145
61 96 147
61 97 152
60 96 148
60 95 139
61 97 150
60 96 144
62 97 150
61 97 145
61 96 144
61 96 145
60 95 145
61 97 149
60 96 140
62 97 155
61 97 152
60 95 137
60 95 129
60 96 144
61 96 144
61 97 151
61 96 142
61 96 149
62 97 150
62 97 149
62 98 156
59 94 129
61 96 147
60 96 151
61 96 144
60 95 140
62 97 153
61 96 149
61 96 147
61 96 148
61 96 144
61 96 142
61 96 143
59 94 143
60 95 144
60 96 141
60 95 140
60 95 140
59 94 137
62 97 148
62 97 151
61 96 130
61 95 143
60 95 136
61 96 141
61 97 151
60 95 147
60 94 135
60 95 136
61 96 151
62 98 151
61 96 145
61 95 139
60 95 139
59 94 130
60 95 142
60 95 135
61 97 144
61 95 145
62 96 145
60 96 139
59 94 131
60 95 135
60 95 128
61 96 141
60 94 129
59 93 126
60 95 139
59 93 124
58 92 121
59 93 131
60 94 131
58 92 121
58 93 134
59 93 121
69 99 117
127 140 31
133 148 0
125 139 0
132 143 0
130 143 0
132 146 0
128 140 0
130 140 0
118 130 0
131 141 0
128 140 0
124 137 0
137 150 0
141 152 0
133 144 0
131 145 0
132 147 0
141 153 0
134 144 0
139 151 0
138 150 0
135 145 0
149 159 0
134 146 0
143 156 0
141 153 0
139 154 0
137 148 0
131 142 0
145 155 0
137 148 0
145 157 0
138 150 0
146 159 0
141 153 0
137 150 0
144 159 0
142 155 0
148 163 0
145 154 0
147 161 0
157 170 0
152 162 0
149 161 0
143 154 0
151 167 0
154 166 0
153 164 0
148 161 0
146 160 0
152 165 0
152 162 0
157 171 0
154 168 0
154 167 0
153 168 0
153 165 0
155 169 0
149 164 0
154 168 0
152 165 0
152 166 0
154 166 0
153 168 0
156 169 0
157 173 0
157 169 0
154 168 0
155 167 0
156 173 0
157 174 0
152 166 0
155 170 0
157 172 0
164 179 0
158 172 0
159 175 0
163 175 0
162 178 0
159 175 0
162 178 0
160 174 0
158 173 0
160 177 0
163 178 0
157 172 0
163 178 0
160 177 0
156 170 0
159 173 0
161 178 0
157 172 0
159 173 0
163 178 0
162 179 0
166 184 0
164 180 0
163 180 0
163 180 0
169 187 0
162 181 0
161 177 0
164 180 0
164 182 0
167 185 0
166 183 0
158 176 0
166 187 0
164 183 0
163 181 0
168 186 0
166 184 0
166 184 0
170 190 0
167 187 0
164 182 0
166 186 0
162 182 0
170 194 51
175 198 80
174 198 76
172 196 76
172 196 57
173 197 84
171 196 84
172 196 57
169 192 62
170 194 88
172 196 80
171 194 67
172 196 67
172 196 72
169 193 76
169 193 80
170 194 84
165 189 72
168 193 67
169 195 57
166 191 57
175 198 67
169 192 44
171 196 62
169 193 51
170 194 62
166 191 88
170 194 67
168 192 57
168 191 57
173 197 76
165 190 62
165 190 76
164 189 57
164 188 62
165 189 76
169 194 80
169 193 99
163 188 80
169 193 76
168 192 67
169 193 88
168 192 57
171 196 92
169 193 80
169 193 72
166 190 76
168 192 72
164 188 62
169 193 88
169 192 57
166 190 80
164 188 57
168 193 111
166 190 57
166 189 51
167 190 62
165 190 67
162 187 67
168 193 88
170 193 57
167 190 76
165 188 51
164 188 62
165 189 95
161 184 57
162 185 92
163 187 62
169 193 80
166 190 72
165 189 84
165 189 76
169 193 88
162 185 62
160 183 67
166 189 76
159 182 44
165 188 57
165 189 99
159 182 72
165 188 80
166 189 84
162 184 92
157 181 36
164 187 88
163 187 80
159 181 62
158 181 72
161 184 76
161 185 57
155 178 57
163 187 80
162 184 72
169 191 72
154 177 57
161 184 72
163 186 95
158 180 80
159 181 72
155 177 84
155 178 57
160 181 72
158 180 51
159 182 72
161 183 88
158 180 88
118 141 118
94 121 137
84 111 131
88 114 119
110 135 151
96 122 143
99 124 145
91 117 137
98 124 144
90 116 137
99 124 151
91 117 136
58 71 68
73 85 76
76 102 116
88 115 126
101 127 142
84 112 126
81 111 139
95 122 123
90 118 128
80 111 152
94 122 124
77 107 129
78 108 138
73 103 135
61 97 155
61 97 153
61 96 149
61 96 152
61 97 153
60 95 143
60 95 141
60 95 147
59 94 146
60 96 149
60 95 145
59 93 132
60 94 138
58 92 133
59 94 139
60 95 143
61 96 140
60 95 148
60 95 145
59 94 141
60 95 147
60 95 141
59 94 145
60 96 148
60 94 135
61 96 141
59 93 136
61 96 151
61 96 144
60 96 147
62 97 151
60 96 154
60 95 143
59 94 145
61 97 147
60 95 136
60 95 139
62 97 150
61 96 145
61 97 148
61 96 146
62 98 158
61 96 147
61 96 146
62 97 148
61 96 153
61 95 141
61 97 154
60 95 150
61 96 148
62 97 144
61 96 147
62 97 149
60 96 148
62 97 155
62 98 155
60 95 140
61 96 152
61 97 149
61 96 149
61 97 151
61 97 148
59 95 148
61 96 137
62 97 150
61 96 149
60 95 146
61 96 145
61 96 151
61 96 147
61 96 145
61 96 149
61 96 149
61 97 147
60 96 144
60 95 137
61 96 143
61 96 141
62 97 151
60 95 140
63 99 159
59 94 139
61 96 149
61 97 144
63 99 160
61 97 153
60 95 140
61 97 150
61 97 156
61 96 148
61 96 145
62 97 153
61 96 145
61 97 145
60 95 135
60 96 148
62 97 149
61 97 149
61 96 144
62 97 147
61 97 151
62 97 156
61 96 153
61 96 148
60 95 144
61 96 145
62 97 147
61 96 141
61 96 147
60 95 136
61 96 140
61 96 151
61 97 140
61 96 144
61 96 147
61 96 144
61 96 141
61 96 143
60 95 143
59 94 130
61 96 143
59 94 130
60 96 141
61 96 144
61 96 148
61 95 133
60 95 133
60 95 131
61 95 136
60 95 134
60 95 141
61 95 135
61 95 137
59 94 137
60 94 133
60 94 131
61 96 134
60 94 136
59 94 130
60 95 136
59 93 130
60 94 131
59 93 128
59 94 130
60 94 132
60 95 133
60 94 118
59 93 124
59 93 118
97 117 90
126 139 0
130 141 0
129 142 0
123 133 0
133 144 0
128 140 0
130 144 0
134 146 0
129 139 0
138 151 0
135 146 0
131 143 0
138 152 0
128 139 0
141 153 0
133 144 0
144 157 0
140 155 0
126 141 0
130 144 0
135 147 0
142 157 0
138 152 0
139 152 0
145 158 0
141 151 0
147 161 0
137 149 0
147 158 0
140 152 0
150 163 0
142 155 0
144 156 0
143 151 0
146 159 0
139 152 0
138 150 0
138 149 0
151 162 0
146 161 0
147 158 0
149 160 0
146 157 0
139 150 0
148 161 0
152 163 0
144 156 0
150 162 0
155 169 0
151 164 0
148 163 0
152 163 0
149 162 0
146 160 0
153 167 0
148 160 0
156 171 0
150 165 0
152 164 0
153 165 0
154 166 0
154 166 0
152 164 0
161 176 0
151 162 0
158 174 0
155 170 0
151 164 0
155 169 0
154 170 0
155 171 0
156 171 0
157 173 0
157 171 0
161 175 0
155 169 0
155 168 0
160 176 0
157 171 0
162 177 0
162 177 0
153 167 0
161 176 0
158 173 0
159 175 0
167 183 0
158 175 0
159 174 0
161 177 0
164 180 0
161 178 0
164 179 0
162 179 0
162 178 0
165 182 0
157 170 0
164 183 0
165 182 0
164 181 0
165 183 0
158 173 0
163 180 0
162 181 0
163 182 0
164 182 0
165 184 0
160 178 0
167 186 0
166 185 0
167 186 0
168 189 0
164 182 0
166 184 0
166 182 0
162 180 0
165 184 0
164 182 0
167 183 0
172 196 88
171 196 67
175 198 92
172 196 76
171 195 44
171 195 80
168 192 80
169 193 44
169 193 84
171 195 72
172 196 67
170 193 62
173 197 72
171 194 44
173 197 72
172 197 72
170 194 72
170 193 57
170 194 67
171 195 72
169 193 84
171 195 57
167 191 57
169 194 72
171 195 62
164 190 95
172 196 84
168 193 88
169 193 80
170 195 88
172 197 88
169 193 57
166 190 57
167 191 76
165 188 57
168 192 102
163 187 67
166 190 62
164 188 51
167 191 44
167 192 80
168 192 92
171 195 51
166 190 80
170 194 80
169 192 57
167 192 72
169 195 84
170 195 76
171 195 57
163 187 62
170 194 88
168 192 72
168 192 62
165 190 80
168 192 57
168 193 80
171 195 84
168 192 62
168 192 72
168 192 67
162 186 80
166 190 67
168 193 80
166 189 62
164 187 72
163 187 92
169 193 76
168 191 44
162 187 80
165 189 88
163 188 80
162 185 72
165 189 62
163 188 80
164 187 72
163 187 62
157 180 51
163 187 51
161 185 72
163 186 44
164 187 92
165 189 72
161 184 57
163 186 57
166 189 95
163 186 88
157 180 62
162 186 67
159 181 44
164 187 72
163 187 62
164 187 74
160 182 51
159 181 67
158 181 57
154 176 57
156 177 62
160 182 88
162 184 84
162 185 76
157 179 51
150 172 72
164 186 51
160 182 84
158 180 76
147 169 86
84 111 118
84 112 134
85 113 134
98 124 136
98 124 141
97 123 137
89 116 138
89 115 128
97 122 144
98 123 152
89 114 146
66 77 77
63 71 70
93 107 103
88 113 132
93 120 116
92 120 136
90 118 138
88 117 129
90 120 134
85 114 128
90 118 128
79 109 137
74 105 129
80 110 133
80 110 137
61 96 155
60 96 151
62 98 164
61 97 154
61 96 153
60 95 149
61 97 147
60 96 150
60 95 149
60 96 143
60 95 149
59 94 139
59 93 136
59 93 131
60 94 145
59 94 136
58 92 130
59 94 138
61 96 152
60 95 146
60 95 148
58 93 134
61 96 148
61 95 143
60 95 133
59 94 144
60 94 130
60 95 144
60 96 147
60 95 146
59 94 133
61 96 148
61 97 148
59 94 139
62 97 153
60 95 150
60 96 139
61 96 146
60 95 137
60 95 145
62 97 153
61 96 142
62 97 151
60 95 142
60 95 141
61 97 148
61 97 143
60 95 147
59 94 142
60 96 135
62 97 151
62 97 152
61 97 149
61 96 143
61 97 148
62 97 147
59 94 143
62 97 154
60 95 140
61 96 148
58 93 136
61 96 148
63 98 153
61 97 151
61 96 145
60 96 139
61 97 154
61 95 144
61 97 148
60 95 144
60 95 136
61 96 147
61 96 142
61 97 154
60 94 141
61 96 151
61 96 145
62 97 152
61 96 143
62 98 157
60 95 140
61 96 151
62 97 151
60 94 137
61 97 149
61 96 145
62 97 152
62 97 148
60 95 137
61 96 147
60 95 135
62 97 151
59 94 137
61 96 147
61 97 149
60 95 143
62 97 150
60 96 143
62 97 145
61 96 148
60 95 139
61 96 145
61 97 142
62 97 142
61 96 144
61 97 148
62 98 149
60 95 139
62 97 148
59 94 137
62 97 155
59 94 145
60 95 137
61 96 139
60 95 139
61 96 147
60 94 133
60 95 140
60 94 135
61 96 142
60 95 136
59 94 134
60 95 134
60 94 139
61 96 148
61 95 136
61 96 145
58 91 120
60 95 142
61 96 139
59 93 133
60 94 136
61 95 137
61 96 143
59 94 130
59 93 121
60 94 137
60 94 136
58 92 118
60 95 122
60 94 120
57 91 120
59 94 131
59 93 125
58 91 125
58 91 120
59 92 121
71 99 115
127 138 36
132 147 0
129 140 0
125 139 0
126 137 0
135 148 0
130 144 0
127 141 0
131 142 0
127 138 0
131 145 0
138 151 0
138 154 0
136 150 0
140 156 0
134 146 0
138 151 0
140 153 0
145 157 0
137 149 0
136 148 0
140 151 0
137 150 0
144 158 0
137 149 0
143 158 0
136 145 0
139 149 0
135 146 0
146 158 0
149 161 0
144 159 0
141 153 0
143 157 0
147 161 0
145 158 0
139 151 0
143 152 0
137 149 0
143 154 0
140 152 0
149 163 0
151 160 0
149 163 0
149 161 0
145 157 0
149 162 0
148 164 0
150 166 0
152 163 0
153 168 0
156 167 0
146 161 0
155 167 0
152 164 0
153 164 0
138 149 0
151 166 0
157 170 0
148 162 0
156 171 0
153 169 0
153 167 0
147 160 0
153 166 0
156 171 0
157 174 0
153 166 0
148 163 0
159 172 0
153 165 0
157 173 0
153 169 0
159 175 0
153 168 0
154 169 0
165 182 0
161 175 0
156 174 0
159 177 0
161 176 0
159 173 0
161 177 0
161 176 0
155 168 0
155 173 0
159 175 0
158 175 0
162 178 0
160 176 0
163 179 0
153 169 0
160 176 0
159 176 0
159 176 0
163 181 0
161 176 0
158 175 0
161 179 0
166 183 0
159 177 0
164 182 0
166 184 0
168 187 0
165 184 0
166 183 0
168 189 0
163 180 0
164 181 0
162 180 0
164 181 0
161 178 0
168 187 0
166 186 0
165 185 0
162 182 0
168 188 0
166 186 0
162 180 0
169 191 67
169 193 88
171 195 84
173 197 80
170 195 72
171 195 67
172 196 62
171 195 67
169 194 95
169 193 62
171 195 62
170 193 62
169 192 72
172 196 76
170 194 67
173 197 92
169 194 76
170 194 84
171 195 84
169 192 62
169 193 72
168 193 67
171 195 62
161 184 62
168 191 72
171 195 80
170 194 76
167 192 80
169 193 84
171 195 57
169 193 80
167 192 67
168 192 84
166 190 62
170 195 72
166 191 72
167 191 44
167 191 72
169 194 92
170 195 84
165 188 72
168 192 76
163 187 72
167 191 62
171 195 67
170 194 57
167 192 84
163 188 72
166 190 80
169 194 76
160 185 67
166 190 76
166 190 51
166 189 51
169 194 67
166 191 88
168 192 84
162 185 51
164 188 62
165 189 99
167 192 95
164 187 62
167 191 80
165 188 84
158 182 57
168 192 76
164 186 67
169 193 80
159 182 62
162 186 72
165 188 72
166 190 76
166 191 80
167 192 80
165 187 80
167 190 72
167 190 80
167 190 84
163 186 51
165 189 67
166 190 99
165 189 76
161 184 72
164 187 84
168 191 57
161 184 80
162 185 76
167 190 57
163 187 67
165 188 84
157 180 51
159 182 57
161 184 72
156 178 51
160 183 67
159 182 62
157 180 62
160 182 67
158 181 80
157 179 84
156 177 57
162 184 51
153 175 76
160 182 102
159 181 62
159 181 80
158 179 62
111 135 131
106 131 144
86 113 130
104 129 141
89 115 132
92 118 148
101 126 150
92 119 132
102 127 140
101 125 131
77 105 125
80 99 120
73 81 65
87 98 80
88 109 119
102 127 145
80 109 136
79 108 133
81 111 131
90 118 120
91 120 126
89 117 134
93 122 124
77 106 127
83 113 136
82 112 135
61 97 151
61 97 152
60 95 145
61 96 150
62 97 157
61 97 155
60 95 148
59 94 144
61 96 149
61 96 148
60 95 137
60 95 148
60 95 140
58 92 128
60 95 149
59 93 132
60 94 149
60 94 139
59 94 137
60 96 148
60 95 139
61 96 145
60 95 140
61 96 146
60 95 146
60 95 139
59 94 133
61 96 144
62 97 153
60 95 144
61 96 150
60 95 137
60 95 143
61 97 151
61 96 146
60 95 139
61 96 141
61 96 153
60 96 145
62 98 157
61 97 152
61 96 144
61 96 149
60 95 141
61 96 152
60 95 144
61 96 145
60 95 144
62 97 147
61 97 153
61 97 153
60 95 141
61 96 144
60 96 149
62 97 156
60 95 142
60 95 143
62 97 150
61 97 149
62 97 153
62 97 144
61 97 144
61 96 145
61 96 144
59 94 137
61 97 143
61 97 147
61 97 144
61 96 142
59 94 133
61 96 145
60 96 141
62 97 152
60 95 144
61 96 144
62 97 155
61 96 152
60 95 142
60 95 136
62 98 154
61 96 144
62 97 150
61 97 153
61 97 149
61 96 148
59 94 134
61 96 144
62 97 151
60 96 144
60 96 140
61 96 150
61 97 149
62 97 145
61 97 152
61 97 155
60 95 137
62 97 148
60 95 143
61 96 139
61 96 149
61 97 153
60 95 136
61 96 147
59 93 133
61 97 155
60 96 143
60 96 144
60 95 131
61 96 141
62 97 147
60 95 142
60 95 139
61 97 149
60 95 136
61 96 147
60 95 135
61 96 148
61 96 144
60 95 129
59 93 133
60 95 141
60 95 133
60 95 126
60 94 134
60 95 142
60 95 129
60 95 134
60 94 125
59 93 121
61 95 133
60 95 139
61 96 139
60 94 133
59 93 131
60 95 139
59 94 128
61 96 141
59 94 131
59 93 135
61 95 139
59 93 128
60 94 130
59 93 131
59 92 121
58 91 120
59 92 124
59 93 133
102 120 72
124 139 0
126 137 0
128 139 0
128 142 0
130 143 0
132 148 0
122 136 0
124 135 0
134 148 0
122 136 0
130 143 0
133 147 0
132 144 0
121 134 0
142 157 0
139 153 0
137 150 0
137 148 0
139 153 0
141 152 0
130 143 0
137 150 0
135 150 0
143 154 0
137 152 0
137 147 0
136 149 0
136 149 0
146 161 0
127 139 0
144 159 0
144 158 0
139 152 0
147 161 0
156 170 0
153 166 0
141 156 0
145 157 0
139 151 0
143 156 0
149 162 0
140 153 0
151 166 0
140 153 0
143 156 0
156 171 0
150 163 0
152 167 0
153 167 0
154 169 0
152 164 0
142 157 0
153 169 0
159 173 0
149 164 0
148 163 0
143 154 0
161 176 0
154 168 0
150 165 0
155 171 0
157 169 0
156 170 0
150 162 0
155 169 0
161 178 0
159 174 0
159 175 0
155 173 0
154 170 0
153 166 0
161 177 0
151 167 0
157 173 0
152 167 0
158 175 0
159 174 0
154 170 0
158 175 0
160 176 0
159 175 0
161 179 0
154 170 0
157 171 0
160 174 0
162 179 0
160 176 0
159 176 0
162 178 0
157 171 0
156 173 0
166 185 0
153 168 0
158 174 0
164 181 0
160 177 0
164 180 0
160 177 0
165 180 0
164 180 0
161 178 0
167 184 0
164 181 0
157 177 0
161 177 0
164 181 0
160 178 0
161 180 0
165 183 0
165 184 0
169 189 0
165 184 0
166 186 0
167 185 0
165 182 0
161 179 0
169 187 0
162 179 0
166 188 0
169 193 57
172 196 92
173 198 102
171 195 62
172 196 95
172 196 88
169 193 72
171 196 67
170 194 95
174 198 76
173 198 99
171 196 84
166 190 57
172 196 44
172 196 67
169 193 62
171 195 67
172 195 76
171 195 72
165 189 36
167 191 67
170 194 62
164 188 57
166 191 80
167 191 67
167 192 88
169 194 72
171 196 80
170 194 67
168 192 67
172 197 102
169 193 62
168 191 57
170 194 67
170 195 72
170 193 72
165 189 57
170 194 72
166 190 62
166 190 67
168 193 76
166 190 80
165 189 67
168 192 72
169 193 67
169 193 72
166 191 80
168 192 80
167 191 80
171 195 62
169 193 84
160 184 57
171 195 92
166 189 62
170 193 57
167 192 88
165 188 36
166 190 51
166 190 84
171 194 57
161 186 76
165 188 67
168 192 84
169 191 51
166 190 84
165 188 67
160 183 67
167 191 80
163 187 67
162 185 67
164 189 95
169 192 72
165 190 72
164 188 76
164 187 80
161 184 62
165 189 80
161 184 62
157 180 57
159 183 80
160 184 67
161 185 67
165 188 44
160 182 62
154 178 51
162 186 62
158 181 86
168 190 88
162 185 76
157 179 51
163 187 88
160 182 67
159 182 62
158 179 84
162 185 67
159 182 72
164 186 95
158 180 95
154 176 80
158 180 72
159 181 84
156 178 76
158 180 62
154 177 84
148 170 67
150 171 67
166 188 80
148 170 100
96 122 131
102 127 136
91 118 129
93 118 129
86 113 133
89 116 131
99 125 133
91 118 135
93 117 133
95 121 138
101 124 132
78 89 87
80 91 72
67 81 76
84 111 141
99 124 140
87 115 143
92 120 145
80 110 131
88 117 133
98 124 131
102 130 124
80 110 128
79 109 128
76 107 142
67 101 148
62 98 157
62 98 156
60 96 144
61 97 149
61 96 145
60 96 148
61 96 145
61 96 147
61 96 142
61 96 143
60 95 144
58 92 137
60 94 147
60 94 138
60 94 133
59 94 140
60 95 145
61 96 141
58 92 139
58 92 131
60 95 143
60 95 145
60 95 141
60 95 146
60 95 139
61 96 148
58 93 133
60 95 139
60 95 143
60 94 137
61 96 150
59 94 139
59 94 140
61 96 149
59 94 148
60 96 149
60 95 135
60 95 140
60 95 142
61 97 145
60 95 144
60 95 144
61 96 144
60 95 144
61 97 144
59 94 135
60 95 143
61 95 139
61 96 140
61 96 148
62 98 155
61 96 147
61 97 150
60 95 142
60 95 143
60 96 144
62 97 151
60 95 142
61 96 145
60 94 136
61 96 150
61 97 149
61 97 148
61 96 143
60 95 137
62 97 155
62 97 148
61 96 143
61 97 147
59 94 133
61 96 148
59 95 137
61 97 152
60 95 140
61 97 145
61 97 147
61 96 149
62 98 150
60 95 142
61 96 150
60 95 144
60 94 134
60 95 140
60 95 143
62 97 151
60 95 143
60 96 139
61 96 149
60 96 143
61 96 144
60 95 140
61 96 142
61 96 143
61 96 137
60 95 135
61 96 142
61 96 147
61 96 137
61 96 143
60 96 137
62 97 153
60 95 147
62 97 152
61 96 139
60 94 139
61 96 142
61 96 144
61 96 141
59 94 139
61 95 141
61 96 144
61 96 144
61 97 150
61 96 139
60 94 135
61 96 145
59 93 122
61 96 139
59 93 129
61 96 142
61 97 147
60 95 136
61 96 143
58 93 128
62 97 142
59 93 126
59 94 129
60 95 139
60 95 129
60 95 131
59 93 129
59 93 128
61 95 137
59 93 126
59 93 125
61 96 140
60 94 131
60 94 129
61 95 133
60 94 136
59 94 122
59 93 131
60 94 129
57 90 120
59 92 117
82 106 97
128 141 0
124 136 0
129 140 0
125 136 0
118 131 0
139 154 0
125 139 0
129 141 0
141 155 0
136 149 0
129 143 0
137 148 0
135 150 0
136 149 0
136 150 0
138 150 0
133 145 0
132 146 0
138 151 0
141 149 0
131 146 0
134 146 0
129 142 0
136 149 0
131 144 0
139 153 0
142 154 0
144 156 0
135 149 0
144 157 0
139 153 0
138 151 0
140 154 0
144 158 0
135 147 0
149 164 0
137 149 0
143 159 0
141 153 0
146 161 0
144 159 0
146 160 0
147 159 0
149 164 0
150 163 0
154 167 0
142 155 0
142 155 0
143 156 0
148 163 0
146 159 0
146 158 0
153 168 0
150 165 0
150 164 0
152 163 0
153 169 0
141 154 0
151 165 0
153 166 0
153 168 0
157 172 0
159 173 0
160 173 0
156 171 0
148 162 0
154 169 0
154 169 0
159 176 0
151 166 0
151 165 0
154 170 0
159 176 0
156 170 0
156 171 0
156 170 0
159 173 0
158 174 0
155 170 0
160 177 0
163 178 0
160 177 0
159 174 0
162 176 0
164 180 0
160 176 0
161 177 0
167 181 0
157 174 0
158 174 0
161 177 0
159 175 0
158 176 0
160 178 0
160 177 0
160 178 0
163 182 0
163 178 0
160 178 0
166 183 0
163 181 0
164 181 0
160 179 0
162 181 0
161 178 0
162 179 0
164 183 0
162 177 0
164 184 0
165 184 0
165 186 0
166 186 0
164 182 0
163 181 0
166 184 0
165 184 0
167 188 0
168 186 0
160 178 0
162 182 0
168 192 72
172 195 92
170 195 80
170 195 76
170 195 84
169 193 57
169 194 84
170 193 57
172 196 72
171 196 72
172 195 76
170 194 84
170 194 76
172 196 51
172 196 72
169 193 76
174 197 76
167 191 88
169 193 62
173 197 67
168 192 80
170 194 67
168 192 76
171 195 76
168 191 25
166 191 72
166 191 76
171 195 67
169 193 92
170 195 67
170 195 67
169 194 80
169 192 62
170 194 80
170 194 67
170 195 76
168 193 57
170 194 57
171 195 72
169 193 72
166 190 57
171 195 67
170 195 92
168 191 57
168 191 76
166 189 51
163 188 92
167 191 67
162 186 51
167 191 80
168 192 84
170 195 80
165 190 62
164 188 76
167 192 95
167 190 62
167 191 80
166 190 67
166 190 88
168 192 92
161 185 67
164 188 67
171 196 84
167 191 62
167 191 72
164 187 62
171 195 88
165 189 57
166 190 72
164 188 67
163 186 51
162 186 84
162 185 57
163 186 84
163 187 62
159 182 62
164 188 76
167 191 92
164 188 92
164 188 62
162 185 67
168 192 72
165 188 62
161 184 67
165 189 88
163 185 72
165 187 67
158 179 62
160 183 67
161 185 62
167 190 88
158 180 57
155 178 57
160 182 88
157 180 62
165 187 95
162 185 76
157 181 80
163 185 72
159 180 76
154 177 88
161 183 88
161 184 88
157 178 67
160 181 80
160 182 84
158 179 80
157 178 67
133 157 114
95 122 120
90 116 128
88 115 134
100 126 143
102 126 136
90 116 132
98 124 145
101 126 154
90 117 145
100 124 142
82 102 120
81 89 72
78 89 70
90 115 135
90 115 127
94 120 142
101 126 129
84 112 132
97 124 122
84 113 135
83 113 126
91 119 139
87 115 127
88 117 124
72 103 128
63 98 145
62 98 157
61 97 148
59 94 145
60 96 148
59 94 145
60 96 145
61 96 143
60 95 141
61 96 149
60 95 137
59 94 139
61 96 148
60 95 144
59 94 138
58 93 139
58 93 134
59 93 133
60 95 143
60 95 143
58 93 137
60 95 142
60 95 137
59 94 141
60 95 143
59 94 133
58 93 137
60 95 139
59 94 135
60 95 136
59 94 137
61 96 147
58 93 137
60 95 142
60 95 139
61 96 151
60 95 141
60 95 137
60 96 142
60 96 144
60 95 140
61 96 142
60 95 145
62 98 153
61 96 148
60 95 142
60 95 144
60 95 144
60 95 141
60 96 137
61 96 143
62 97 152
62 97 149
60 95 139
61 96 148
61 96 142
60 94 135
62 97 154
61 96 149
60 95 135
61 96 146
61 96 141
62 97 142
61 96 139
61 96 147
60 95 144
62 97 148
61 96 145
60 96 145
61 97 151
60 96 149
60 95 140
61 97 149
61 96 148
61 97 149
61 96 145
61 96 141
61 97 148
60 95 139
60 96 140
61 96 149
60 95 133
62 96 147
61 96 148
61 96 141
60 95 142
61 96 141
61 96 141
62 97 145
61 97 152
61 97 140
60 94 141
61 96 147
60 95 136
60 95 139
61 95 141
61 96 149
60 95 131
60 95 130
60 95 142
61 96 143
61 96 145
60 95 143
60 96 139
61 97 145
61 96 143
61 97 143
61 96 142
61 96 144
62 97 142
60 95 136
62 97 145
62 97 153
61 96 142
60 95 139
62 97 144
59 94 124
62 97 145
60 95 137
60 94 136
58 92 131
60 95 139
59 94 131
60 94 125
60 95 137
60 95 129
59 93 129
60 94 128
59 94 128
60 95 133
60 95 134
60 94 126
59 93 125
60 95 128
58 92 126
59 93 128
60 95 137
59 93 133
59 93 117
60 95 134
58 92 120
59 93 129
59 93 125
59 93 132
59 90 94
105 123 60
126 140 0
133 148 0
131 145 0
128 141 0
126 138 0
125 137 0
133 148 0
143 158 0
129 141 0
137 151 0
129 141 0
135 148 0
139 152 0
130 143 0
135 149 0
133 144 0
128 140 0
142 155 0
136 150 0
141 155 0
129 141 0
143 156 0
135 148 0
142 154 0
141 155 0
142 155 0
136 147 0
148 161 0
140 154 0
140 153 0
141 155 0
142 157 0
146 159 0
144 158 0
141 154 0
150 164 0
140 153 0
146 163 0
138 152 0
143 155 0
142 157 0
147 164 0
157 170 0
150 161 0
147 161 0
143 157 0
153 168 0
146 159 0
148 162 0
151 164 0
151 165 0
151 164 0
149 163 0
150 162 0
150 164 0
151 167 0
149 164 0
157 172 0
155 170 0
151 167 0
154 170 0
153 169 0
155 170 0
153 168 0
149 165 0
157 172 0
155 168 0
154 169 0
148 163 0
154 171 0
159 174 0
157 172 0
161 178 0
155 171 0
158 173 0
160 178 0
157 174 0
161 177 0
161 179 0
161 178 0
159 175 0
163 181 0
155 170 0
159 179 0
161 178 0
161 175 0
157 176 0
158 176 0
161 180 0
161 179 0
155 169 0
163 180 0
163 180 0
164 180 0
154 169 0
165 183 0
167 185 0
164 182 0
162 177 0
166 185 0
162 181 0
163 182 0
163 180 0
166 184 0
163 181 0
167 184 0
163 182 0
165 184 0
162 180 0
163 179 0
169 188 0
160 176 0
165 183 0
165 185 0
167 185 0
163 181 0
163 181 0
165 185 0
163 183 0
165 185 0
172 196 88
173 197 80
173 197 62
170 194 80
168 193 72
165 189 72
171 195 72
169 192 67
172 196 92
171 196 88
171 194 67
170 195 80
172 195 80
172 196 80
173 197 72
167 190 51
169 194 88
169 194 76
171 196 80
169 192 76
165 190 67
167 191 62
171 195 76
171 195 67
171 196 84
170 193 44
170 194 76
165 190 80
170 194 72
173 198 92
166 191 76
169 193 62
165 189 76
165 189 62
168 193 99
172 196 72
166 189 51
167 191 67
166 190 72
168 192 84
173 197 72
169 193 57
169 192 67
167 193 84
167 191 76
165 190 67
166 191 72
169 193 72
167 192 72
170 194 84
165 189 67
163 187 67
169 194 99
165 190 80
166 190 80
167 191 84
163 186 62
169 193 80
164 188 72
170 194 76
171 195 88
169 192 62
165 188 67
169 193 57
164 188 67
165 189 62
165 189 62
171 194 80
160 184 67
162 185 62
160 183 57
166 189 84
163 186 67
170 192 62
164 188 62
162 185 72
163 186 67
163 186 67
164 187 67
152 175 72
161 184 76
162 185 92
166 189 88
163 187 84
158 182 72
158 181 72
167 190 92
157 180 80
162 184 72
166 190 88
158 181 57
167 190 102
158 181 72
162 184 72
161 183 67
154 177 84
156 179 67
160 182 72
155 177 74
159 182 62
155 177 57
157 179 57
156 179 57
151 172 80
161 182 76
162 184 95
157 178 84
151 172 51
138 159 92
108 132 147
96 122 139
94 119 128
87 114 129
93 119 140
85 111 123
106 130 137
102 127 146
87 113 137
107 131 143
112 134 150
81 105 128
81 96 98
89 114 126
75 104 131
101 125 120
90 117 143
98 123 129
82 112 125
94 122 124
80 109 131
93 120 117
95 123 118
71 102 134
80 109 138
76 108 147
61 97 155
61 97 150
61 96 149
61 96 151
61 97 152
61 96 150
60 95 143
62 97 149
60 95 140
60 95 143
59 93 131
59 93 136
59 93 141
60 94 144
57 92 129
58 92 134
57 92 129
58 92 135
59 94 133
60 94 131
59 94 140
60 95 142
61 96 149
60 95 141
60 95 147
59 94 133
60 94 136
59 94 136
61 96 143
60 95 145
61 96 143
61 97 150
59 94 141
61 96 150
61 97 148
59 94 139
60 94 131
61 96 147
60 96 145
60 95 144
61 96 147
61 96 150
58 92 129
60 95 135
61 96 142
61 96 142
61 96 147
60 96 144
60 95 145
61 97 148
60 95 147
59 94 137
61 96 148
62 97 144
62 97 150
60 95 133
61 95 137
62 97 148
61 97 144
61 97 147
62 97 152
62 97 149
59 94 133
60 95 137
60 95 140
60 95 139
61 97 153
59 94 137
62 97 145
60 95 137
60 96 140
59 94 139
61 97 151
61 96 149
60 96 148
61 96 148
61 96 150
60 95 141
61 97 145
61 96 136
61 97 147
61 97 147
61 96 144
61 96 152
61 97 148
60 95 134
61 96 140
61 97 144
60 95 140
61 96 143
60 94 139
62 97 151
60 96 143
61 96 142
59 94 130
62 97 148
61 96 137
60 95 143
60 95 140
61 96 143
61 96 137
61 96 144
60 94 133
62 97 153
62 97 144
62 97 150
60 95 134
60 95 133
61 95 137
61 96 144
59 93 128
61 96 145
60 95 142
60 95 135
60 95 124
61 96 137
60 95 134
59 93 131
62 96 143
60 94 135
61 96 140
60 95 126
61 96 144
59 94 133
62 97 147
61 96 149
59 94 131
59 93 126
61 95 133
60 95 142
58 92 120
60 95 137
59 93 131
59 93 134
61 95 131
59 93 130
60 94 129
58 92 114
59 93 125
60 94 130
58 92 128
58 92 128
59 92 114
86 108 94
134 147 0
130 144 0
126 140 0
127 141 0
127 139 0
131 144 0
123 135 0
131 145 0
129 141 0
128 141 0
129 142 0
127 140 0
137 152 0
131 144 0
140 153 0
127 138 0
140 154 0
139 156 0
141 156 0
132 145 0
134 148 0
136 150 0
133 148 0
135 149 0
140 157 0
139 152 0
130 143 0
144 159 0
142 155 0
143 157 0
138 152 0
143 157 0
150 164 0
138 150 0
135 147 0
148 161 0
149 162 0
155 169 0
150 164 0
146 159 0
144 158 0
156 173 0
148 163 0
157 173 0
141 154 0
151 167 0
143 158 0
152 167 0
142 156 0
150 164 0
145 159 0
153 169 0
151 164 0
153 168 0
154 169 0
153 169 0
152 167 0
155 171 0
148 163 0
149 161 0
148 163 0
153 169 0
151 165 0
151 167 0
158 175 0
157 170 0
156 170 0
157 173 0
158 174 0
152 165 0
159 172 0
155 170 0
155 172 0
159 174 0
153 167 0
153 169 0
153 169 0
159 174 0
158 174 0
158 173 0
156 171 0
159 176 0
163 180 0
159 176 0
156 172 0
163 180 0
159 176 0
164 181 0
163 179 0
161 176 0
158 176 0
163 180 0
163 180 0
162 179 0
165 183 0
160 177 0
163 178 0
160 177 0
162 179 0
163 178 0
166 182 0
161 180 0
158 177 0
169 187 0
164 183 0
161 179 0
166 184 0
166 185 0
163 182 0
162 181 0
166 186 0
163 180 0
167 185 0
165 184 0
165 185 0
167 187 0
167 185 0
158 172 0
168 187 0
166 186 0
165 182 0
171 194 44
171 194 51
173 196 88
174 198 72
172 195 67
172 196 84
167 191 62
167 191 72
171 196 72
172 197 76
170 193 67
173 198 88
171 195 88
171 195 57
165 189 67
174 197 72
174 199 76
169 194 67
172 196 80
170 195 88
169 195 80
173 197 76
168 193 72
172 196 76
169 194 57
165 189 80
168 193 84
166 190 67
168 192 57
165 188 57
170 193 67
169 192 62
171 195 72
170 194 84
168 192 62
168 193 80
168 192 72
165 188 51
170 194 76
169 194 84
167 191 72
168 191 67
166 189 67
168 192 76
164 188 84
167 191 51
167 193 67
162 185 51
167 190 57
165 189 67
169 194 72
167 190 67
169 193 72
171 195 84
170 195 80
169 194 76
164 188 84
169 193 57
162 186 84
165 188 67
161 185 80
163 187 102
165 189 51
168 191 62
168 192 84
164 188 84
164 188 92
159 183 67
166 190 80
166 189 76
162 186 84
168 190 57
160 183 72
164 188 84
165 187 84
156 179 67
164 186 84
160 185 84
165 189 72
158 181 62
162 185 76
164 188 76
165 189 51
162 185 67
162 185 72
160 183 99
162 185 67
165 187 80
159 182 72
161 184 62
157 181 84
155 178 67
159 181 67
159 182 76
157 180 72
162 184 76
159 181 76
158 182 57
159 182 82
155 176 72
163 185 84
158 180 51
164 187 80
150 172 80
158 180 84
159 181 84
152 174 72
146 168 25
154 176 62
121 144 116
96 121 118
94 120 126
90 117 130
100 126 140
88 115 142
92 117 134
100 125 140
85 112 141
100 123 131
98 122 140
89 115 137
91 117 128
78 106 133
80 109 126
92 118 135
99 126 134
99 124 141
79 108 123
99 125 121
77 105 127
90 118 132
102 127 111
71 103 132
80 110 132
81 110 137
61 96 152
60 96 152
59 94 142
62 97 152
60 95 140
60 96 151
60 95 151
61 96 149
61 96 146
59 93 136
58 93 130
59 94 136
59 94 136
58 92 126
57 91 129
59 93 138
61 96 141
58 93 130
57 91 129
59 94 144
58 92 133
61 96 149
59 94 144
59 94 134
59 94 144
59 94 129
60 95 137
61 96 141
61 96 144
60 95 134
60 95 140
59 94 135
60 95 140
60 95 140
61 96 143
61 97 151
61 97 152
59 93 134
61 96 149
61 96 151
59 94 137
60 95 137
60 95 143
61 96 142
61 96 145
60 95 134
60 95 141
61 96 143
61 97 147
61 96 143
60 95 139
61 96 149
60 95 137
61 97 150
60 96 139
61 96 142
60 95 135
62 96 147
60 95 148
61 96 148
61 96 145
60 95 139
61 96 141
60 95 135
61 97 147
61 97 148
60 95 142
61 96 143
61 96 135
61 96 142
60 94 142
61 97 145
60 95 135
61 96 143
60 95 139
61 95 139
60 95 133
61 97 148
60 95 140
61 95 147
60 95 141
60 96 150
61 96 150
60 95 139
61 96 147
60 95 140
62 97 147
61 97 147
60 96 149
62 97 152
61 96 148
61 96 142
60 95 130
61 96 143
61 96 150
60 95 136
61 96 150
61 96 143
60 95 139
62 97 144
61 96 145
60 95 139
60 95 137
60 95 134
61 96 149
61 95 136
61 96 139
60 95 144
59 94 135
60 94 130
60 95 136
60 94 130
61 96 135
60 94 129
60 94 140
61 96 142
60 95 134
61 96 137
60 95 136
58 92 122
60 95 135
60 94 136
60 95 134
61 96 139
59 93 133
59 94 134
59 93 130
60 95 135
60 94 130
61 96 137
58 93 122
59 94 121
60 94 133
59 93 133
59 93 122
60 95 131
60 95 122
60 94 130
58 92 121
60 94 135
59 93 121
59 93 121
63 94 108
127 142 25
133 146 0
139 154 0
132 146 0
131 146 0
122 134 0
126 139 0
132 146 0
134 147 0
132 145 0
139 153 0
135 150 0
134 149 0
139 152 0
137 153 0
126 138 0
135 148 0
139 153 0
131 145 0
138 155 0
137 152 0
136 148 0
145 163 0
139 154 0
139 151 0
137 153 0
143 157 0
140 151 0
143 154 0
142 157 0
145 160 0
143 154 0
139 153 0
142 154 0
146 161 0
149 163 0
141 157 0
147 163 0
148 160 0
147 161 0
145 161 0
141 155 0
146 159 0
147 162 0
146 161 0
136 150 0
149 164 0
146 161 0
156 171 0
142 154 0
151 164 0
149 165 0
153 168 0
154 167 0
156 172 0
152 168 0
151 166 0
156 173 0
161 178 0
159 174 0
146 161 0
153 167 0
152 164 0
154 168 0
154 168 0
152 167 0
159 174 0
150 165 0
152 165 0
153 168 0
161 179 0
158 175 0
155 171 0
153 168 0
162 178 0
152 167 0
160 174 0
156 171 0
159 175 0
155 173 0
159 175 0
158 174 0
156 174 0
160 178 0
166 183 0
162 181 0
157 174 0
161 178 0
160 177 0
159 172 0
164 179 0
158 174 0
159 176 0
157 172 0
161 178 0
159 176 0
161 180 0
165 182 0
161 178 0
161 178 0
160 178 0
163 180 0
161 177 0
162 180 0
158 177 0
160 180 0
167 186 0
162 181 0
167 186 0
164 183 0
162 181 0
165 184 0
162 180 0
166 184 0
164 185 0
166 184 0
168 188 0
167 187 0
161 179 0
161 180 0
166 185 0
165 186 0
169 193 57
173 196 72
174 197 76
172 196 72
173 198 84
168 193 84
171 194 62
172 196 92
168 192 62
170 195 72
170 194 76
170 194 80
172 196 51
167 191 62
171 195 84
169 193 62
167 191 62
170 194 51
168 192 84
173 198 88
170 194 76
171 196 72
170 194 67
172 197 80
166 191 88
168 193 84
169 194 72
169 193 44
171 196 76
171 194 72
166 190 72
171 195 102
167 192 76
168 191 57
170 194 62
169 193 67
171 195 67
165 190 62
172 197 88
169 193 80
173 196 76
166 191 72
168 193 84
166 190 76
167 192 67
165 189 67
166 190 84
166 189 62
166 189 62
167 191 67
160 184 57
169 193 67
166 189 62
170 193 88
162 186 92
168 192 72
171 194 80
172 195 92
170 194 72
167 191 95
170 194 84
167 190 62
164 187 80
163 187 76
165 190 92
163 187 76
164 189 76
169 194 92
163 186 67
168 192 67
162 185 76
162 186 57
168 191 76
164 189 84
156 179 57
166 190 57
164 187 76
165 187 76
169 193 95
164 187 62
159 183 80
161 185 67
162 184 67
164 188 67
164 188 92
162 185 62
163 187 76
159 182 72
159 183 51
166 189 76
156 179 72
157 180 72
161 184 92
158 180 51
154 177 76
161 183 67
161 183 72
157 179 80
151 174 62
154 176 84
160 183 88
154 175 62
152 173 44
153 175 67
159 180 95
162 184 84
154 176 62
160 181 62
147 167 76
145 166 76
94 119 122
87 113 118
106 130 143
84 111 115
101 126 147
91 118 139
87 113 133
94 120 144
94 120 129
91 115 131
91 116 144
99 124 134
82 110 129
86 113 135
88 114 134
96 122 134
99 124 139
96 122 128
89 116 125
85 114 128
87 115 119
82 111 129
87 115 120
75 105 131
75 105 118
73 104 143
61 96 149
61 96 152
60 96 145
60 95 144
60 95 143
61 96 149
60 95 144
61 96 145
60 94 142
59 94 136
59 93 133
58 92 131
58 93 131
59 93 134
58 92 130
60 94 138
59 94 140
59 93 131
60 95 150
60 95 133
61 96 144
58 92 136
60 95 139
61 95 142
61 96 145
60 95 136
59 93 131
61 96 149
60 94 136
60 95 140
60 95 140
61 96 143
60 94 141
60 96 139
59 94 136
60 95 141
61 96 146
62 97 150
61 97 149
60 96 141
60 95 143
61 96 144
61 95 143
61 96 144
60 95 137
60 95 143
60 95 143
61 97 150
61 96 144
60 95 139
60 95 140
60 95 142
62 97 143
61 97 149
60 95 136
60 94 139
62 97 145
60 95 147
61 96 145
61 96 149
60 95 144
61 96 145
60 95 129
60 95 136
60 95 137
60 95 142
62 97 144
60 95 136
60 95 135
61 96 140
60 96 139
61 96 149
60 95 137
62 97 150
61 96 143
59 94 149
60 95 137
62 98 151
61 97 149
62 97 151
61 97 147
61 96 144
60 96 147
60 94 131
61 96 143
60 95 142
61 96 139
60 95 141
61 96 140
60 95 137
61 96 142
61 96 141
62 97 148
60 94 134
61 95 140
59 94 128
60 95 136
60 94 129
60 96 135
61 96 141
60 95 137
61 96 143
59 94 140
60 95 128
60 94 141
60 94 133
59 94 126
60 95 135
61 96 137
61 96 142
61 96 139
60 94 136
60 95 134
59 94 135
60 94 133
60 94 134
60 94 137
61 96 145
59 93 133
58 92 129
60 95 133
60 94 134
59 93 130
61 95 130
60 95 144
60 94 128
60 95 131
59 93 126
59 93 130
58 92 121
59 93 117
60 94 133
59 93 128
59 93 129
60 94 128
58 92 105
60 94 129
59 93 128
59 93 121
58 91 122
57 90 105
114 130 62
115 129 0
131 145 0
131 144 0
133 147 0
127 141 0
125 135 0
130 146 0
133 146 0
138 152 0
127 143 0
134 148 0
124 138 0
132 146 0
141 157 0
135 149 0
132 147 0
140 156 0
137 150 0
130 142 0
130 143 0
131 147 0
145 162 0
145 158 0
138 152 0
151 164 0
137 152 0
141 155 0
134 146 0
139 153 0
137 150 0
143 159 0
139 152 0
139 152 0
139 156 0
139 152 0
144 159 0
142 157 0
149 163 0
133 147 0
148 164 0
142 157 0
141 154 0
151 168 0
149 165 0
143 156 0
146 158 0
147 161 0
146 160 0
152 166 0
147 163 0
151 169 0
153 167 0
141 154 0
148 164 0
149 164 0
149 165 0
152 165 0
151 164 0
150 168 0
154 171 0
149 166 0
159 174 0
161 178 0
156 173 0
155 170 0
155 170 0
154 169 0
155 171 0
154 171 0
157 173 0
151 166 0
161 175 0
155 168 0
155 172 0
153 172 0
157 172 0
164 181 0
160 177 0
158 173 0
160 177 0
161 176 0
158 177 0
155 167 0
160 176 0
155 170 0
161 179 0
160 178 0
158 173 0
153 166 0
154 174 0
163 181 0
160 174 0
162 180 0
159 178 0
163 180 0
166 185 0
162 181 0
156 173 0
167 184 0
161 180 0
162 180 0
161 182 0
160 179 0
161 180 0
165 182 0
161 181 0
160 179 0
165 182 0
163 185 0
162 182 0
164 183 0
162 181 0
166 185 0
165 184 0
169 188 0
165 185 0
163 183 0
165 183 0
165 184 0
163 182 0
165 186 0
165 185 0
172 196 67
168 192 76
172 197 76
170 194 62
172 196 76
173 198 99
171 195 84
169 194 67
171 196 62
169 193 57
173 198 99
169 193 44
169 194 92
168 193 51
164 188 62
173 197 88
170 194 67
168 191 51
171 196 76
166 190 72
170 194 76
173 198 88
171 195 80
168 191 57
169 194 76
174 198 88
168 192 72
167 191 76
167 193 80
171 195 67
170 195 92
162 186 67
164 187 76
167 190 44
170 195 102
169 193 67
167 191 72
168 193 92
169 193 80
169 193 80
170 194 76
168 192 76
165 188 57
169 194 72
171 194 67
171 196 80
169 192 95
172 197 92
166 189 76
169 193 99
161 184 25
166 190 84
174 197 88
170 192 99
169 191 80
169 192 80
170 194 99
168 192 88
169 193 88
165 188 80
170 194 84
170 194 84
162 185 76
166 189 76
166 189 99
166 190 102
165 188 62
161 184 76
165 188 72
171 195 84
162 185 92
164 187 76
164 188 80
159 182 72
166 189 51
165 187 51
167 190 76
165 189 80
165 189 67
159 183 67
163 187 51
158 181 62
165 188 80
167 190 76
159 183 72
164 188 102
159 181 72
165 187 92
164 188 57
156 179 80
160 182 67
160 182 57
158 181 57
164 186 76
166 188 84
160 182 74
155 177 57
153 175 25
153 176 72
159 181 67
161 183 90
151 172 51
157 179 95
157 179 76
150 173 57
156 178 57
158 181 44
156 178 84
139 160 62
150 171 62
132 155 105
97 123 125
93 119 128
85 111 103
90 115 131
99 123 131
88 115 129
90 117 122
79 108 128
110 133 149
87 114 126
106 129 141
83 109 127
89 116 140
88 114 137
85 113 120
94 121 144
88 115 139
79 108 131
83 112 131
93 121 129
90 117 139
88 116 126
80 110 139
78 108 134
70 102 143
61 97 149
61 96 144
61 96 151
62 97 158
61 96 140
59 94 136
60 95 131
60 95 144
61 96 145
59 94 140
60 94 136
60 94 126
58 93 133
59 94 139
58 92 121
60 95 142
61 96 145
59 93 126
59 94 134
61 95 141
60 95 145
59 93 135
60 95 141
61 96 144
60 95 132
59 94 137
60 94 136
60 96 151
60 95 143
59 93 138
59 94 139
60 95 139
60 94 136
60 95 137
61 96 148
61 96 150
61 96 147
60 95 139
60 95 144
62 98 150
61 96 148
60 95 147
61 96 142
60 95 133
60 95 136
59 94 134
61 96 148
61 96 142
61 96 140
61 97 150
62 97 152
60 95 148
61 97 149
59 94 131
60 95 145
60 95 137
62 97 140
61 96 145
62 97 148
62 97 145
60 95 139
63 98 157
62 97 147
61 96 144
60 95 135
61 96 141
60 94 142
61 97 147
60 95 136
61 96 147
61 97 144
61 97 147
61 96 147
60 95 134
60 95 137
60 95 142
60 96 144
60 94 136
61 96 137
60 95 135
60 95 136
61 96 150
60 95 138
58 93 121
61 96 150
61 96 141
62 97 147
61 95 137
61 96 149
61 97 144
61 96 141
61 96 141
61 96 135
60 94 128
61 96 139
61 96 148
61 96 139
59 94 135
60 95 140
60 95 141
60 95 135
61 96 143
61 97 147
61 95 141
61 96 141
60 95 139
60 95 135
60 94 134
60 95 130
61 96 142
60 94 133
59 94 134
59 94 133
60 95 134
60 95 134
60 94 133
58 93 118
60 95 135
59 94 135
60 95 136
60 94 126
60 95 133
59 94 133
59 93 126
60 95 137
59 93 131
60 94 133
59 94 128
60 95 133
60 94 125
59 93 129
60 94 130
58 92 125
59 93 125
59 93 120
59 93 121
59 93 118
59 93 120
59 92 125
58 91 113
86 107 74
133 149 0
128 145 0
128 141 0
129 142 0
124 138 0
139 155 0
131 146 0
127 141 0
131 148 0
135 151 0
126 142 0
136 150 0
130 145 0
141 155 0
134 151 0
122 136 0
140 157 0
150 165 0
144 159 0
136 154 0
128 143 0
137 153 0
139 153 0
147 164 0
148 161 0
144 159 0
134 150 0
146 159 0
144 159 0
145 160 0
137 152 0
138 153 0
142 158 0
139 156 0
142 159 0
141 156 0
152 168 0
145 159 0
144 159 0
140 154 0
150 166 0
144 158 0
138 150 0
146 162 0
152 167 0
148 162 0
150 164 0
151 167 0
142 156 0
148 163 0
155 173 0
150 165 0
151 165 0
145 162 0
149 164 0
148 163 0
152 166 0
157 175 0
150 165 0
157 172 0
159 176 0
154 170 0
159 172 0
155 171 0
147 162 0
145 159 0
149 164 0
158 173 0
152 168 0
154 170 0
150 166 0
160 176 0
157 173 0
161 177 0
153 168 0
161 179 0
155 171 0
158 175 0
155 172 0
159 176 0
156 170 0
158 175 0
159 176 0
159 176 0
162 180 0
160 175 0
160 178 0
162 179 0
163 180 0
161 178 0
164 183 0
161 176 0
162 179 0
162 178 0
166 184 0
161 179 0
161 179 0
164 184 0
166 186 0
163 180 0
161 180 0
164 183 0
164 181 0
163 181 0
160 177 0
162 180 0
163 181 0
162 180 0
163 180 0
165 184 0
164 183 0
164 184 0
164 184 0
166 186 0
168 185 0
164 185 0
167 186 0
164 182 0
162 181 0
166 184 0
163 182 0
162 180 0
162 180 0
172 195 51
167 191 44
171 195 76
169 194 72
171 195 92
168 192 76
173 198 88
173 196 62
173 198 62
172 196 44
166 190 92
170 194 95
169 194 84
165 190 92
170 194 62
173 197 88
168 192 62
172 196 84
171 195 72
171 195 57
170 196 76
171 194 62
166 190 92
170 194 62
166 191 80
169 192 76
167 192 72
171 195 76
173 197 76
168 192 62
168 193 80
168 192 67
172 194 62
168 191 76
169 193 67
166 189 62
169 194 102
168 193 92
171 194 72
172 195 99
170 194 111
172 196 84
164 188 57
169 192 84
166 189 80
169 193 84
173 195 84
165 188 88
166 189 84
168 192 88
170 193 72
171 194 92
172 195 95
171 195 99
173 196 102
167 189 80
168 191 76
165 188 92
170 193 95
172 194 80
162 186 92
167 191 76
169 192 67
170 194 92
165 187 76
174 196 92
162 186 76
164 188 80
163 185 72
174 197 114
158 181 67
170 194 105
160 183 84
164 187 95
160 184 99
159 182 72
168 192 102
165 189 84
160 184 76
164 187 62
166 189 76
162 186 88
158 180 44
159 182 84
160 183 67
161 184 67
153 176 72
157 180 57
153 176 57
159 182 76
159 183 72
165 188 76
159 180 57
158 181 76
154 175 51
149 171 51
160 181 84
155 178 62
159 181 67
154 176 72
159 181 76
156 179 76
154 176 80
150 172 76
153 174 72
150 171 57
152 173 67
150 170 67
151 173 62
154 176 84
154 174 67
103 128 120
98 123 124
83 109 107
86 113 123
86 112 124
103 127 137
93 119 138
80 108 114
103 127 139
87 113 131
102 126 141
97 122 131
82 108 131
109 132 150
89 116 122
90 116 131
99 124 136
87 114 129
81 109 116
98 125 123
93 120 127
98 124 113
86 114 122
79 108 116
84 113 126
68 101 140
61 96 147
61 96 147
61 96 151
60 95 147
59 94 134
61 96 150
61 96 142
59 93 145
59 93 140
60 95 141
59 93 132
58 92 127
59 94 134
59 93 129
59 93 133
61 97 145
59 93 134
58 92 125
61 96 148
60 95 142
60 95 133
59 94 136
60 95 135
60 95 136
59 94 133
59 93 133
61 96 137
60 95 133
60 96 139
59 94 137
60 95 143
60 96 139
60 95 138
61 96 144
61 95 136
61 96 139
59 94 134
61 96 139
59 94 127
59 94 136
60 95 134
60 95 142
59 94 138
60 95 139
60 96 141
59 93 134
59 94 133
61 96 148
60 95 144
61 96 142
60 96 135
59 94 142
62 97 147
60 95 133
60 95 138
61 96 149
61 96 142
60 96 140
60 96 141
60 94 135
61 96 136
61 96 142
61 96 145
61 96 143
61 97 149
60 95 140
60 94 141
60 96 142
62 97 144
59 94 134
61 96 144
60 95 134
60 96 145
61 97 149
62 97 145
60 95 139
61 96 143
62 97 147
61 96 141
60 94 134
61 96 142
61 96 141
61 96 139
60 95 143
61 97 150
59 94 131
61 96 144
60 94 143
59 94 131
61 96 142
60 95 137
59 94 135
61 95 139
61 96 145
60 95 143
60 95 139
61 97 144
62 97 142
60 95 135
62 97 143
61 95 143
61 95 135
60 95 130
60 94 128
60 94 128
59 94 134
59 94 131
60 95 140
62 97 144
61 96 139
60 94 133
59 93 136
60 94 130
60 94 133
61 95 137
60 95 130
60 94 129
60 94 134
60 94 131
61 95 136
60 95 131
59 94 128
58 92 122
59 93 125
61 96 140
60 95 131
59 93 130
59 93 121
57 91 100
60 95 135
59 93 125
59 93 124
61 95 133
58 91 111
59 93 122
57 90 113
57 91 111
58 91 108
68 98 113
117 133 36
134 151 0
123 136 0
127 140 0
124 138 0
137 152 0
133 147 0
137 153 0
128 144 0
130 144 0
129 145 0
124 139 0
135 150 0
142 156 0
134 149 0
137 152 0
135 147 0
134 150 0
136 149 0
139 153 0
132 145 0
133 148 0
138 153 0
130 144 0
141 156 0
139 154 0
142 159 0
140 155 0
130 146 0
142 158 0
145 159 0
138 152 0
144 160 0
142 156 0
146 159 0
139 155 0
142 156 0
146 162 0
144 160 0
138 154 0
150 163 0
147 162 0
146 160 0
142 156 0
144 158 0
146 163 0
151 166 0
150 163 0
152 169 0
151 168 0
146 161 0
149 163 0
155 171 0
149 163 0
155 171 0
153 166 0
154 170 0
150 165 0
153 169 0
154 168 0
150 166 0
149 165 0
155 170 0
146 162 0
158 173 0
147 161 0
150 164 0
154 170 0
156 171 0
149 163 0
148 164 0
156 172 0
154 172 0
155 172 0
160 177 0
151 168 0
155 173 0
163 180 0
156 169 0
159 174 0
159 177 0
166 183 0
159 175 0
158 175 0
157 172 0
166 183 0
161 177 0
161 180 0
160 178 0
160 176 0
157 175 0
159 177 0
164 182 0
159 176 0
159 177 0
164 183 0
163 181 0
160 177 0
158 177 0
162 179 0
167 184 0
168 186 0
165 184 0
159 176 0
166 186 0
161 179 0
164 184 0
167 184 0
164 182 0
164 184 0
165 184 0
165 184 0
163 181 0
164 183 0
160 180 0
165 183 0
162 182 0
163 181 0
165 183 0
167 186 0
163 181 0
162 182 0
166 185 0
167 185 0
173 196 51
170 194 84
171 195 67
174 197 62
171 194 76
172 196 72
168 192 80
175 199 88
169 193 44
170 194 62
173 197 51
167 191 88
171 196 95
169 193 80
166 190 72
168 192 72
169 193 72
169 192 51
167 191 72
171 195 88
166 189 51
170 194 76
169 193 67
168 192 67
171 194 76
168 194 76
168 193 92
167 192 80
169 193 80
170 194 72
168 192 62
172 196 84
173 196 84
167 191 72
172 196 76
167 191 76
173 197 95
172 195 80
172 195 99
175 199 105
171 194 84
172 195 95
167 191 84
174 197 80
174 197 105
171 194 95
169 192 92
166 189 62
169 193 88
173 196 108
174 197 114
169 192 92
175 198 99
169 192 80
174 196 114
173 197 114
169 192 99
171 193 84
171 194 102
170 193 92
170 192 95
166 189 99
173 197 105
169 192 111
169 193 92
168 191 92
167 189 88
173 195 111
167 190 102
171 195 99
163 186 99
164 188 92
166 190 84
164 188 72
160 183 76
164 188 80
166 189 80
170 193 76
164 186 92
164 187 80
159 182 51
165 188 84
164 189 95
164 187 76
158 181 76
159 182 62
157 179 67
162 185 88
164 186 76
158 181 67
160 182 95
157 180 57
164 186 76
165 188 84
161 183 80
159 183 72
157 180 57
157 178 76
153 176 62
157 180 84
159 181 70
157 178 62
162 184 80
153 175 84
161 182 88
148 170 57
152 173 57
158 179 99
151 173 51
151 173 62
154 175 84
138 160 94
100 123 133
95 120 134
95 121 135
92 118 124
85 112 126
102 127 136
100 125 133
93 118 124
90 116 141
92 117 141
105 130 141
87 113 134
88 114 134
88 114 132
93 120 127
100 126 130
99 124 128
87 115 114
84 113 130
88 118 132
97 123 120
81 110 125
81 111 124
90 117 130
86 115 129
61 96 142
59 95 143
61 95 137
60 96 155
61 96 151
60 95 142
61 96 143
61 97 146
60 95 144
61 96 152
58 92 128
58 91 126
59 93 135
57 90 124
58 92 124
60 94 146
59 94 135
58 91 121
59 93 136
60 95 141
60 95 137
60 94 139
60 95 142
60 95 136
60 95 147
60 95 146
59 94 134
60 94 137
58 92 126
59 94 130
60 95 134
60 96 144
60 95 130
60 95 137
61 96 151
60 95 141
60 95 140
60 95 138
61 95 139
62 97 151
60 95 142
60 95 133
60 95 141
60 94 131
60 95 139
60 95 131
61 96 140
60 95 135
59 94 134
61 96 141
60 95 137
61 96 148
60 95 135
61 96 139
60 95 134
60 95 141
61 96 143
61 96 142
62 97 147
59 94 136
60 95 131
61 96 144
61 96 137
61 96 151
61 95 143
61 97 149
60 95 147
61 96 145
61 96 144
61 97 148
60 95 141
60 94 143
59 94 125
61 96 141
60 94 131
60 94 134
61 97 144
60 95 141
61 96 143
60 95 136
61 96 141
61 96 139
59 94 130
59 94 126
60 95 135
60 95 142
60 95 141
61 97 145
62 97 145
58 93 133
61 96 143
61 96 141
60 94 129
61 97 147
62 97 148
61 96 141
62 97 144
60 95 139
60 95 136
60 95 140
60 94 133
60 94 133
61 96 131
60 94 136
60 95 133
61 97 140
61 96 144
59 93 128
60 94 130
61 96 145
60 95 145
59 93 125
61 96 140
60 95 133
61 96 134
61 96 137
61 96 136
59 93 124
58 92 121
60 95 135
59 93 125
59 93 124
61 96 139
60 95 140
58 93 125
60 94 128
60 94 126
60 94 125
59 94 129
60 94 126
60 94 133
59 94 131
60 95 137
58 92 124
60 94 130
60 94 131
59 92 126
58 91 113
102 120 62
112 127 0
133 148 0
135 149 0
134 150 0
121 138 0
124 137 0
119 134 0
132 148 0
137 151 0
135 148 0
134 149 0
123 137 0
129 144 0
131 147 0
134 147 0
136 152 0
137 152 0
130 146 0
133 147 0
125 140 0
133 146 0
137 149 0
138 152 0
147 162 0
135 152 0
132 147 0
137 153 0
137 150 0
146 163 0
135 148 0
138 151 0
141 155 0
144 158 0
147 162 0
140 156 0
137 150 0
143 157 0
145 162 0
144 159 0
141 156 0
148 165 0
147 160 0
148 163 0
148 162 0
156 171 0
149 166 0
146 158 0
151 166 0
153 171 0
152 168 0
157 173 0
157 174 0
152 169 0
155 171 0
149 164 0
150 165 0
151 167 0
156 170 0
150 163 0
153 169 0
154 170 0
151 167 0
141 157 0
150 166 0
153 171 0
153 168 0
149 165 0
155 173 0
151 168 0
153 169 0
157 171 0
157 173 0
153 170 0
157 174 0
153 169 0
153 171 0
158 176 0
150 169 0
156 174 0
155 169 0
155 173 0
158 174 0
157 172 0
159 173 0
156 172 0
161 177 0
156 175 0
161 178 0
153 170 0
156 172 0
156 173 0
161 179 0
160 177 0
164 183 0
155 174 0
158 177 0
163 182 0
158 174 0
160 180 0
161 180 0
157 176 0
159 177 0
165 184 0
160 179 0
161 178 0
164 182 0
162 180 0
161 177 0
157 176 0
164 183 0
166 184 0
163 183 0
164 184 0
164 182 0
166 188 0
166 185 0
163 183 0
168 188 0
162 180 0
163 182 0
161 181 0
163 183 0
162 182 0
164 184 0
170 194 67
170 194 62
170 193 72
173 197 80
168 193 76
175 199 92
172 197 76
169 193 84
171 195 67
172 196 88
168 192 72
170 193 72
170 195 80
172 196 76
172 196 72
167 191 44
171 195 62
169 193 57
166 190 62
172 196 72
166 190 72
169 192 44
173 197 99
170 194 76
172 196 51
169 192 62
171 196 92
170 194 92
171 195 76
170 194 76
169 193 62
172 196 92
171 194 80
172 195 92
172 195 92
166 190 84
168 193 108
170 193 88
168 191 84
171 194 92
165 190 88
173 196 108
176 199 111
166 190 80
170 193 92
172 196 102
171 194 84
170 194 108
176 199 128
173 197 108
169 192 95
176 198 95
169 192 111
172 195 99
170 194 108
168 191 108
164 187 84
172 194 92
169 192 108
166 190 105
173 197 130
165 188 95
161 184 80
168 191 102
164 187 67
166 189 92
166 189 111
171 194 80
171 193 99
169 192 102
164 187 76
163 186 76
172 194 105
162 185 95
166 189 99
166 189 92
160 184 80
161 183 51
167 190 95
161 183 80
166 189 84
162 185 80
165 188 105
165 189 92
158 181 84
152 175 76
160 182 72
163 186 72
161 184 84
154 176 80
159 181 62
160 183 88
161 184 84
152 175 57
161 184 88
156 179 80
159 180 67
150 172 72
154 177 67
157 178 72
158 180 80
155 177 62
158 180 72
150 172 51
159 181 92
156 178 57
158 180 92
161 182 95
162 183 80
156 177 80
151 171 80
145 166 57
117 139 105
83 110 128
95 120 125
94 120 123
89 115 137
86 113 128
84 112 136
106 129 136
91 117 142
93 118 128
91 116 132
92 116 136
91 117 113
91 116 141
105 129 134
93 118 121
93 119 126
94 119 135
84 113 136
90 117 127
91 118 115
86 114 118
72 104 139
84 113 123
72 104 132
65 100 149
61 96 148
60 95 141
60 96 148
59 94 130
59 94 139
60 95 140
60 94 139
59 94 143
58 93 128
59 94 136
59 93 133
57 90 120
57 91 116
58 91 129
58 92 136
60 94 129
59 93 127
58 92 134
61 96 145
60 94 139
60 94 135
58 93 139
60 96 139
60 95 131
59 93 128
59 94 138
61 96 147
61 95 140
59 93 129
61 95 135
59 93 131
59 94 130
59 94 124
59 93 131
60 94 137
61 96 139
60 95 130
61 96 139
60 95 145
61 97 142
59 94 133
60 94 139
60 94 130
58 92 137
60 95 134
59 95 136
60 94 134
60 95 137
59 94 149
60 95 141
61 96 136
59 94 129
61 96 142
61 96 140
60 95 134
59 93 137
61 96 142
60 95 134
60 95 143
61 96 144
60 95 146
60 95 130
60 95 141
60 95 141
61 97 145
60 95 135
59 93 133
60 95 136
60 96 137
60 95 131
60 95 145
60 95 139
59 94 128
61 96 145
61 96 137
61 96 145
60 95 136
61 96 143
59 94 129
60 94 141
60 95 141
62 96 137
60 95 140
60 95 139
60 96 140
61 95 140
60 94 128
60 94 139
60 95 140
59 93 133
61 95 139
60 95 131
61 96 142
62 97 148
60 95 131
60 95 139
59 93 136
61 96 137
61 96 148
60 95 139
60 94 137
59 93 128
61 95 139
60 95 135
59 93 125
59 93 133
62 97 144
60 94 140
61 95 137
61 96 142
60 95 133
60 95 130
60 95 131
60 95 131
60 94 133
60 94 130
59 93 125
59 94 131
59 93 126
59 93 120
59 93 122
59 93 118
61 96 136
57 91 124
59 93 128
57 91 118
59 93 128
59 93 118
59 92 129
58 92 122
57 90 122
60 94 136
59 93 120
58 92 120
57 90 118
56 89 110
91 112 82
132 146 0
123 137 0
122 136 0
127 139 0
124 138 0
128 144 0
125 138 0
145 160 0
126 139 0
131 146 0
138 154 0
130 143 0
132 146 0
130 145 0
140 157 0
133 148 0
132 146 0
132 146 0
139 156 0
140 155 0
143 157 0
128 142 0
138 153 0
136 151 0
145 161 0
131 146 0
136 151 0
139 155 0
133 147 0
145 161 0
151 170 0
147 163 0
149 168 0
149 166 0
139 153 0
147 162 0
146 162 0
147 164 0
145 163 0
149 165 0
141 155 0
151 168 0
145 159 0
148 165 0
146 162 0
143 157 0
147 160 0
151 167 0
145 161 0
143 159 0
149 166 0
150 166 0
148 163 0
147 163 0
160 175 0
150 165 0
160 176 0
156 173 0
149 163 0
154 171 0
148 164 0
148 164 0
151 166 0
155 171 0
153 169 0
156 173 0
152 170 0
144 160 0
157 174 0
158 175 0
153 170 0
157 174 0
158 174 0
155 174 0
153 169 0
159 177 0
155 171 0
163 181 0
154 170 0
158 173 0
157 174 0
157 172 0
156 173 0
159 177 0
158 174 0
159 175 0
160 176 0
160 178 0
158 175 0
157 175 0
164 184 0
162 180 0
156 174 0
159 180 0
159 174 0
159 176 0
163 181 0
158 176 0
155 174 0
158 175 0
165 184 0
161 178 0
160 178 0
160 178 0
164 184 0
165 183 0
161 180 0
160 178 0
159 176 0
161 181 0
160 178 0
163 183 0
161 181 0
164 183 0
167 185 0
165 184 0
165 185 0
170 190 0
166 188 0
169 189 0
164 185 0
166 186 0
165 183 0
166 187 0
168 188 0
168 192 51
171 195 76
175 200 95
169 194 62
172 196 80
171 195 76
170 195 76
165 188 67
172 196 72
171 195 62
172 195 51
169 193 62
169 193 88
169 193 72
168 192 84
165 189 72
173 196 62
172 196 72
168 192 51
174 198 76
167 191 80
174 198 84
170 195 80
168 192 51
166 190 67
170 193 57
169 194 84
170 194 88
171 196 57
173 197 88
169 193 92
172 195 92
174 198 92
174 197 95
172 195 117
170 195 99
169 193 84
171 194 80
172 195 88
174 197 88
171 194 88
174 197 99
164 187 76
168 192 88
173 196 111
170 193 102
170 193 105
169 191 84
173 197 99
170 193 102
165 188 95
168 192 95
170 194 117
170 193 84
169 193 105
168 191 88
172 195 92
169 192 72
170 193 95
172 194 88
170 193 105
168 190 120
164 185 88
169 192 105
169 192 95
168 191 80
172 195 114
171 193 99
170 193 105
167 191 99
168 190 105
163 186 84
174 196 108
167 189 92
160 183 76
165 187 105
166 189 88
169 191 111
166 188 84
161 183 88
162 185 92
166 189 88
163 186 84
163 186 67
162 184 88
162 184 84
165 186 72
163 186 92
162 184 67
153 177 62
157 180 72
159 182 72
161 183 62
161 182 62
159 181 76
153 175 67
161 184 88
158 181 72
153 174 62
160 182 72
154 176 102
147 167 72
158 180 76
153 175 62
156 178 67
157 179 80
146 169 62
143 165 76
157 179 80
144 165 76
156 178 76
157 177 72
140 162 86
107 130 128
103 127 136
96 120 123
93 119 125
103 127 130
98 122 143
98 122 132
101 125 139
99 124 136
97 121 128
95 120 134
98 123 131
86 112 133
95 120 133
84 112 133
86 114 127
96 123 128
86 115 134
98 124 125
97 125 124
91 119 127
79 108 126
78 108 131
84 112 136
66 99 137
62 97 151
61 96 142
61 96 149
61 96 153
59 94 136
60 95 149
60 94 141
60 96 146
60 95 144
59 94 136
60 93 129
59 93 136
59 94 140
59 92 132
60 95 133
59 93 139
59 93 138
60 95 138
60 94 140
59 93 142
58 92 133
60 95 129
59 93 131
59 94 138
59 94 134
61 95 140
60 95 138
59 94 131
58 92 133
60 95 137
60 95 139
60 95 140
60 95 136
60 94 133
59 94 130
60 94 134
60 95 137
60 95 136
60 95 145
59 94 136
60 94 141
60 95 141
60 95 141
61 97 143
58 93 126
60 95 140
61 96 141
59 94 137
59 94 132
60 95 135
60 95 141
61 96 141
60 95 129
61 96 134
60 94 136
60 94 133
61 96 141
59 94 131
59 94 137
61 95 134
60 95 139
62 97 147
61 97 146
60 95 136
61 95 141
59 94 131
60 96 144
60 95 139
61 97 147
61 96 142
61 96 149
60 95 137
61 97 148
60 95 139
60 94 137
61 96 143
61 96 140
60 94 135
60 95 135
61 96 144
60 94 139
59 93 129
61 97 145
60 95 139
59 94 129
61 96 139
61 96 143
60 95 137
61 96 139
60 95 137
61 96 140
60 95 139
60 95 141
60 94 129
60 95 141
62 97 142
61 97 148
61 96 143
60 95 142
61 96 133
61 96 143
59 93 120
60 95 131
59 93 131
59 94 130
60 95 139
60 94 139
60 94 134
61 96 144
61 96 141
60 94 129
60 95 131
60 95 135
60 94 130
59 93 120
61 95 131
59 94 126
59 93 129
58 92 121
60 94 133
60 95 139
60 94 129
59 94 131
59 93 120
58 92 124
58 92 115
61 95 140
57 91 118
59 93 126
57 90 110
59 93 113
58 92 118
59 92 122
58 92 121
57 90 113
73 101 90
107 121 0
122 137 0
127 142 0
129 143 0
127 142 0
128 142 0
133 147 0
135 150 0
125 140 0
133 147 0
138 155 0
136 151 0
125 139 0
139 151 0
125 137 0
127 142 0
136 151 0
134 149 0
131 147 0
138 153 0
131 146 0
138 154 0
145 161 0
148 164 0
141 158 0
129 142 0
135 150 0
142 158 0
131 145 0
145 160 0
147 161 0
136 152 0
139 153 0
136 152 0
140 154 0
139 154 0
141 155 0
142 159 0
137 151 0
146 163 0
146 162 0
145 161 0
144 162 0
151 168 0
149 165 0
142 158 0
146 164 0
150 168 0
152 167 0
143 161 0
155 173 0
158 175 0
143 159 0
140 155 0
151 169 0
156 173 0
155 171 0
157 174 0
150 165 0
151 165 0
155 172 0
151 166 0
153 169 0
151 166 0
148 163 0
156 171 0
154 170 0
152 167 0
152 168 0
156 171 0
150 167 0
153 170 0
154 170 0
158 175 0
157 175 0
154 169 0
149 166 0
158 177 0
158 174 0
157 175 0
159 176 0
156 175 0
155 172 0
156 172 0
159 176 0
154 169 0
165 184 0
157 173 0
160 177 0
157 173 0
158 177 0
162 181 0
161 180 0
160 179 0
160 176 0
155 172 0
158 175 0
159 175 0
161 178 0
161 179 0
161 181 0
162 181 0
161 177 0
159 177 0
165 185 0
160 179 0
161 176 0
160 179 0
163 179 0
165 185 0
165 185 0
163 184 0
163 183 0
163 180 0
159 176 0
167 188 0
164 184 0
158 178 0
168 187 0
165 183 0
164 182 0
162 180 0
162 182 0
164 182 0
164 185 0
166 185 0
171 195 76
171 196 84
172 196 84
170 195 76
171 195 84
172 196 72
170 194 88
172 197 62
171 196 88
172 196 80
167 191 72
171 194 62
171 195 84
171 195 92
166 190 72
171 195 80
168 192 62
173 197 80
170 194 67
168 193 84
168 192 88
168 192 80
169 194 80
171 194 62
173 197 99
169 193 80
172 196 95
170 194 92
167 191 76
168 191 51
173 196 84
174 197 102
168 191 88
172 196 88
166 190 99
178 200 111
170 194 95
171 194 111
178 200 120
171 195 99
170 193 84
168 190 88
169 192 95
170 192 99
180 202 114
172 196 117
165 188 88
171 195 117
168 191 105
165 188 88
170 193 92
169 193 95
174 197 102
168 192 105
164 188 76
167 190 111
170 194 99
172 196 102
175 198 108
166 189 102
168 191 111
166 190 88
167 189 84
170 194 99
160 184 80
167 189 117
166 189 84
160 181 80
169 191 99
165 187 80
164 188 95
168 190 76
164 188 102
171 192 114
173 196 117
168 190 117
173 195 117
170 192 117
170 192 114
159 181 95
164 187 102
168 190 102
165 187 99
162 185 84
158 181 84
159 182 92
157 179 67
160 183 72
164 187 76
157 180 92
156 178 67
163 187 62
156 178 62
154 176 76
153 175 51
158 182 76
162 184 80
158 181 62
162 184 67
154 176 76
154 176 72
159 181 72
148 169 51
149 171 62
156 177 76
150 170 80
157 178 84
164 185 92
148 168 72
138 159 62
150 171 51
147 169 51
146 167 84
127 150 101
87 112 118
97 122 131
99 124 118
87 114 128
101 126 129
109 132 136
97 123 140
107 131 132
104 128 142
92 118 133
99 123 138
102 126 139
98 124 130
87 114 127
86 115 143
99 124 129
100 125 116
83 112 127
93 121 118
92 120 122
98 125 121
82 110 128
86 114 129
78 109 132
60 95 139
61 96 149
60 96 143
61 97 149
60 94 141
60 95 139
60 95 137
60 94 131
60 95 139
60 95 140
59 93 129
62 96 130
59 93 122
59 93 124
59 93 129
58 92 128
58 91 127
58 92 120
60 95 136
59 94 129
60 95 133
59 93 136
59 94 139
59 93 137
59 94 135
59 93 131
59 93 133
60 95 134
60 94 134
60 95 144
60 95 146
60 94 128
60 96 146
59 93 128
60 95 134
60 94 135
61 96 141
61 96 140
61 96 145
60 96 139
60 95 133
59 94 133
61 96 135
59 94 130
61 96 136
61 97 148
60 95 136
61 95 134
61 96 147
60 94 134
61 96 147
60 95 142
60 94 126
61 96 144
61 96 140
60 95 136
60 94 135
60 95 136
60 95 130
62 97 147
60 95 142
60 95 134
61 96 143
62 97 150
61 97 150
60 95 137
59 93 131
61 95 143
61 96 137
60 95 140
60 95 134
61 96 144
60 95 131
60 95 134
60 95 137
61 96 145
60 94 129
60 94 143
60 95 140
60 95 135
61 96 147
60 95 143
61 96 144
61 96 144
60 95 142
60 95 137
60 94 130
61 96 143
61 95 141
59 94 129
60 95 142
60 95 135
60 95 133
59 94 126
61 96 137
60 95 137
61 96 140
60 95 131
60 94 131
60 95 129
59 94 125
60 95 129
61 95 130
60 94 129
59 94 131
60 95 139
61 96 139
61 95 131
60 94 126
59 94 128
61 96 140
60 95 124
60 94 129
59 93 128
59 93 129
59 93 129
59 93 125
60 94 125
57 90 120
59 94 125
60 94 125
60 94 129
59 92 125
60 95 136
59 93 121
58 91 117
59 92 126
59 93 129
59 93 114
58 92 121
59 94 124
58 91 122
58 91 114
58 91 110
62 93 122
111 128 51
119 135 0
120 134 0
119 134 0
131 148 0
125 138 0
132 148 0
119 134 0
126 140 0
134 149 0
129 143 0
137 152 0
126 142 0
135 153 0
129 145 0
126 141 0
138 154 0
136 153 0
139 155 0
134 148 0
135 149 0
132 149 0
145 160 0
140 155 0
135 149 0
140 156 0
139 156 0
142 158 0
132 148 0
138 151 0
142 158 0
142 158 0
135 150 0
146 161 0
147 164 0
145 158 0
154 169 0
142 157 0
149 164 0
143 158 0
143 156 0
146 162 0
153 172 0
147 163 0
148 163 0
147 163 0
143 160 0
151 165 0
148 163 0
146 161 0
148 164 0
150 166 0
145 161 0
147 165 0
152 170 0
150 165 0
156 172 0
155 173 0
151 167 0
155 172 0
155 172 0
154 171 0
154 169 0
154 170 0
152 170 0
157 173 0
152 168 0
149 164 0
152 171 0
156 173 0
155 172 0
160 178 0
154 172 0
157 172 0
156 174 0
157 173 0
157 175 0
161 177 0
151 167 0
155 172 0
156 175 0
154 173 0
164 179 0
163 181 0
155 174 0
157 173 0
158 172 0
152 167 0
155 173 0
157 175 0
158 176 0
160 177 0
159 178 0
158 175 0
159 176 0
161 180 0
165 182 0
161 179 0
160 177 0
161 180 0
161 182 0
167 186 0
157 174 0
161 181 0
163 183 0
165 186 0
161 180 0
163 179 0
159 178 0
161 182 0
163 181 0
160 179 0
165 183 0
160 179 0
165 185 0
165 184 0
162 181 0
166 186 0
161 180 0
165 183 0
165 184 0
162 181 0
163 183 0
166 186 0
163 184 0
167 187 0
166 187 0
169 194 84
170 194 84
168 191 62
169 193 62
172 196 76
172 196 76
170 194 84
169 192 51
170 193 76
171 195 80
169 193 84
172 196 72
170 194 72
169 193 62
170 195 76
171 195 88
172 197 67
170 195 84
170 194 72
171 195 62
172 196 84
175 199 95
172 196 105
170 195 92
167 190 84
172 195 62
169 193 92
172 196 102
173 196 102
174 197 102
172 195 84
166 191 108
167 190 92
174 196 114
169 193 72
176 199 105
172 194 88
170 193 95
166 190 72
168 193 95
177 200 111
174 197 88
168 192 72
181 203 120
170 193 105
174 198 114
175 198 84
173 196 99
170 194 95
167 189 108
166 189 105
172 195 117
168 190 88
175 198 111
164 187 76
167 190 95
171 193 84
167 191 84
168 193 99
169 192 92
168 192 99
167 190 84
168 192 99
167 190 105
167 189 108
168 190 95
165 189 108
166 189 108
163 186 95
166 189 92
165 188 72
162 185 95
168 191 92
169 192 99
168 191 111
164 186 99
166 189 114
169 191 95
165 187 80
166 188 95
160 182 95
166 188 99
166 188 88
171 192 99
164 186 99
167 189 95
165 186 108
159 180 51
166 189 102
160 182 80
162 184 95
160 183 84
156 178 108
163 186 92
158 181 72
156 178 80
158 181 67
159 182 62
162 184 99
159 181 76
157 179 51
156 178 84
158 180 72
148 171 44
156 177 84
154 176 67
149 172 72
158 180 76
153 174 84
151 173 80
149 170 72
144 164 67
148 169 76
150 170 84
118 140 111
93 118 114
93 119 132
87 113 125
105 128 124
100 124 130
92 118 134
92 116 126
103 127 122
93 118 139
92 118 134
87 114 126
96 121 127
100 125 133
98 122 133
90 117 127
97 121 141
107 131 115
92 120 118
87 115 118
92 119 122
85 115 135
86 115 132
82 112 133
65 98 143
61 96 147
62 98 154
60 95 145
61 97 147
60 95 137
60 95 145
60 95 147
59 93 136
60 95 140
59 94 142
59 93 129
59 93 129
57 90 121
59 94 129
58 92 133
59 93 126
59 94 140
60 94 131
59 93 129
59 94 124
58 92 126
58 92 125
60 94 138
58 92 131
59 93 133
60 94 129
59 93 131
58 92 129
61 96 142
58 93 120
57 91 133
59 93 128
60 95 140
60 95 144
59 94 129
60 94 129
59 93 127
60 94 134
60 94 136
60 95 135
59 94 129
61 96 136
59 94 125
59 93 136
60 95 142
62 97 145
60 95 134
61 96 140
60 95 137
61 95 148
61 96 142
59 94 137
60 95 134
60 94 134
61 96 143
59 93 131
60 95 143
60 95 134
61 96 145
61 95 134
59 94 129
61 96 141
61 96 140
59 94 131
61 96 140
60 95 135
59 94 141
61 97 147
60 95 131
61 96 139
60 95 134
60 95 134
59 93 128
60 95 134
61 95 140
60 95 142
61 95 134
61 96 140
60 95 135
60 95 142
59 93 121
60 94 136
60 95 141
60 95 135
61 95 140
59 94 126
60 96 137
61 96 140
60 95 134
59 94 129
60 95 140
60 95 131
61 96 141
60 95 137
61 96 139
60 95 135
60 95 133
61 96 136
60 94 131
60 94 134
59 94 129
59 94 128
62 97 142
59 93 125
61 95 135
61 95 141
61 95 139
60 95 129
59 94 120
62 97 142
59 93 126
60 95 134
61 95 136
59 93 125
60 95 134
60 94 134
59 93 124
61 96 139
59 93 130
58 92 126
57 91 107
59 93 129
59 94 129
58 91 118
59 94 137
59 93 125
59 93 115
59 93 120
58 91 121
55 88 99
54 86 99
56 89 114
58 92 121
108 124 44
133 148 0
124 138 0
131 147 0
109 124 0
132 146 0
125 140 0
118 131 0
127 143 0
131 147 0
137 153 0
132 148 0
127 142 0
138 154 0
136 151 0
127 142 0
125 140 0
135 151 0
131 145 0
141 157 0
138 152 0
139 156 0
132 149 0
137 154 0
142 159 0
138 153 0
133 147 0
141 160 0
138 154 0
154 172 0
143 160 0
133 146 0
143 159 0
142 159 0
149 167 0
135 152 0
142 158 0
139 155 0
143 159 0
141 157 0
147 165 0
146 161 0
142 156 0
142 159 0
142 159 0
148 163 0
150 167 0
152 168 0
153 172 0
143 158 0
145 162 0
151 168 0
154 172 0
151 167 0
149 167 0
154 170 0
147 163 0
154 172 0
155 171 0
150 163 0
151 165 0
152 168 0
154 173 0
148 166 0
151 169 0
152 169 0
150 165 0
159 176 0
154 169 0
156 175 0
155 175 0
157 175 0
152 168 0
153 170 0
151 166 0
151 167 0
160 176 0
153 169 0
162 181 0
158 174 0
156 173 0
159 175 0
162 178 0
159 178 0
161 180 0
160 180 0
160 178 0
161 179 0
152 171 0
157 174 0
157 173 0
163 182 0
162 181 0
163 183 0
162 179 0
159 176 0
169 187 0
162 180 0
159 176 0
157 176 0
161 180 0
164 186 0
164 182 0
162 179 0
157 175 0
163 181 0
166 185 0
162 180 0
162 182 0
161 181 0
165 185 0
162 182 0
158 176 0
162 181 0
170 188 0
166 185 0
164 184 0
164 183 0
164 184 0
163 181 0
165 184 0
165 185 0
166 187 0
167 189 0
163 183 0
170 188 0
167 186 0
166 185 0
172 195 62
171 195 57
168 192 57
169 193 80
170 195 80
175 198 76
169 193 62
170 194 76
172 195 84
174 199 99
172 196 67
169 193 67
170 193 62
169 193 84
172 196 76
171 194 62
170 194 62
168 193 88
171 196 84
177 199 108
168 191 72
171 193 80
170 193 80
171 195 67
172 196 88
172 195 95
175 199 102
174 197 99
173 196 95
173 197 99
172 196 114
174 197 108
171 195 99
170 194 88
173 196 95
170 194 99
170 194 102
174 197 114
165 190 62
169 193 76
171 195 108
171 195 102
175 198 122
175 198 95
173 194 111
171 194 99
170 193 95
170 193 84
171 194 108
168 191 99
173 196 99
170 194 92
175 196 117
172 195 120
161 184 84
170 193 108
179 201 120
165 188 95
172 194 111
171 193 92
168 192 88
167 190 84
171 194 84
163 186 80
168 191 102
169 192 99
167 190 92
166 189 92
166 188 95
167 189 95
167 190 76
166 189 95
172 194 88
167 190 92
162 186 99
166 187 95
168 190 102
169 191 99
168 191 88
161 183 95
165 187 99
165 188 99
168 191 117
164 186 114
169 191 92
159 180 108
165 188 108
158 180 72
160 182 92
161 184 92
165 186 84
152 175 67
162 184 95
153 175 76
160 182 80
158 181 67
160 183 102
153 176 57
151 174 72
157 179 80
153 175 76
158 180 76
154 177 67
157 179 36
152 174 51
154 177 51
147 167 57
155 176 76
151 172 67
150 172 67
148 170 80
148 170 84
155 176 80
152 173 80
148 169 88
105 128 114
93 117 118
80 108 119
103 126 134
84 110 126
96 121 139
92 116 119
87 112 121
101 125 137
105 128 137
113 135 138
83 111 130
101 126 148
93 118 120
90 117 131
92 118 126
104 127 122
105 130 134
87 116 116
95 123 120
93 121 130
88 117 137
80 109 119
72 104 139
60 95 137
60 96 146
60 95 149
60 95 141
60 95 144
58 93 139
60 94 139
60 95 140
61 95 144
58 92 129
61 94 131
57 91 130
58 91 122
58 93 134
58 92 126
58 92 118
59 93 133
60 95 129
58 93 128
59 94 132
59 93 132
58 92 126
57 92 120
58 92 124
58 93 126
59 94 123
60 94 135
60 95 134
59 94 136
59 93 131
60 95 131
59 93 127
60 94 130
60 95 137
60 95 134
61 95 137
60 94 133
58 92 122
61 95 136
60 95 141
60 95 134
61 96 148
61 96 135
60 94 125
61 96 144
60 94 135
59 94 136
60 95 134
60 95 139
60 95 141
61 97 148
60 96 141
60 95 136
59 94 136
60 95 136
60 95 136
61 96 142
61 96 139
61 97 149
59 94 130
60 94 137
61 96 141
59 94 126
61 95 137
60 95 141
60 94 134
61 96 140
61 96 143
58 92 134
59 93 122
61 96 145
62 97 145
61 96 144
62 97 144
60 95 139
61 95 139
61 96 141
61 95 134
60 95 147
61 95 140
60 95 137
62 97 149
60 94 136
59 93 128
60 94 129
60 95 131
60 95 136
61 96 142
60 95 137
60 94 134
60 94 129
60 95 136
59 94 122
60 95 131
60 95 133
60 94 141
60 95 131
58 93 124
60 95 135
59 94 140
61 96 141
58 92 128
60 95 131
60 95 139
61 95 129
60 94 128
60 95 131
61 95 134
60 95 131
60 94 133
59 93 128
60 94 128
60 95 136
58 91 130
60 95 140
59 93 125
57 90 105
60 95 134
57 90 121
60 94 125
56 90 108
60 94 135
58 91 118
59 93 122
59 94 125
58 91 118
57 91 121
58 92 115
58 92 115
57 90 114
58 92 114
57 91 117
78 101 82
123 139 0
124 140 0
128 144 0
132 148 0
135 150 0
129 146 0
124 138 0
126 143 0
129 145 0
126 142 0
127 141 0
132 150 0
138 152 0
132 149 0
137 151 0
141 158 0
133 151 0
137 153 0
130 146 0
141 157 0
132 150 0
144 159 0
136 152 0
143 159 0
143 159 0
132 148 0
131 145 0
142 160 0
143 159 0
141 159 0
138 153 0
131 146 0
144 158 0
130 145 0
147 164 0
139 154 0
139 156 0
143 159 0
146 161 0
143 160 0
134 149 0
148 163 0
140 156 0
150 167 0
137 154 0
144 161 0
149 165 0
148 165 0
142 160 0
153 171 0
143 160 0
147 165 0
145 164 0
150 165 0
153 173 0
154 171 0
151 170 0
144 160 0
152 168 0
151 169 0
163 181 0
150 165 0
158 174 0
155 173 0
155 170 0
153 170 0
154 172 0
151 167 0
151 168 0
150 167 0
154 171 0
156 173 0
155 170 0
160 177 0
155 172 0
160 178 0
152 170 0
155 174 0
158 173 0
157 174 0
156 172 0
153 172 0
160 179 0
158 175 0
159 177 0
157 173 0
158 176 0
155 172 0
159 179 0
154 173 0
154 171 0
160 179 0
157 176 0
161 179 0
159 177 0
165 182 0
159 176 0
162 180 0
156 176 0
159 176 0
157 175 0
161 180 0
162 180 0
158 176 0
161 180 0
162 182 0
161 179 0
161 181 0
164 182 0
166 183 0
165 184 0
165 184 0
158 177 0
161 180 0
163 184 0
163 184 0
162 181 0
160 178 0
167 186 0
166 187 0
167 185 0
168 185 0
163 183 0
162 183 0
160 179 0
163 183 0
171 192 0
162 182 0
168 192 36
171 194 72
169 193 62
169 193 67
171 194 72
171 195 72
175 198 67
173 197 76
172 196 62
170 195 80
170 194 76
171 195 80
170 194 51
170 194 67
170 194 88
169 193 76
171 195 80
169 193 84
173 197 108
178 201 105
172 195 92
170 194 84
173 197 76
173 196 92
173 198 92
172 195 92
171 196 88
173 196 92
175 198 88
177 198 114
175 199 117
168 192 95
172 196 99
169 193 88
172 196 95
170 193 105
172 195 105
169 192 92
171 194 111
170 193 88
167 190 88
170 193 95
168 191 80
172 196 99
166 189 102
170 194 117
170 193 95
166 190 111
170 193 105
170 193 99
161 184 92
166 189 99
164 187 99
169 192 88
167 191 76
169 193 92
167 190 76
169 193 80
168 192 102
163 187 80
167 191 80
166 189 99
171 196 99
170 192 108
168 191 92
165 188 108
167 189 92
172 194 92
166 190 111
167 190 122
163 187 67
165 187 102
171 193 99
170 193 102
170 193 105
168 191 102
166 189 80
167 190 92
164 186 99
158 181 95
169 191 120
156 178 92
166 189 102
170 192 122
173 195 99
169 191 111
168 188 99
164 186 95
164 185 92
163 185 102
168 189 108
166 188 84
165 188 102
158 180 84
155 177 76
155 177 80
163 186 67
153 174 67
157 180 72
154 175 80
158 180 95
161 184 92
146 168 44
156 177 78
148 170 72
154 176 76
158 179 95
150 171 76
153 174 62
146 167 62
147 170 44
153 174 62
150 170 84
142 163 84
147 167 72
129 150 103
93 118 124
106 129 134
89 115 107
90 116 124
99 123 137
84 109 112
95 119 129
94 120 139
96 120 129
102 126 139
111 133 133
100 125 137
76 106 130
79 108 118
103 127 122
93 119 117
83 111 124
78 107 118
85 111 110
93 119 105
78 108 131
79 109 134
81 110 134
61 97 149
59 94 144
60 95 140
61 97 150
60 95 137
61 96 147
59 94 126
61 96 145
59 93 129
60 95 130
57 91 120
58 92 122
58 92 124
58 93 118
58 93 122
59 93 134
59 93 132
57 91 124
59 94 125
59 93 134
59 93 136
57 90 124
61 96 147
59 93 118
59 93 128
59 93 123
60 94 135
60 95 149
60 94 134
59 94 134
60 94 131
60 95 135
58 92 130
59 94 133
60 95 130
60 94 140
59 94 135
60 94 139
61 95 140
60 95 136
60 95 137
61 96 137
60 94 134
61 96 144
60 94 141
60 94 134
59 93 125
59 93 130
59 94 131
60 95 141
59 93 134
60 94 141
61 96 133
59 94 126
60 95 136
60 95 137
60 95 139
62 97 145
60 94 135
61 96 141
60 95 137
61 96 135
61 96 143
60 95 141
61 96 141
60 95 136
60 95 141
61 96 137
61 95 140
60 95 131
60 94 131
60 95 140
61 96 137
60 95 135
60 95 137
60 95 135
61 95 135
61 95 133
59 94 126
61 95 135
60 95 137
60 94 133
59 94 126
58 92 133
59 94 130
59 93 131
62 97 144
60 95 141
60 95 134
60 95 136
60 94 130
61 96 140
59 92 122
60 94 129
60 94 134
60 94 136
62 97 147
59 94 125
61 96 143
59 94 124
60 94 135
59 94 129
61 96 140
61 97 141
60 94 131
58 92 118
59 93 129
57 90 122
60 95 134
60 95 139
59 92 118
60 94 130
57 91 107
60 95 131
60 94 131
58 92 122
58 92 115
58 92 124
61 95 131
59 93 122
59 93 122
58 92 121
58 91 114
59 93 120
59 93 130
58 91 110
59 92 120
56 87 108
57 91 114
57 90 114
58 91 113
74 99 97
123 139 0
124 139 0
124 137 0
123 137 0
114 131 0
123 140 0
123 141 0
133 147 0
131 147 0
133 148 0
139 154 0
130 145 0
128 145 0
123 139 0
134 150 0
139 154 0
126 143 0
142 157 0
139 154 0
131 145 0
132 149 0
131 146 0
140 155 0
140 156 0
136 154 0
134 149 0
133 150 0
137 153 0
140 156 0
136 154 0
151 167 0
143 161 0
131 147 0
145 161 0
146 162 0
150 167 0
146 162 0
146 163 0
141 156 0
144 159 0
150 168 0
140 155 0
148 163 0
139 157 0
140 154 0
146 163 0
140 157 0
144 162 0
145 163 0
148 164 0
147 163 0
150 167 0
154 171 0
154 174 0
143 161 0
152 170 0
154 170 0
148 166 0
151 167 0
157 175 0
151 169 0
160 179 0
152 168 0
153 169 0
160 177 0
153 172 0
154 172 0
154 173 0
155 170 0
151 169 0
156 173 0
156 173 0
158 173 0
154 170 0
161 179 0
150 168 0
158 175 0
150 167 0
151 168 0
151 170 0
163 180 0
155 173 0
161 177 0
156 173 0
155 174 0
155 172 0
158 177 0
160 176 0
156 172 0
164 184 0
159 177 0
161 178 0
164 185 0
160 179 0
156 176 0
166 185 0
162 181 0
164 183 0
159 179 0
163 180 0
159 175 0
161 179 0
160 180 0
154 174 0
164 183 0
157 175 0
161 181 0
165 183 0
156 176 0
161 182 0
163 183 0
166 184 0
165 185 0
159 175 0
160 182 0
162 182 0
161 179 0
162 181 0
163 181 0
162 182 0
166 186 0
164 184 0
164 184 0
166 186 0
160 180 0
165 185 0
165 186 0
167 187 0
165 186 0
168 192 67
171 195 67
171 195 67
171 194 67
171 194 67
170 195 84
173 197 99
171 194 67
165 190 57
172 196 51
170 194 67
169 193 76
171 195 62
169 193 67
172 196 102
170 194 95
173 197 88
170 193 80
170 195 80
177 199 95
176 199 102
169 192 84
174 199 105
177 200 111
175 199 114
174 197 95
174 198 105
171 194 80
175 199 128
167 191 88
169 193 80
171 195 88
169 192 95
170 192 99
172 194 95
177 199 105
168 192 80
169 192 95
173 196 108
172 195 92
173 195 102
169 192 95
168 191 84
169 192 105
171 195 114
166 191 92
164 188 84
173 196 114
171 193 92
168 191 92
168 192 105
172 196 92
176 198 95
169 192 102
167 190 99
171 195 114
172 194 105
170 193 99
163 187 76
165 189 84
168 190 84
162 185 76
169 192 111
168 191 99
166 190 88
168 191 105
172 195 92
171 194 102
165 188 88
172 195 105
160 183 84
164 188 76
167 190 108
167 190 105
166 188 95
163 186 76
164 187 95
166 189 95
164 187 95
161 185 102
168 190 99
163 186 99
165 187 99
166 188 120
160 182 102
173 194 122
166 188 102
161 184 76
169 191 111
164 185 108
165 187 99
162 184 105
164 186 80
164 186 95
164 185 99
160 180 88
155 177 57
155 177 62
158 179 67
156 178 72
161 182 67
154 175 72
158 180 80
146 167 62
143 165 67
143 165 57
148 169 57
155 176 84
151 172 67
149 170 51
156 178 88
155 177 57
156 177 67
143 164 62
149 170 67
141 161 70
109 131 115
90 116 121
90 117 126
90 115 123
95 119 129
85 110 120
91 116 126
91 115 126
99 124 134
94 118 123
92 116 133
92 116 125
84 111 119
101 126 132
101 125 120
98 124 144
105 129 122
93 120 117
87 115 118
88 117 129
94 120 113
85 114 122
85 114 130
68 102 151
60 95 142
61 96 143
61 96 142
60 95 142
60 95 136
60 95 136
60 94 139
59 94 133
58 93 136
59 93 126
57 90 127
58 92 125
57 90 119
59 93 126
59 93 135
57 90 124
60 94 131
59 93 136
58 92 132
60 94 133
58 92 127
60 95 137
58 92 130
58 92 126
58 92 124
60 95 139
61 95 141
60 95 130
59 94 137
61 96 141
59 93 133
59 94 131
60 94 131
60 94 131
59 94 134
59 93 126
60 95 129
59 93 131
60 94 140
61 95 139
60 95 140
59 94 124
59 94 135
58 92 119
59 94 125
60 96 139
61 96 139
60 95 134
61 96 142
61 96 151
61 97 147
58 93 137
61 96 143
59 94 130
59 94 126
61 96 150
60 94 142
60 95 136
61 95 141
60 95 139
61 96 139
60 95 137
61 96 142
61 96 141
61 96 141
60 94 135
59 94 131
59 94 136
62 97 147
62 97 144
60 95 136
60 95 134
58 92 115
61 95 137
59 94 130
61 96 141
59 94 133
59 94 141
60 95 134
60 95 141
61 95 135
60 95 140
60 95 137
60 95 131
59 93 121
60 95 134
58 92 122
58 93 120
59 94 129
59 94 131
60 95 130
58 92 121
59 93 126
60 94 126
58 92 126
59 93 120
60 95 140
60 95 133
61 96 139
60 94 124
59 94 128
61 96 147
59 93 131
60 95 130
59 93 133
61 96 145
59 94 120
59 94 125
60 94 128
60 94 133
56 89 108
58 91 120
58 92 125
59 93 125
59 93 124
58 92 120
59 93 129
59 93 111
60 94 124
57 90 111
59 93 122
59 93 130
58 92 117
59 93 126
58 91 114
59 92 122
57 90 117
55 87 107
56 88 102
68 95 92
117 132 0
120 135 0
121 137 0
129 143 0
127 142 0
128 145 0
128 146 0
127 144 0
132 149 0
133 148 0
131 145 0
134 150 0
138 152 0
127 142 0
131 147 0
142 158 0
131 146 0
129 144 0
132 151 0
140 157 0
133 149 0
140 156 0
139 155 0
134 150 0
135 150 0
138 156 0
140 158 0
134 151 0
139 156 0
151 169 0
136 153 0
137 153 0
138 154 0
138 154 0
139 156 0
144 163 0
136 152 0
153 168 0
139 156 0
146 161 0
148 165 0
137 152 0
143 161 0
146 161 0
140 157 0
143 160 0
141 160 0
147 166 0
149 169 0
145 161 0
144 161 0
148 164 0
147 166 0
155 172 0
153 171 0
155 171 0
149 168 0
145 161 0
151 169 0
154 171 0
156 172 0
157 175 0
154 170 0
152 170 0
154 170 0
158 176 0
163 180 0
150 167 0
156 175 0
155 171 0
162 179 0
155 172 0
157 175 0
159 176 0
158 177 0
155 172 0
154 169 0
146 164 0
158 173 0
164 183 0
155 172 0
157 173 0
154 170 0
158 175 0
154 170 0
159 178 0
162 180 0
161 180 0
163 181 0
160 178 0
158 178 0
165 184 0
157 175 0
157 174 0
156 175 0
163 183 0
156 177 0
163 180 0
155 174 0
161 181 0
158 177 0
157 177 0
164 181 0
160 178 0
167 187 0
162 182 0
166 185 0
162 182 0
160 178 0
161 180 0
160 177 0
158 176 0
166 186 0
164 183 0
161 180 0
160 180 0
159 179 0
164 183 0
164 181 0
162 180 0
164 183 0
163 181 0
168 187 0
165 185 0
167 189 0
168 188 0
162 181 0
162 181 0
164 183 0
165 185 0
167 192 62
168 192 72
172 195 72
172 197 95
168 192 57
169 193 88
172 197 62
172 196 80
169 193 67
171 194 62
169 194 80
172 195 80
173 196 72
168 191 80
174 198 67
173 196 84
170 194 92
174 197 99
172 195 99
176 199 111
168 191 72
171 194 76
171 195 105
171 195 102
167 191 88
166 190 76
174 198 92
175 197 95
167 190 80
174 197 99
170 193 99
173 195 92
169 191 88
174 197 111
174 197 114
173 196 88
173 197 99
170 194 95
174 196 117
173 196 114
173 196 102
166 189 88
175 198 125
173 196 108
175 198 105
170 193 88
169 193 88
174 197 92
168 193 108
171 195 120
172 194 76
168 192 95
175 197 111
169 193 102
169 191 105
169 192 80
169 192 99
172 195 117
164 188 95
166 189 95
169 191 99
170 192 128
164 188 92
169 192 108
173 196 117
169 192 108
164 188 76
170 192 117
165 188 95
167 190 111
164 187 102
169 192 111
169 192 76
163 185 92
163 186 114
162 184 72
169 191 108
167 189 102
173 194 99
168 190 99
167 188 117
167 189 95
157 179 84
166 189 99
165 187 95
163 186 80
168 190 92
162 184 80
165 188 99
162 183 102
165 187 111
165 187 102
164 185 125
161 183 105
150 172 76
163 186 92
157 180 84
157 179 99
160 182 84
162 184 80
153 175 80
155 176 88
155 177 84
163 185 80
159 180 80
150 171 62
154 176 92
149 170 62
149 170 72
146 166 92
139 160 51
160 181 80
145 166 84
144 165 62
142 162 80
147 167 80
137 157 88
100 123 118
104 128 140
100 124 124
85 111 128
88 113 111
93 117 124
95 119 132
106 129 132
96 120 133
89 115 110
93 118 137
91 116 135
87 113 122
95 121 132
109 132 136
90 116 117
94 121 113
93 120 131
80 109 120
86 115 110
76 106 131
86 115 123
76 107 134
61 97 147
61 96 144
60 94 142
59 94 136
60 95 144
60 95 143
59 93 133
60 95 135
59 94 129
59 93 135
63 96 131
58 92 122
59 93 121
56 89 118
59 92 118
58 91 118
58 92 109
57 92 124
58 92 124
59 93 124
60 94 135
60 94 128
58 92 132
58 92 119
59 93 128
60 94 121
60 95 131
59 93 133
60 94 136
60 95 136
60 95 133
58 92 118
60 95 136
59 93 133
59 94 134
58 91 131
60 95 136
59 93 124
59 93 121
60 95 134
61 96 130
59 93 122
58 93 126
60 95 135
59 94 128
60 95 135
61 96 140
60 95 140
60 94 129
60 94 133
60 95 142
61 96 141
60 94 130
59 93 129
59 94 135
61 96 140
59 94 137
61 97 142
60 94 128
61 96 133
60 95 130
60 94 133
60 94 136
61 96 134
60 95 130
61 96 135
60 95 131
59 94 131
60 95 139
60 94 131
59 94 125
61 96 135
59 94 129
61 95 131
59 94 129
60 94 131
60 95 139
60 95 142
60 94 130
60 95 136
61 96 141
60 95 134
61 96 135
59 93 126
60 94 129
60 95 135
60 95 133
61 95 142
60 95 134
61 96 135
61 95 135
60 95 135
60 95 135
60 95 133
59 93 121
60 95 141
61 96 139
59 93 136
62 97 140
58 92 125
60 94 129
59 93 122
59 93 129
60 94 133
60 94 135
59 93 120
59 93 124
59 93 133
60 95 135
58 92 125
58 93 122
58 92 121
57 91 115
59 93 129
59 93 117
58 92 122
60 94 137
57 90 110
59 92 128
59 94 125
58 92 117
57 91 115
57 90 108
58 92 117
58 92 111
56 89 103
56 89 110
55 88 97
67 95 99
121 139 47
115 130 0
118 133 0
130 147 0
120 135 0
126 142 0
130 145 0
134 150 0
126 142 0
119 136 0
114 130 0
133 148 0
135 150 0
129 146 0
128 145 0
130 147 0
120 138 0
142 160 0
129 143 0
133 150 0
128 144 0
138 153 0
136 151 0
139 156 0
133 151 0
138 155 0
123 138 0
141 157 0
139 155 0
143 161 0
146 164 0
136 152 0
144 160 0
138 156 0
150 168 0
140 155 0
139 156 0
142 160 0
144 160 0
153 173 0
146 162 0
146 165 0
144 162 0
150 167 0
145 160 0
146 162 0
148 166 0
149 166 0
149 164 0
143 160 0
152 169 0
148 165 0
149 165 0
152 168 0
150 167 0
149 167 0
144 158 0
149 165 0
159 176 0
152 168 0
153 171 0
155 176 0
151 169 0
159 178 0
149 166 0
152 168 0
155 172 0
153 169 0
151 168 0
157 175 0
152 170 0
152 170 0
154 172 0
149 167 0
154 171 0
156 175 0
151 170 0
154 173 0
158 175 0
157 175 0
161 178 0
150 166 0
161 179 0
150 165 0
159 177 0
159 178 0
160 181 0
159 178 0
153 173 0
164 184 0
156 173 0
157 177 0
159 178 0
161 180 0
160 178 0
157 174 0
153 171 0
158 177 0
156 175 0
161 181 0
163 183 0
160 179 0
159 177 0
161 180 0
160 180 0
163 183 0
165 183 0
162 182 0
165 184 0
158 177 0
165 185 0
161 180 0
154 173 0
160 180 0
163 182 0
166 185 0
165 187 0
163 182 0
163 182 0
160 179 0
165 185 0
166 186 0
165 185 0
165 186 0
164 183 0
164 184 0
164 184 0
162 181 0
163 183 0
168 188 0
167 188 0
173 197 76
172 196 80
172 196 80
169 194 80
171 195 88
171 194 36
171 194 72
170 194 72
173 196 62
172 195 72
172 195 92
170 194 76
171 195 76
170 194 92
175 199 102
176 199 102
173 197 72
174 196 76
169 193 95
172 196 102
173 197 108
175 197 99
168 192 99
174 197 102
171 194 95
171 195 88
171 196 117
176 200 125
175 198 102
173 197 108
173 196 95
173 196 99
174 198 117
176 198 99
174 197 120
170 194 92
172 195 92
166 189 80
169 193 102
162 185 76
170 195 117
168 191 95
171 193 88
171 194 105
166 189 51
168 191 67
167 191 84
170 194 88
171 195 102
171 194 105
166 189 105
168 192 84
166 189 108
169 193 108
170 192 105
164 187 95
170 194 95
173 197 108
165 188 84
166 189 95
161 184 95
169 191 88
162 185 88
165 187 99
170 192 105
163 185 100
171 194 99
171 194 128
167 190 95
167 190 92
167 188 92
163 187 84
163 186 95
166 189 108
168 191 95
165 187 76
165 187 99
162 184 102
163 185 95
166 188 105
166 188 95
162 185 76
161 183 88
162 184 80
170 191 95
168 190 105
166 188 114
162 185 88
159 180 76
164 186 88
162 183 92
169 190 102
162 183 105
159 180 108
154 176 95
166 186 108
158 179 102
156 178 88
163 185 76
163 185 92
154 175 99
157 178 88
153 175 67
160 182 76
150 172 51
162 183 84
154 176 67
148 169 67
156 177 80
153 175 51
151 171 72
145 166 51
145 166 62
144 164 67
148 168 84
144 164 51
144 163 76
127 149 111
88 113 118
96 120 124
95 119 128
88 114 120
88 113 108
73 102 102
95 119 128
104 126 131
97 121 144
98 123 134
100 125 143
97 121 129
106 130 139
97 121 124
84 112 120
103 128 116
87 116 120
94 122 127
90 117 120
95 121 120
95 122 129
80 110 136
60 95 136
60 96 141
60 95 144
59 93 125
62 97 148
59 94 131
59 94 134
60 95 139
59 93 128
58 92 124
58 91 121
58 91 121
58 91 113
57 91 129
58 92 123
58 92 129
58 91 120
59 93 130
57 91 118
59 93 122
58 92 119
58 92 128
60 94 139
59 94 131
59 93 129
59 94 131
59 93 137
58 92 126
60 94 133
59 93 129
59 93 124
60 94 131
58 93 125
60 94 134
60 94 142
60 94 133
60 95 126
60 95 140
59 93 134
60 95 136
59 94 129
60 94 142
60 95 139
61 96 139
59 94 128
60 94 134
60 95 134
59 93 126
60 94 124
60 95 133
60 94 136
60 95 142
59 94 135
60 95 135
59 94 126
60 94 128
59 94 131
60 95 134
59 93 131
61 96 141
59 94 134
60 95 129
60 94 135
60 95 137
60 95 134
61 95 139
59 94 128
59 94 131
61 96 147
60 95 134
60 94 134
60 95 140
59 94 126
60 95 134
59 93 117
60 95 141
61 96 141
60 95 140
61 96 140
60 95 130
60 95 134
61 96 136
60 95 139
60 95 134
60 95 133
60 94 129
61 96 139
60 95 135
59 94 129
59 93 124
60 95 141
61 96 137
61 96 137
59 93 128
58 93 126
59 93 129
61 96 134
59 93 124
60 94 126
59 93 125
60 94 139
60 95 130
58 92 117
59 93 129
59 94 128
58 92 113
59 94 122
60 95 139
59 92 118
58 92 118
59 94 129
60 94 124
60 94 140
59 93 125
58 92 117
59 93 128
58 92 114
57 90 108
59 93 120
59 93 124
57 90 111
58 91 115
58 92 114
58 92 120
57 90 117
57 91 107
55 87 99
68 98 117
100 115 36
116 131 0
121 138 0
130 148 0
130 146 0
126 140 0
118 133 0
123 138 0
122 139 0
129 144 0
122 137 0
119 137 0
132 149 0
127 141 0
122 138 0
123 141 0
124 141 0
127 143 0
125 140 0
125 140 0
135 152 0
134 148 0
137 153 0
128 145 0
143 159 0
134 150 0
135 152 0
141 154 0
133 148 0
137 155 0
144 158 0
130 145 0
139 156 0
146 161 0
137 154 0
135 150 0
142 159 0
145 162 0
143 160 0
146 164 0
148 165 0
145 162 0
137 154 0
139 154 0
153 168 0
154 171 0
144 162 0
150 169 0
146 163 0
144 159 0
154 172 0
149 164 0
143 160 0
145 163 0
155 173 0
145 161 0
147 164 0
147 165 0
152 172 0
151 170 0
154 170 0
153 170 0
147 163 0
148 164 0
158 175 0
150 167 0
153 171 0
155 174 0
157 175 0
150 168 0
151 168 0
151 169 0
157 176 0
152 168 0
153 171 0
158 176 0
156 174 0
155 173 0
156 172 0
148 165 0
149 164 0
153 171 0
157 176 0
158 176 0
160 179 0
153 169 0
156 172 0
165 183 0
158 176 0
161 180 0
161 181 0
159 177 0
157 176 0
162 181 0
164 184 0
158 179 0
160 177 0
163 181 0
160 179 0
156 174 0
159 176 0
161 180 0
162 181 0
162 179 0
164 185 0
152 170 0
161 179 0
168 188 0
163 183 0
159 179 0
169 189 0
168 186 0
161 182 0
167 186 0
164 182 0
162 181 0
158 179 0
161 180 0
164 184 0
160 179 0
166 187 0
164 185 0
159 181 0
161 181 0
168 187 0
160 181 0
167 188 0
163 183 0
166 185 0
165 186 0
163 182 0
166 186 0
172 195 67
172 197 67
170 194 88
173 198 51
170 193 72
171 195 80
169 193 62
167 190 76
174 197 72
171 194 76
172 196 84
165 188 88
174 198 67
169 191 88
170 194 92
171 195 105
171 195 117
173 196 92
175 198 99
172 195 80
174 197 99
173 197 111
175 199 111
172 195 102
170 194 88
170 193 84
172 196 111
171 195 84
173 197 95
169 193 80
174 197 111
171 195 88
170 193 80
170 194 108
173 196 92
173 196 76
168 192 80
170 194 102
172 194 117
174 197 105
163 185 76
169 191 92
168 192 67
171 194 99
171 195 102
168 192 108
171 194 102
171 194 84
169 192 92
168 191 80
172 196 120
166 189 88
165 189 67
171 194 108
162 185 105
166 190 92
167 190 105
171 194 92
165 188 95
172 194 117
170 193 99
168 191 115
173 196 122
166 189 84
165 187 76
163 186 118
169 192 94
165 189 76
168 191 95
166 189 103
163 185 92
166 188 99
161 183 92
169 191 92
161 183 102
164 185 108
165 188 108
165 188 105
169 191 102
166 188 88
166 189 114
165 188 117
165 188 80
163 186 102
160 182 92
171 192 120
164 187 105
160 182 92
163 185 122
162 184 102
157 178 95
157 180 88
163 185 102
160 181 108
160 181 76
160 181 76
159 180 99
164 184 102
156 178 76
152 174 82
163 184 84
161 182 95
149 171 92
154 177 57
144 167 72
154 176 84
158 180 80
155 177 57
151 172 72
149 170 80
151 174 76
155 176 67
142 163 62
145 165 76
144 165 67
143 163 76
142 161 57
150 171 80
103 126 86
92 118 117
92 118 118
93 118 132
98 122 127
102 125 133
97 120 139
92 116 117
92 117 115
108 130 143
84 112 123
89 115 134
85 111 128
91 118 124
92 118 107
96 123 110
105 131 107
94 121 104
92 119 126
88 115 111
86 114 120
91 118 115
60 96 140
60 95 144
59 94 134
60 95 133
61 96 139
61 96 144
60 94 129
60 94 129
61 96 135
61 96 141
59 93 129
59 93 122
58 91 114
58 91 127
59 93 131
59 93 124
58 92 115
58 92 123
58 92 128
57 90 118
59 94 128
59 93 125
58 92 130
60 95 131
59 93 128
58 92 118
58 92 116
58 92 122
58 93 123
57 91 118
59 93 129
59 93 131
58 93 128
59 93 130
60 95 137
59 94 128
58 92 125
59 93 132
58 92 122
60 94 130
59 94 130
60 95 136
60 94 137
60 94 131
61 96 136
60 94 128
59 93 126
60 95 130
60 95 143
60 94 135
60 94 131
61 95 136
59 94 129
60 95 131
61 95 143
61 96 137
60 95 136
60 95 130
59 94 137
61 96 140
59 93 129
62 97 143
61 96 140
59 94 129
61 96 145
60 94 135
60 94 128
60 95 136
60 95 130
60 94 125
60 95 131
62 96 139
60 94 133
60 95 128
60 95 128
59 93 133
61 96 136
60 94 136
59 93 128
61 96 142
61 96 141
61 95 135
60 95 125
60 95 131
61 95 140
60 95 135
60 95 137
58 93 117
60 95 122
59 94 125
59 94 125
60 94 122
59 93 126
58 92 113
59 93 133
56 90 114
59 94 124
60 94 130
59 94 130
58 92 117
59 94 131
59 94 125
59 93 126
57 91 117
60 94 130
61 96 136
59 93 135
57 91 117
58 91 117
59 93 125
58 91 120
59 94 133
58 92 120
59 93 133
59 93 122
59 92 118
58 92 120
60 94 124
58 91 114
60 94 121
57 91 120
60 95 129
58 92 114
58 92 113
57 90 110
58 91 122
58 88 102
110 127 44
129 143 0
127 141 0
122 137 0
126 142 0
124 140 0
123 139 0
133 149 0
123 138 0
120 137 0
123 138 0
135 149 0
127 141 0
125 140 0
130 147 0
133 149 0
139 157 0
140 155 0
127 144 0
131 147 0
130 146 0
134 149 0
134 151 0
139 155 0
128 144 0
132 150 0
139 156 0
134 149 0
131 146 0
128 144 0
134 149 0
132 148 0
131 147 0
138 154 0
144 163 0
139 155 0
145 161 0
144 160 0
140 155 0
141 158 0
147 165 0
138 153 0
145 161 0
141 159 0
142 159 0
151 169 0
143 159 0
151 171 0
153 172 0
147 165 0
141 159 0
147 164 0
147 166 0
144 160 0
147 165 0
155 175 0
149 166 0
147 166 0
150 167 0
149 166 0
151 168 0
146 164 0
153 168 0
149 167 0
150 165 0
159 176 0
159 178 0
152 169 0
160 180 0
160 175 0
154 172 0
158 178 0
147 164 0
158 176 0
153 171 0
157 175 0
157 174 0
151 167 0
158 176 0
153 170 0
153 169 0
160 176 0
155 173 0
156 173 0
158 176 0
157 178 0
157 175 0
159 179 0
164 182 0
162 181 0
156 173 0
155 173 0
154 171 0
160 178 0
158 177 0
158 177 0
162 180 0
162 181 0
162 182 0
164 182 0
158 177 0
158 178 0
159 178 0
160 178 0
159 177 0
163 183 0
164 183 0
162 181 0
163 180 0
165 184 0
161 178 0
159 176 0
161 182 0
161 181 0
163 182 0
164 184 0
161 181 0
163 184 0
162 181 0
160 178 0
162 181 0
162 184 0
164 184 0
170 189 0
162 181 0
159 178 0
165 185 0
166 185 0
168 188 0
165 185 0
155 175 0
165 186 0
163 182 0
169 193 76
174 197 67
169 194 72
173 197 76
171 196 84
170 193 76
169 193 51
174 197 88
172 195 76
174 197 99
173 195 76
173 196 108
172 196 108
171 195 88
176 199 102
167 191 99
171 194 105
173 197 102
170 194 105
172 195 95
172 195 88
170 192 57
176 200 105
173 197 102
173 196 95
172 196 99
170 193 92
175 198 117
172 196 108
176 199 111
164 188 72
170 193 99
171 194 117
168 192 80
171 194 92
166 189 80
175 198 102
166 189 92
174 197 95
172 196 92
172 195 88
168 191 95
170 194 108
173 195 114
171 194 105
168 192 102
169 192 84
172 196 99
169 193 76
165 187 76
169 192 102
167 190 122
169 193 114
169 193 95
173 197 105
164 188 102
172 195 95
165 188 92
169 192 105
166 188 82
167 190 57
169 191 84
163 187 84
167 191 88
162 184 76
165 188 102
172 196 102
161 185 100
163 186 108
167 190 108
166 189 92
163 186 84
170 194 99
170 192 111
161 185 80
161 185 95
174 197 117
161 182 67
166 188 99
163 185 88
167 190 92
166 189 99
169 191 95
165 187 114
164 187 102
168 190 105
166 187 108
160 181 99
156 178 88
164 186 92
171 192 108
159 180 102
160 181 120
161 182 99
153 175 67
151 172 108
158 180 84
157 179 88
159 180 80
155 175 99
161 183 92
152 174 84
155 177 92
158 179 105
151 174 76
153 175 80
136 158 76
152 174 76
152 173 76
152 174 76
145 166 62
147 167 76
152 173 72
146 166 51
150 170 84
146 167 72
140 160 72
147 167 84
144 163 88
96 120 102
81 109 122
84 109 124
85 110 95
94 118 128
81 108 124
87 113 126
110 134 134
104 127 137
94 119 128
94 120 141
88 114 123
83 110 122
93 120 131
93 119 106
101 128 113
82 112 122
80 109 120
91 119 111
83 112 122
84 112 116
63 97 133
61 96 144
60 95 136
60 95 137
59 94 138
59 94 137
60 94 129
59 93 134
60 94 122
57 90 123
59 93 128
58 92 127
59 93 126
57 91 113
58 92 121
57 90 114
59 94 124
59 93 131
57 91 118
60 95 138
60 95 136
58 92 119
58 93 118
60 94 133
58 93 124
60 95 131
58 92 123
58 92 126
60 95 130
59 94 124
59 94 130
61 95 137
61 95 131
59 94 127
58 93 122
60 94 137
59 94 128
58 93 128
59 93 130
60 95 139
60 94 139
60 94 131
59 93 128
59 93 130
60 94 134
61 97 147
59 93 128
59 93 124
61 95 140
59 93 127
58 92 125
60 94 127
61 96 143
59 94 133
61 96 142
59 94 134
59 94 128
59 93 134
58 92 129
61 96 139
60 94 131
59 93 134
58 92 125
59 93 124
59 93 125
59 94 133
60 94 124
60 95 128
60 94 130
60 94 124
60 94 124
59 94 124
60 95 137
60 94 128
59 94 128
59 93 129
61 96 137
60 95 131
59 94 126
58 92 124
60 95 135
60 94 129
59 94 128
60 94 131
60 95 133
59 94 122
59 94 125
60 95 130
60 94 133
60 94 129
61 95 134
60 94 128
58 92 122
60 95 128
60 95 137
60 95 133
60 95 137
59 93 126
59 93 129
58 92 113
60 94 126
58 93 122
60 95 135
59 93 120
59 94 128
58 92 120
58 91 120
59 93 134
59 93 122
58 92 128
59 93 124
59 94 122
59 93 118
59 93 122
57 90 113
57 90 110
57 91 108
58 92 113
58 92 122
59 93 120
56 89 107
58 91 114
58 91 121
58 91 114
58 91 114
63 94 95
115 132 54
121 137 0
122 136 0
139 155 0
109 121 0
120 136 0
129 144 0
126 141 0
142 158 0
130 146 0
130 145 0
133 149 0
119 134 0
123 140 0
127 141 0
136 152 0
133 149 0
136 155 0
139 155 0
128 144 0
124 140 0
139 154 0
141 159 0
130 147 0
131 147 0
135 152 0
139 155 0
134 148 0
136 151 0
143 161 0
131 147 0
142 160 0
135 153 0
148 165 0
139 155 0
137 154 0
142 158 0
144 163 0
140 157 0
152 169 0
144 162 0
148 166 0
145 163 0
144 160 0
147 165 0
149 165 0
145 163 0
149 167 0
144 162 0
148 165 0
148 166 0
143 159 0
153 171 0
152 171 0
148 167 0
142 159 0
146 165 0
152 169 0
154 172 0
144 161 0
151 169 0
150 164 0
150 169 0
147 164 0
152 170 0
158 177 0
152 170 0
148 164 0
162 180 0
153 171 0
153 172 0
157 175 0
158 175 0
160 179 0
157 176 0
154 171 0
155 173 0
157 177 0
158 176 0
152 168 0
158 178 0
158 177 0
153 171 0
154 173 0
156 175 0
162 179 0
156 174 0
149 168 0
158 177 0
154 175 0
161 176 0
155 174 0
160 180 0
162 180 0
160 179 0
159 179 0
160 178 0
162 183 0
158 178 0
163 181 0
164 182 0
161 182 0
166 185 0
158 177 0
163 184 0
162 181 0
159 179 0
161 181 0
162 180 0
163 183 0
162 181 0
162 183 0
160 179 0
166 186 0
163 183 0
160 178 0
162 181 0
164 183 0
163 183 0
158 180 0
167 186 0
164 185 0
160 182 0
161 181 0
164 183 0
166 187 0
163 182 0
165 185 0
162 183 0
162 183 0
161 180 0
168 188 0
166 184 0
163 182 0
169 193 72
168 193 84
166 190 57
173 196 84
172 195 99
173 197 105
172 196 95
172 195 95
172 195 88
175 199 99
177 199 111
170 194 80
174 198 114
172 196 84
169 193 80
172 196 84
175 199 111
174 197 111
172 195 88
173 197 92
175 198 108
174 197 114
170 193 80
170 193 95
173 197 105
174 198 102
173 197 88
171 195 99
169 194 114
174 195 105
169 193 105
170 193 88
171 196 102
170 194 95
166 190 102
173 197 114
175 199 102
170 193 88
174 197 99
171 195 102
168 192 99
171 194 108
174 197 111
168 191 105
169 192 95
172 196 88
166 189 92
165 188 80
167 191 92
169 193 117
166 189 80
160 185 92
171 193 105
167 190 80
170 194 102
174 196 108
173 195 114
170 193 97
168 191 95
166 190 102
175 197 102
161 183 76
164 187 103
167 189 105
166 190 80
165 187 84
166 188 88
166 189 105
166 189 97
165 188 105
168 190 108
163 185 95
166 189 102
168 191 88
166 190 88
164 187 99
162 186 99
164 186 114
165 188 95
166 189 108
168 191 111
159 180 102
159 181 84
165 187 108
171 193 117
164 186 105
161 182 92
161 182 99
158 180 72
158 180 76
163 185 105
165 186 111
162 183 103
159 180 99
160 182 99
161 182 102
160 181 105
162 183 114
157 179 84
157 178 84
162 184 120
152 174 80
159 180 80
151 173 80
153 174 84
160 181 88
153 174 95
142 163 62
142 163 36
147 168 62
136 157 72
146 167 62
145 165 62
136 156 62
139 159 51
149 170 88
141 161 80
144 163 76
149 169 67
128 149 76
91 115 94
84 110 115
96 120 128
89 115 115
90 115 118
99 123 125
102 126 123
87 114 124
93 119 127
97 122 115
90 116 136
105 130 123
93 120 107
85 113 119
92 119 108
101 127 106
90 118 120
95 122 120
75 104 102
90 118 115
64 97 121
60 95 140
60 95 137
59 94 139
60 95 139
61 96 136
59 93 131
59 94 128
59 94 136
60 95 139
59 93 129
59 93 122
59 92 127
59 93 129
60 94 129
59 93 118
57 90 117
59 94 130
58 93 123
59 93 129
58 93 122
57 91 113
59 93 126
60 94 129
60 94 133
58 93 125
61 95 139
60 94 134
59 93 130
60 95 134
58 92 124
58 93 135
59 93 126
58 93 126
57 91 122
59 94 125
60 95 134
59 94 125
57 91 123
56 90 107
60 94 138
60 95 133
59 93 127
59 94 133
60 95 133
59 93 124
60 95 133
60 95 134
59 94 132
60 95 129
60 94 134
61 96 140
60 95 137
59 93 130
60 95 134
59 94 128
61 95 137
59 93 121
61 95 134
59 93 122
60 94 133
59 94 134
59 93 121
60 94 131
59 93 129
60 94 133
60 94 133
60 94 126
60 94 125
59 94 134
60 95 135
60 95 139
60 94 130
60 94 129
60 94 130
59 94 130
61 95 135
59 93 122
60 94 131
60 94 130
58 92 124
58 92 118
61 96 131
59 94 124
59 93 121
58 92 117
60 94 134
59 94 129
58 92 120
60 95 126
59 93 122
60 95 133
59 94 133
60 95 131
58 92 124
59 93 133
60 95 129
57 90 120
59 93 121
58 92 128
58 92 124
59 93 125
58 93 125
61 96 133
61 95 136
58 92 122
60 95 136
60 94 124
61 96 135
61 96 137
59 93 130
59 93 124
59 93 124
56 89 102
57 91 110
59 93 128
58 92 118
56 89 97
58 92 108
58 92 122
58 92 120
58 91 115
56 89 115
59 92 125
62 93 110
101 119 36
120 136 0
112 128 0
131 146 0
120 135 0
121 138 0
123 139 0
122 139 0
110 125 0
124 140 0
122 136 0
122 137 0
125 138 0
119 134 0
134 151 0
138 155 0
131 148 0
128 145 0
127 142 0
137 155 0
139 155 0
136 153 0
126 143 0
134 150 0
139 156 0
134 151 0
136 151 0
141 158 0
132 149 0
137 153 0
144 162 0
128 144 0
139 156 0
142 159 0
134 153 0
143 160 0
149 168 0
128 143 0
142 160 0
144 162 0
137 154 0
136 154 0
144 161 0
143 162 0
147 162 0
142 159 0
144 164 0
147 164 0
146 164 0
143 161 0
147 165 0
152 171 0
157 175 0
146 165 0
149 168 0
145 164 0
149 167 0
155 171 0
146 163 0
141 159 0
150 168 0
146 164 0
148 166 0
158 174 0
155 174 0
147 164 0
158 178 0
158 178 0
156 175 0
155 174 0
152 170 0
149 167 0
150 167 0
153 170 0
153 172 0
156 172 0
150 169 0
152 169 0
153 173 0
159 178 0
152 171 0
158 178 0
160 178 0
153 173 0
160 179 0
159 178 0
150 169 0
158 176 0
154 172 0
159 177 0
158 177 0
155 173 0
161 178 0
157 177 0
162 181 0
155 173 0
154 171 0
156 176 0
160 181 0
160 178 0
155 174 0
157 175 0
161 181 0
161 180 0
166 186 0
164 184 0
160 179 0
165 184 0
166 184 0
163 185 0
161 182 0
160 179 0
162 182 0
163 183 0
161 180 0
165 186 0
154 174 0
160 180 0
162 183 0
162 182 0
166 188 0
164 184 0
163 182 0
164 181 0
163 184 0
167 188 0
162 184 0
165 186 0
166 187 0
165 185 0
163 184 0
158 178 0
163 184 0
165 186 0
164 184 0
171 196 80
169 193 51
174 198 88
173 196 88
169 193 76
172 195 72
173 197 95
176 199 108
171 194 99
175 198 102
171 194 108
173 196 95
173 195 99
174 198 102
177 199 108
174 197 111
175 199 117
171 194 102
173 195 76
175 199 99
168 190 88
175 198 102
172 196 111
169 193 99
171 194 99
170 193 95
177 200 117
172 196 88
174 198 92
173 195 80
172 195 95
167 190 76
169 191 88
166 190 88
172 196 120
174 198 111
165 188 99
174 196 102
165 188 102
172 195 92
171 195 108
172 195 88
168 191 108
167 190 92
167 191 108
164 187 99
173 197 108
171 195 105
174 198 120
173 196 99
169 193 76
169 192 99
169 192 88
166 190 99
172 196 120
168 191 102
171 193 108
165 188 80
170 193 92
165 187 108
164 187 80
161 183 92
169 192 88
165 188 111
171 194 117
164 187 111
166 189 80
169 192 97
160 183 90
166 190 114
170 193 111
161 184 92
163 186 84
167 189 114
163 186 95
165 188 105
167 189 105
168 190 108
164 186 99
165 187 95
161 184 105
164 186 76
159 182 67
163 186 108
166 187 76
164 186 102
161 184 95
152 175 92
161 184 108
168 190 102
157 178 99
158 180 92
166 187 99
164 186 88
160 183 88
161 182 92
160 181 88
160 181 108
158 178 102
160 180 105
162 183 111
152 173 95
153 174 105
153 174 92
160 181 95
147 167 76
150 170 92
146 168 72
148 170 72
143 164 76
153 174 67
150 171 72
136 157 44
142 163 51
146 166 84
148 168 72
136 156 67
140 161 57
141 160 67
153 173 84
110 130 86
95 121 117
76 103 109
100 122 122
104 127 120
90 114 120
102 123 124
94 119 114
96 121 121
81 108 115
90 115 122
100 123 118
89 115 105
94 121 100
98 124 108
106 131 102
85 113 104
92 118 99
81 110 121
83 110 113
77 107 124
61 96 144
59 94 134
58 92 129
59 94 129
60 94 130
58 93 130
59 94 131
60 94 134
58 92 120
58 92 121
60 93 107
59 93 124
58 92 121
59 93 135
58 92 131
57 90 124
56 90 115
57 91 122
59 93 117
58 91 118
58 93 128
59 92 129
59 93 130
58 92 115
59 92 118
59 93 126
59 94 134
57 91 113
60 94 128
58 92 113
60 95 131
59 92 124
59 93 127
59 92 131
60 95 131
58 93 124
60 94 130
59 93 126
59 94 122
59 93 130
59 93 120
59 94 128
59 94 133
60 94 135
58 92 128
59 93 124
60 94 133
59 93 128
59 93 128
60 95 137
58 92 108
60 95 131
60 95 140
60 95 141
60 94 125
60 95 133
58 92 118
59 93 126
59 93 124
58 92 122
59 94 125
60 95 126
58 93 129
59 93 130
61 95 142
59 93 128
59 94 128
60 94 124
60 95 135
59 93 124
60 95 141
60 94 137
60 95 129
59 94 128
59 94 129
60 94 122
60 94 131
60 94 133
61 96 137
61 96 136
59 93 128
59 93 120
60 94 135
60 95 136
60 94 136
59 93 130
59 93 125
61 95 134
60 95 131
60 95 140
59 94 126
59 93 129
60 94 122
60 94 122
59 93 129
58 92 113
58 92 121
59 93 117
61 95 140
59 92 129
58 92 121
58 91 124
61 95 131
59 93 131
59 94 118
60 94 134
58 91 114
58 91 114
58 92 124
58 92 120
57 90 113
56 89 95
58 92 120
58 92 105
60 94 122
57 91 122
59 92 117
57 91 113
56 89 103
58 91 117
58 91 121
55 87 90
65 94 110
110 128 51
121 136 0
123 140 0
114 130 0
132 149 0
115 131 0
123 137 0
133 148 0
125 141 0
131 149 0
130 145 0
122 139 0
125 142 0
120 134 0
129 144 0
131 147 0
121 138 0
132 149 0
127 144 0
142 159 0
136 151 0
131 148 0
138 156 0
136 154 0
132 150 0
146 162 0
130 147 0
136 153 0
143 160 0
135 151 0
142 158 0
139 156 0
133 150 0
139 157 0
138 154 0
132 149 0
149 167 0
141 159 0
141 159 0
146 164 0
140 158 0
129 147 0
143 160 0
145 163 0
145 162 0
140 155 0
145 164 0
146 163 0
135 151 0
141 158 0
154 172 0
141 158 0
146 165 0
153 172 0
147 166 0
153 171 0
153 169 0
151 168 0
143 160 0
145 161 0
145 163 0
152 168 0
151 169 0
155 174 0
145 162 0
149 166 0
155 174 0
156 175 0
154 172 0
157 177 0
154 173 0
155 174 0
144 162 0
156 172 0
153 170 0
154 173 0
158 178 0
153 170 0
151 169 0
154 173 0
161 178 0
157 175 0
157 176 0
153 173 0
155 175 0
157 174 0
158 174 0
149 166 0
151 170 0
158 176 0
160 178 0
159 178 0
160 180 0
153 173 0
157 175 0
158 179 0
160 179 0
165 181 0
161 183 0
161 179 0
160 178 0
158 177 0
161 180 0
161 179 0
158 177 0
162 182 0
162 182 0
161 182 0
165 184 0
165 184 0
161 181 0
166 187 0
161 178 0
161 180 0
158 179 0
165 185 0
161 179 0
165 184 0
163 183 0
159 177 0
163 182 0
165 186 0
165 186 0
164 182 0
167 188 0
163 184 0
163 181 0
166 185 0
164 184 0
166 188 0
162 184 0
167 187 0
167 189 0
168 189 0
166 186 0
167 187 0
175 198 88
170 194 67
172 194 95
173 196 80
173 197 67
173 196 88
173 196 102
173 195 102
177 200 99
175 198 88
178 200 120
173 196 108
172 195 102
175 200 95
170 194 88
174 198 80
174 198 105
172 196 95
175 198 99
171 194 95
177 199 122
173 197 114
169 192 76
169 192 95
171 195 76
169 192 105
167 191 92
170 194 105
166 190 99
173 198 108
167 190 76
169 193 88
170 194 108
170 193 80
171 194 76
169 193 76
171 195 72
175 198 99
167 191 88
171 195 95
171 193 95
172 196 108
170 194 95
169 193 111
167 190 105
165 189 76
169 193 95
171 194 95
170 193 108
169 193 95
166 189 95
164 189 95
172 195 102
173 197 99
165 189 88
166 190 100
167 190 102
163 185 84
169 192 95
165 188 105
167 190 105
166 189 80
162 186 94
168 191 84
162 185 108
160 183 105
170 193 108
166 188 80
160 183 102
166 189 99
161 184 76
168 191 99
155 178 90
165 188 99
165 188 105
159 181 84
162 186 92
162 184 88
168 190 99
166 189 84
168 191 111
165 188 128
161 184 108
161 183 84
164 186 95
169 191 92
161 184 84
166 187 114
163 185 117
166 187 111
160 183 92
161 182 84
156 177 67
164 186 114
162 183 88
166 188 102
156 178 76
159 181 95
161 182 102
165 186 95
157 177 111
159 180 110
159 179 107
159 179 102
150 171 84
149 170 102
156 177 88
153 172 88
151 172 62
148 169 67
146 167 57
151 172 84
144 165 72
153 174 67
149 169 72
142 162 72
142 162 76
147 167 72
129 149 51
135 154 72
143 162 84
108 130 98
97 120 115
92 117 117
92 117 124
98 122 118
98 123 132
85 112 110
98 122 103
106 130 137
98 122 115
95 120 128
85 113 106
89 116 106
95 123 119
99 126 100
88 116 114
104 129 99
86 114 122
89 117 117
71 101 116
60 95 137
60 95 134
61 96 137
59 93 131
60 94 130
61 96 143
61 95 140
58 92 121
58 92 124
59 93 120
60 93 124
58 91 106
58 92 114
57 90 110
58 92 117
58 92 121
58 91 124
58 92 113
57 91 115
58 92 107
57 90 120
59 93 129
59 93 123
59 93 126
58 92 115
59 92 129
59 94 124
59 94 130
59 93 125
58 92 125
59 92 130
59 94 130
58 91 128
59 93 115
58 91 121
59 93 124
59 93 131
60 94 131
58 92 120
58 93 129
58 92 129
59 94 122
59 93 136
59 93 130
60 94 128
60 94 131
58 92 121
59 93 121
60 95 141
57 91 116
57 91 117
60 94 134
60 95 131
58 93 126
60 95 133
60 94 131
61 95 134
59 94 122
58 92 120
60 94 128
57 91 121
60 94 128
59 94 134
59 93 128
60 95 128
58 92 124
59 94 128
59 94 133
59 93 124
59 93 130
59 94 124
58 93 124
61 96 139
60 94 128
59 94 124
60 95 131
59 94 131
61 96 141
59 94 130
61 95 134
58 92 128
59 94 126
60 95 130
60 95 133
58 92 118
61 95 141
61 95 135
60 94 131
58 92 118
61 96 135
58 92 122
59 93 136
58 92 114
59 93 129
59 93 120
58 92 120
61 95 135
57 90 117
60 95 128
60 94 130
59 93 128
60 94 131
60 94 129
59 93 120
58 92 126
59 93 120
59 94 128
57 90 118
59 93 121
58 92 118
58 92 117
57 89 107
59 93 133
57 90 108
57 90 120
57 89 114
55 88 103
56 90 108
56 89 105
55 88 100
56 89 110
63 92 76
107 124 54
108 122 0
133 150 0
121 138 0
121 137 0
124 140 0
122 137 0
129 145 0
118 132 0
128 142 0
129 143 0
124 140 0
127 140 0
130 147 0
126 143 0
138 153 0
126 145 0
136 152 0
129 145 0
140 156 0
130 149 0
136 153 0
129 145 0
136 151 0
129 146 0
131 147 0
143 160 0
132 150 0
148 168 0
141 157 0
140 158 0
145 162 0
141 159 0
135 152 0
148 167 0
138 155 0
129 145 0
137 156 0
141 157 0
147 166 0
142 160 0
146 164 0
138 155 0
136 154 0
145 164 0
141 160 0
148 164 0
153 170 0
144 161 0
143 159 0
154 173 0
150 167 0
151 170 0
148 166 0
142 159 0
153 170 0
148 165 0
147 165 0
144 162 0
140 158 0
146 163 0
148 165 0
155 173 0
159 177 0
151 167 0
153 171 0
156 173 0
151 169 0
148 167 0
149 167 0
155 174 0
155 174 0
153 171 0
156 173 0
151 170 0
156 176 0
155 172 0
151 170 0
157 175 0
160 177 0
161 180 0
159 178 0
156 175 0
151 169 0
159 178 0
156 174 0
161 181 0
159 177 0
164 182 0
157 177 0
155 173 0
162 181 0
159 177 0
156 175 0
159 180 0
163 182 0
153 172 0
165 184 0
162 182 0
161 182 0
155 174 0
160 179 0
163 182 0
162 181 0
163 182 0
162 183 0
159 176 0
164 185 0
162 181 0
164 185 0
160 181 0
157 177 0
162 181 0
161 181 0
162 181 0
164 184 0
164 185 0
162 180 0
161 180 0
163 184 0
164 185 0
165 187 0
162 183 0
166 186 0
165 187 0
158 178 0
166 187 0
166 187 0
165 184 0
162 182 0
167 188 0
166 186 0
166 185 0
162 181 0
163 184 0
167 187 0
161 182 0
172 195 102
173 197 99
175 199 99
175 198 84
172 196 88
174 197 99
172 195 99
176 200 108
172 196 99
168 192 92
173 195 92
175 199 114
172 195 92
176 199 92
174 196 108
174 197 95
172 196 95
171 195 105
176 199 111
175 198 105
175 198 102
167 190 76
174 197 99
172 195 99
175 198 108
175 198 105
172 195 99
172 195 99
175 198 117
170 194 102
171 194 92
172 195 84
173 196 99
171 194 105
174 198 105
171 195 99
176 199 120
175 198 125
172 195 105
170 193 95
168 192 111
174 197 95
168 191 84
172 197 88
167 190 88
168 191 120
173 197 105
167 191 95
172 195 125
170 193 95
170 194 102
167 189 76
170 194 99
167 191 99
169 192 114
169 192 80
168 192 99
168 191 97
162 185 88
167 190 111
167 191 103
164 187 72
166 189 117
166 189 111
163 186 88
169 192 99
164 187 99
167 191 88
165 187 108
170 192 120
169 191 111
162 184 97
170 193 108
166 189 88
157 180 88
167 188 108
163 185 95
159 181 88
172 195 99
166 188 108
159 182 99
171 194 114
165 186 95
166 189 102
161 184 84
165 187 99
165 187 99
161 183 84
158 180 95
158 179 92
160 182 102
159 180 99
157 180 88
157 179 76
159 181 80
159 180 88
156 177 88
159 180 108
159 180 105
166 188 114
158 179 95
156 177 99
157 177 102
153 173 117
149 171 57
160 181 108
141 162 51
160 182 95
157 179 76
143 164 76
150 171 80
143 164 62
149 170 72
146 167 76
145 164 72
143 162 84
138 158 80
136 155 67
149 168 72
136 156 67
136 154 84
128 148 80
90 115 101
97 121 114
88 112 111
94 120 128
102 124 122
94 118 108
100 124 129
96 120 115
105 129 114
105 129 118
88 115 102
93 119 99
91 117 113
104 130 114
103 128 95
94 121 110
86 112 103
82 109 109
91 118 117
63 98 134
60 95 133
60 94 134
60 95 141
60 94 137
59 93 137
59 93 124
59 93 123
59 94 130
58 92 115
58 91 113
59 93 124
56 89 109
59 93 124
57 90 100
59 93 125
56 89 113
58 92 126
57 90 107
57 91 109
57 90 116
57 91 118
57 91 127
59 93 129
58 91 121
57 91 118
58 91 111
59 94 120
58 92 122
58 92 110
59 94 124
57 91 118
59 93 125
59 93 128
57 91 116
60 94 125
58 92 125
58 92 125
58 92 125
59 93 122
60 94 120
58 92 126
60 94 126
59 93 123
59 94 130
60 94 133
59 93 121
59 93 126
60 94 128
59 93 128
60 95 126
59 94 130
59 93 117
59 94 136
57 91 126
58 92 115
58 92 124
60 95 136
59 93 122
60 95 135
60 94 130
58 92 117
59 93 120
59 93 129
60 95 139
59 93 126
60 94 128
59 93 128
59 93 126
59 93 122
59 93 124
57 90 102
58 92 118
59 93 121
57 90 124
58 92 126
60 94 131
60 94 131
60 95 129
60 95 136
60 94 134
59 92 120
58 93 118
59 94 125
59 92 122
59 94 122
59 94 125
59 93 122
59 93 120
61 95 133
59 93 121
60 95 131
57 91 111
58 92 118
57 90 108
58 92 110
58 92 117
60 94 124
59 93 126
60 94 128
58 91 120
57 90 103
59 93 130
57 91 121
58 92 120
58 92 117
61 95 131
57 90 107
56 89 113
58 92 120
59 92 118
58 92 105
58 91 113
57 90 110
59 92 126
57 89 118
57 90 108
56 89 100
55 87 113
57 90 113
70 98 97
112 128 36
117 131 0
113 126 0
122 136 0
121 134 0
123 139 0
118 134 0
128 143 0
135 151 0
132 148 0
129 146 0
130 148 0
128 145 0
132 149 0
117 134 0
124 142 0
137 155 0
123 140 0
133 151 0
131 147 0
125 141 0
132 150 0
142 161 0
127 143 0
131 146 0
133 152 0
143 158 0
135 152 0
139 156 0
128 143 0
134 153 0
146 164 0
136 153 0
139 156 0
140 160 0
142 160 0
148 166 0
142 159 0
149 168 0
140 158 0
142 159 0
130 147 0
135 153 0
143 162 0
148 164 0
141 159 0
149 165 0
148 166 0
131 147 0
142 160 0
147 163 0
137 154 0
147 165 0
156 174 0
151 168 0
156 175 0
135 153 0
153 171 0
152 170 0
148 164 0
147 166 0
151 170 0
151 170 0
148 165 0
157 174 0
151 168 0
149 168 0
154 173 0
150 167 0
157 175 0
146 164 0
155 175 0
156 173 0
150 169 0
151 171 0
153 170 0
157 175 0
159 178 0
157 175 0
165 184 0
158 176 0
153 170 0
153 173 0
156 176 0
146 164 0
155 172 0
163 181 0
152 171 0
157 175 0
153 174 0
162 181 0
158 176 0
160 179 0
153 171 0
161 179 0
157 175 0
162 182 0
159 179 0
166 186 0
160 176 0
156 176 0
160 180 0
154 172 0
158 177 0
167 187 0
166 186 0
158 177 0
160 179 0
156 175 0
162 183 0
161 178 0
161 182 0
157 176 0
160 178 0
162 182 0
164 182 0
162 183 0
161 180 0
165 186 0
159 179 0
165 183 0
166 186 0
165 185 0
168 190 0
169 189 0
161 179 0
167 188 0
165 186 0
165 186 0
166 187 0
163 184 0
161 181 0
168 189 0
168 189 0
164 184 0
166 186 0
169 189 0
164 185 0
170 194 76
172 196 72
176 198 108
173 196 84
171 195 92
173 198 95
173 196 88
172 196 84
174 197 102
177 200 108
177 200 120
173 197 99
173 196 88
171 195 92
177 201 111
169 192 80
174 199 108
175 198 111
172 196 117
174 197 105
176 199 102
171 195 105
175 198 108
167 190 76
172 196 102
173 197 108
176 198 102
173 197 111
173 196 84
174 198 117
176 198 105
169 193 88
172 196 95
173 196 80
170 193 99
173 196 117
171 193 92
173 195 95
170 193 88
170 194 72
170 193 120
170 193 114
169 193 80
171 194 105
172 195 80
173 197 102
168 191 102
170 194 105
173 196 108
171 194 102
172 196 99
172 195 102
165 188 84
167 190 84
167 191 102
169 192 99
159 183 70
167 190 113
168 191 95
163 185 88
176 199 102
160 182 88
163 186 102
165 188 94
166 189 90
171 192 72
164 188 80
163 186 99
170 193 99
167 190 110
165 187 99
167 190 92
166 189 115
165 188 92
169 192 117
165 188 120
168 191 108
162 185 84
168 191 102
162 185 102
158 180 92
166 189 114
167 189 102
159 181 95
165 188 117
156 178 88
160 183 88
167 188 114
152 174 84
163 185 95
161 183 102
162 184 102
157 177 88
171 192 88
158 180 99
170 191 130
162 183 108
155 176 95
156 177 102
161 182 99
156 177 95
156 177 92
158 179 92
155 177 72
159 179 108
160 181 84
158 179 88
146 166 105
148 169 67
149 169 84
149 170 84
140 160 76
146 167 72
144 165 99
139 160 51
152 172 76
154 174 84
142 162 72
141 162 80
134 153 62
146 165 95
131 150 76
114 133 86
92 115 117
100 123 121
103 125 131
99 123 124
95 119 126
107 130 125
92 119 111
102 126 128
105 129 108
92 118 99
88 115 99
85 113 103
102 127 95
102 128 120
110 135 94
99 125 105
93 120 118
84 112 126
67 100 125
59 94 133
60 94 134
60 95 136
59 94 134
59 94 127
58 92 111
58 92 126
59 93 126
62 95 135
63 96 128
57 90 110
58 91 126
57 90 115
56 89 113
57 90 115
57 89 117
58 91 126
57 91 118
57 90 118
58 92 117
58 92 114
59 93 122
58 93 126
58 92 132
57 91 115
60 95 133
58 92 131
59 93 131
60 94 129
58 92 125
58 92 126
58 92 120
58 92 122
60 94 126
59 94 131
59 94 136
58 92 117
60 94 126
57 91 113
59 94 129
57 91 107
60 95 125
59 93 130
58 91 114
58 91 121
59 93 125
58 92 125
59 93 124
57 91 115
60 95 136
59 93 124
60 94 133
60 95 135
59 93 130
57 90 111
60 94 130
57 92 119
60 94 129
58 92 129
60 95 131
57 91 111
59 94 130
60 94 135
58 93 126
61 95 129
60 95 133
61 95 140
60 94 135
58 91 129
59 93 124
59 94 122
59 93 117
59 93 118
60 94 131
60 95 131
60 95 133
60 95 134
60 94 124
58 92 128
59 93 111
60 95 133
58 92 114
59 93 120
60 94 130
59 93 129
59 93 134
58 92 117
59 93 129
59 94 120
58 92 121
58 92 124
58 92 122
58 91 122
59 93 122
59 93 122
57 91 108
58 91 126
57 91 111
59 94 125
59 92 120
59 94 114
58 92 120
58 91 120
58 92 118
59 92 128
58 91 117
59 92 115
58 91 115
57 91 113
59 93 120
57 90 103
58 91 108
58 91 107
57 89 102
57 89 102
57 90 103
58 92 115
55 88 107
70 96 82
112 125 25
115 131 0
122 138 0
126 143 0
120 135 0
119 133 0
130 146 0
116 133 0
118 134 0
121 136 0
116 134 0
122 137 0
128 144 0
123 138 0
124 140 0
138 156 0
127 143 0
127 144 0
131 148 0
121 138 0
137 152 0
133 151 0
133 151 0
125 139 0
137 154 0
124 142 0
137 155 0
142 158 0
123 140 0
127 144 0
133 150 0
139 157 0
138 155 0
144 163 0
141 158 0
143 159 0
139 155 0
143 160 0
149 168 0
127 144 0
147 165 0
142 159 0
148 166 0
136 154 0
142 160 0
148 167 0
141 156 0
145 164 0
149 168 0
147 166 0
150 167 0
160 179 0
142 160 0
150 167 0
148 166 0
142 161 0
143 162 0
157 176 0
146 164 0
152 168 0
155 172 0
149 167 0
146 164 0
152 169 0
142 160 0
154 172 0
147 167 0
159 178 0
156 174 0
158 177 0
157 177 0
154 174 0
151 170 0
150 168 0
157 177 0
152 171 0
151 169 0
157 177 0
154 172 0
152 171 0
158 175 0
152 169 0
157 177 0
153 175 0
151 170 0
159 178 0
160 180 0
160 180 0
159 178 0
153 172 0
152 171 0
162 182 0
156 174 0
154 172 0
156 175 0
158 178 0
154 172 0
156 175 0
157 177 0
161 181 0
160 181 0
160 180 0
160 181 0
161 180 0
160 181 0
163 184 0
158 177 0
158 178 0
161 179 0
161 182 0
159 178 0
160 180 0
160 180 0
166 187 0
160 179 0
162 182 0
166 185 0
168 187 0
161 182 0
166 188 0
166 187 0
157 178 0
161 180 0
162 183 0
163 181 0
166 187 0
166 187 0
163 182 0
167 187 0
167 189 0
166 188 0
162 184 0
162 182 0
165 186 0
165 185 0
167 188 0
168 188 0
169 191 0
163 182 0
174 198 95
180 203 105
174 198 99
171 194 76
174 197 99
171 194 105
177 200 114
174 198 114
172 195 95
168 191 67
172 196 84
177 200 92
179 202 125
176 199 105
170 194 111
171 193 84
174 197 88
176 199 105
171 194 95
172 196 102
171 195 95
172 194 102
169 192 95
169 191 67
170 192 88
168 191 92
170 193 99
168 192 62
172 195 108
174 197 105
174 197 105
169 192 84
171 195 84
169 193 84
174 196 99
170 193 99
169 192 105
167 192 117
168 192 92
168 192 102
171 195 92
172 195 102
165 189 72
168 192 102
167 191 88
169 191 92
171 194 108
172 195 102
171 194 99
170 192 120
168 192 99
169 192 76
161 185 95
170 194 105
172 194 92
168 191 92
161 184 72
164 187 102
167 189 82
167 191 82
168 191 88
168 191 110
171 193 92
161 185 92
167 190 108
169 193 95
169 193 110
164 187 107
159 183 67
166 190 100
165 188 82
166 189 103
166 188 99
163 186 92
167 191 99
169 191 99
160 183 95
166 190 88
169 191 99
164 187 108
161 184 114
160 183 102
158 182 92
158 180 76
165 187 102
166 189 80
162 183 88
161 183 99
167 188 108
159 180 92
165 187 105
164 185 95
164 185 88
157 178 105
157 179 102
160 181 88
153 175 95
163 185 105
158 180 95
157 177 84
161 182 105
143 163 92
154 176 76
170 191 108
156 176 120
156 175 105
147 167 90
155 175 95
156 177 76
159 178 95
142 161 102
159 179 99
157 177 95
145 166 72
144 165 72
142 162 57
148 169 72
144 164 80
143 162 62
144 164 57
144 163 88
131 150 57
124 143 51
119 138 94
83 108 95
89 114 100
97 121 134
100 123 122
86 113 111
94 118 101
99 123 113
87 114 105
94 120 94
87 115 110
100 126 103
82 110 105
102 128 98
93 121 107
103 128 102
85 113 111
89 116 112
73 103 133
60 95 137
60 94 129
60 94 131
59 94 131
60 94 135
61 96 135
59 94 122
58 92 128
60 94 127
58 92 117
57 90 112
55 88 102
56 89 106
56 89 114
58 92 115
58 92 122
58 92 124
58 92 121
58 91 124
57 90 115
57 91 118
57 90 120
58 91 117
57 91 107
58 91 112
58 91 123
58 92 125
58 93 115
57 91 113
56 89 118
60 94 126
60 94 128
61 95 136
59 93 126
58 91 121
59 93 125
59 93 128
57 90 105
58 92 125
59 93 122
61 96 139
57 91 125
60 94 133
58 91 122
60 95 133
57 92 113
60 95 135
60 94 128
60 94 122
60 95 134
59 93 130
59 93 121
58 92 115
59 93 130
58 92 125
59 94 131
59 94 133
58 92 122
57 91 124
60 94 130
60 94 129
58 92 117
59 93 122
60 94 128
60 94 131
59 93 126
59 94 124
60 95 126
61 96 143
61 95 137
60 95 130
59 93 118
59 93 121
59 93 122
60 95 130
59 94 128
59 93 124
59 93 126
59 93 126
59 94 130
59 93 122
58 93 124
59 94 117
59 93 121
59 93 121
57 91 113
58 92 117
59 93 125
60 94 136
59 93 121
60 94 121
59 94 129
58 91 118
58 92 110
58 91 114
58 92 128
58 91 128
58 91 108
57 90 114
57 90 114
58 92 114
58 91 120
60 94 122
58 91 122
58 92 118
58 91 118
57 90 111
57 91 110
57 91 113
59 93 126
56 89 117
56 89 110
58 91 113
57 90 102
56 88 100
57 90 102
57 89 111
76 101 88
108 125 0
124 140 0
126 140 0
121 136 0
117 133 0
119 133 0
126 143 0
129 146 0
108 124 0
122 138 0
119 135 0
132 149 0
128 145 0
122 139 0
123 140 0
132 149 0
132 150 0
129 145 0
133 150 0
133 149 0
138 155 0
134 151 0
128 146 0
135 154 0
141 159 0
132 149 0
138 154 0
134 152 0
131 149 0
147 165 0
140 157 0
140 156 0
135 154 0
144 163 0
139 156 0
136 154 0
142 159 0
135 151 0
140 159 0
142 159 0
143 161 0
140 156 0
152 171 0
140 159 0
138 156 0
145 162 0
143 162 0
143 162 0
150 170 0
145 162 0
145 161 0
152 169 0
146 165 0
143 161 0
148 167 0
148 166 0
150 167 0
149 168 0
142 160 0
148 166 0
142 159 0
147 165 0
148 167 0
144 160 0
153 169 0
152 171 0
152 170 0
151 171 0
148 168 0
155 174 0
156 176 0
155 175 0
155 175 0
156 175 0
159 179 0
151 170 0
158 179 0
151 168 0
160 179 0
159 179 0
152 171 0
151 169 0
155 172 0
155 174 0
156 175 0
151 168 0
158 177 0
159 178 0
155 174 0
163 184 0
159 177 0
160 179 0
159 180 0
160 179 0
156 175 0
155 174 0
160 179 0
159 178 0
161 183 0
159 179 0
157 178 0
163 183 0
164 182 0
159 180 0
159 178 0
165 184 0
155 175 0
160 179 0
162 183 0
162 181 0
167 186 0
159 178 0
160 181 0
157 176 0
163 183 0
164 184 0
156 176 0
163 183 0
161 181 0
163 184 0
162 183 0
166 184 0
165 185 0
156 175 0
166 187 0
161 180 0
166 188 0
163 183 0
160 182 0
164 184 0
157 175 0
165 186 0
171 193 0
163 184 0
165 185 0
168 187 0
159 178 0
162 183 0
166 187 0
163 184 0
180 202 114
176 199 95
176 199 114
170 195 114
173 196 102
177 200 99
175 198 99
170 193 99
174 196 95
175 199 114
174 198 108
175 198 92
173 196 92
172 196 80
171 194 72
171 195 95
172 196 88
172 195 67
168 191 72
174 198 117
175 199 114
170 194 92
172 195 99
167 190 84
173 196 102
175 199 95
171 194 84
170 192 80
171 194 92
167 190 76
171 194 95
167 190 88
174 197 95
173 197 105
174 196 108
167 190 62
169 193 99
168 191 117
169 193 92
173 196 102
171 193 80
170 193 114
169 193 95
171 194 76
167 191 95
172 195 92
171 193 114
163 186 92
164 188 99
163 186 84
173 196 114
165 189 88
167 190 114
168 191 99
166 189 76
166 189 84
162 185 80
165 188 88
169 192 95
171 194 78
168 192 103
167 190 95
169 192 95
163 186 111
168 191 102
171 195 108
166 190 102
167 190 108
161 184 67
167 190 108
164 187 74
166 189 88
168 191 103
160 183 100
161 184 92
167 189 84
164 187 67
159 182 80
165 187 99
164 187 95
160 183 88
164 185 84
170 193 105
166 188 114
158 180 95
165 187 105
162 185 99
167 190 108
165 187 114
163 185 108
164 186 92
161 184 105
150 172 67
156 178 84
157 179 92
153 174 88
159 180 80
147 168 95
153 174 92
161 182 111
154 176 80
154 174 114
157 178 76
152 172 95
157 178 92
157 178 108
151 172 80
159 179 102
149 169 95
152 173 80
155 175 88
145 166 76
152 173 88
143 164 72
149 168 80
137 157 80
137 157 76
141 160 88
143 162 80
138 157 76
138 157 62
149 167 95
141 160 62
142 160 84
105 126 90
100 123 117
93 117 126
88 114 107
96 121 95
92 117 113
97 120 119
95 120 115
92 118 99
91 118 105
80 109 107
104 131 107
89 117 107
99 124 90
99 124 99
84 111 91
77 106 115
80 109 108
60 95 141
59 93 124
61 96 139
59 94 125
60 95 139
60 94 129
58 93 122
59 93 122
59 93 120
58 92 121
62 94 107
57 90 114
56 88 95
57 90 113
56 89 100
56 90 110
58 92 110
59 93 122
57 90 122
58 92 123
58 91 118
59 92 124
56 90 115
58 92 113
58 91 115
58 92 111
58 91 120
58 92 114
57 90 123
58 92 118
58 91 118
59 94 124
58 91 121
59 93 120
60 95 135
57 91 121
58 92 126
59 92 123
59 94 131
58 92 120
59 94 124
58 92 121
58 92 126
58 91 111
59 94 131
60 94 130
59 93 121
60 95 130
59 94 130
58 92 121
59 93 122
60 94 126
59 93 122
59 93 115
59 94 124
58 92 122
59 94 122
60 94 125
60 94 126
58 91 115
58 92 117
59 94 121
59 92 114
59 93 135
57 90 114
59 93 122
59 93 122
60 95 134
59 93 134
59 93 117
59 93 126
57 91 107
59 93 125
59 94 121
58 92 128
59 93 128
58 93 120
60 94 125
58 93 129
59 93 124
60 94 121
59 93 121
60 94 128
58 91 113
58 92 113
58 92 118
59 93 118
59 94 122
59 93 122
59 93 128
59 93 120
57 90 113
58 92 111
59 92 117
59 92 117
58 92 111
59 93 117
56 88 108
59 93 117
58 92 120
58 91 120
59 94 129
58 92 122
57 91 111
58 91 111
57 91 117
58 92 117
57 90 110
58 92 121
56 89 103
56 89 110
55 88 102
56 89 102
56 89 100
57 89 115
56 89 102
83 105 60
112 126 0
118 133 0
125 142 0
113 128 0
112 126 0
126 139 0
128 144 0
124 141 0
118 134 0
135 152 0
129 146 0
129 146 0
120 136 0
130 148 0
124 141 0
130 148 0
119 135 0
127 143 0
129 147 0
122 139 0
141 158 0
134 150 0
129 149 0
117 135 0
136 154 0
132 148 0
139 158 0
135 152 0
128 145 0
135 152 0
137 154 0
132 150 0
126 144 0
133 151 0
142 159 0
131 150 0
139 156 0
143 162 0
139 158 0
145 163 0
132 149 0
140 159 0
136 153 0
144 163 0
146 164 0
135 154 0
133 151 0
146 164 0
144 162 0
140 159 0
146 165 0
150 168 0
146 164 0
151 171 0
137 157 0
142 157 0
139 158 0
148 166 0
147 167 0
156 177 0
150 169 0
145 161 0
142 158 0
145 164 0
146 164 0
153 171 0
158 177 0
147 166 0
154 170 0
152 170 0
152 171 0
156 174 0
150 169 0
153 172 0
154 174 0
152 173 0
147 165 0
154 173 0
155 175 0
159 178 0
146 163 0
161 180 0
157 176 0
158 178 0
157 177 0
160 180 0
153 170 0
162 181 0
158 178 0
155 175 0
154 173 0
151 170 0
164 184 0
161 181 0
163 183 0
160 180 0
155 172 0
161 180 0
158 177 0
159 180 0
157 177 0
161 181 0
163 183 0
162 181 0
161 180 0
155 173 0
160 179 0
160 180 0
164 184 0
159 178 0
165 184 0
160 179 0
161 179 0
159 180 0
159 178 0
159 178 0
153 175 0
160 182 0
162 181 0
159 179 0
166 186 0
160 182 0
166 188 0
163 182 0
166 186 0
160 181 0
164 185 0
169 191 0
163 183 0
164 182 0
168 189 0
162 182 0
170 191 0
160 180 0
163 184 0
165 185 0
162 183 0
165 186 0
167 189 0
167 188 0
165 186 0
175 198 108
172 195 122
171 195 72
171 194 84
174 197 99
170 193 92
174 197 99
170 193 105
174 197 105
173 196 92
174 197 114
176 199 108
175 198 102
171 195 72
171 194 99
173 197 84
172 195 84
176 199 114
173 197 111
175 198 105
171 195 80
173 197 95
167 190 92
176 199 102
171 194 84
171 195 88
165 189 76
173 196 92
172 195 105
171 194 99
172 195 99
173 196 105
173 196 95
171 195 88
173 197 99
166 190 76
168 191 99
175 198 111
170 195 105
172 196 102
174 198 105
174 197 102
165 188 99
166 190 84
169 193 88
169 192 72
170 193 114
169 191 88
172 196 120
170 193 84
172 195 114
165 190 108
168 191 102
169 192 120
161 183 88
163 188 90
168 191 105
170 194 105
172 196 118
165 189 105
172 194 103
166 189 111
171 194 99
166 189 103
165 188 94
171 194 95
157 181 95
165 187 102
169 192 111
160 183 95
167 190 111
168 191 88
163 186 95
166 188 102
168 190 86
167 190 113
165 189 72
165 186 92
169 191 114
163 185 80
163 185 102
166 188 99
163 186 102
169 191 114
158 181 88
166 188 102
160 183 108
157 179 80
162 184 99
167 189 111
165 187 88
169 190 102
161 183 92
162 184 92
158 179 95
157 178 88
157 179 99
164 185 105
162 183 92
162 183 114
161 181 111
159 180 111
157 177 92
158 179 95
146 167 72
145 164 102
162 182 111
160 181 92
153 175 80
151 172 72
147 168 76
148 168 88
146 166 88
149 170 76
135 156 44
139 159 76
140 159 92
150 170 84
137 157 67
136 156 67
148 168 84
147 164 88
135 155 57
142 160 72
119 138 51
114 136 114
98 121 102
98 121 118
96 119 111
84 110 108
89 114 99
96 121 97
98 124 118
102 127 106
92 118 104
93 119 103
96 123 99
97 122 103
102 127 103
104 128 94
88 115 121
88 115 107
59 94 131
59 93 131
58 92 133
59 93 124
60 94 129
59 94 124
58 92 117
58 92 111
59 93 129
60 93 115
58 92 122
56 88 100
57 90 107
57 90 111
58 92 118
57 90 111
57 90 100
57 91 111
57 90 117
56 88 107
57 91 107
59 93 128
54 87 103
58 92 114
57 91 120
59 94 120
59 93 128
59 93 125
57 89 114
58 92 117
57 90 108
58 92 115
58 92 114
58 92 122
59 93 120
58 92 118
58 91 122
58 91 122
59 93 126
60 94 125
58 91 125
57 91 107
59 93 121
60 94 131
58 93 130
58 92 121
57 90 114
59 93 118
60 94 126
59 94 129
59 93 131
59 94 128
59 93 128
58 92 123
57 90 120
57 91 113
58 92 118
60 94 133
58 92 117
59 92 128
59 93 121
60 94 125
59 93 115
61 95 139
59 93 133
58 92 126
60 94 129
58 91 118
58 92 121
58 93 126
57 91 113
59 93 114
60 94 131
59 93 126
60 94 126
58 92 117
59 93 121
60 94 129
60 94 129
58 92 118
57 91 111
59 93 120
58 92 115
59 93 128
58 92 113
58 92 121
60 94 135
58 92 128
60 94 130
59 93 124
57 90 114
57 90 108
60 94 128
59 93 118
58 91 120
58 92 124
58 91 118
58 91 117
59 93 124
57 91 111
58 92 110
57 90 117
58 91 115
58 91 110
57 90 100
58 91 114
58 92 118
58 91 105
56 89 115
56 89 102
55 87 102
58 92 117
55 87 105
55 88 92
59 87 103
103 122 51
115 130 0
124 140 0
113 130 0
106 121 0
126 140 0
114 130 0
127 144 0
113 128 0
118 135 0
126 142 0
120 137 0
128 145 0
118 134 0
117 133 0
116 130 0
123 140 0
120 136 0
123 140 0
119 135 0
134 155 0
138 155 0
135 152 0
125 143 0
145 162 0
133 150 0
130 146 0
131 148 0
123 139 0
136 154 0
138 155 0
151 167 0
133 150 0
135 154 0
141 160 0
143 162 0
149 168 0
142 160 0
144 164 0
139 156 0
140 158 0
145 166 0
142 158 0
141 160 0
139 159 0
140 158 0
145 162 0
141 158 0
148 166 0
141 159 0
147 166 0
149 168 0
141 158 0
146 165 0
143 162 0
154 173 0
148 168 0
152 169 0
140 157 0
157 176 0
149 166 0
148 167 0
144 162 0
151 169 0
146 164 0
149 167 0
151 170 0
145 162 0
145 163 0
155 174 0
159 178 0
160 176 0
156 175 0
153 171 0
156 176 0
153 173 0
157 176 0
154 174 0
153 172 0
155 174 0
153 171 0
162 181 0
158 178 0
159 178 0
156 177 0
156 176 0
159 179 0
158 178 0
157 177 0
151 171 0
155 175 0
154 174 0
163 183 0
163 182 0
159 176 0
162 181 0
155 175 0
156 175 0
157 176 0
155 175 0
160 181 0
155 173 0
156 177 0
165 184 0
163 180 0
160 178 0
163 183 0
168 186 0
160 181 0
162 180 0
157 178 0
159 179 0
157 176 0
155 176 0
167 189 0
164 182 0
158 177 0
165 184 0
163 182 0
165 185 0
164 183 0
166 186 0
159 178 0
162 183 0
167 185 0
162 182 0
164 186 0
160 180 0
163 183 0
162 183 0
163 183 0
167 187 0
165 186 0
170 189 0
165 186 0
166 186 0
167 188 0
169 190 0
163 185 0
165 187 0
165 188 0
167 188 0
167 190 0
172 195 102
176 199 111
176 199 105
178 201 120
174 197 102
173 197 99
170 194 102
173 197 95
173 196 95
169 193 67
176 199 102
173 196 95
172 195 92
172 195 95
176 199 102
173 196 122
170 193 72
171 193 102
173 196 92
171 195 92
169 192 99
169 193 95
171 194 111
167 191 92
171 195 84
173 196 95
176 200 111
170 194 102
171 195 105
172 195 84
167 190 95
173 197 114
175 199 120
172 194 92
168 191 102
170 192 95
170 194 84
168 191 99
167 191 72
173 196 102
172 196 102
168 192 88
171 195 108
171 195 120
168 192 92
171 194 92
170 193 76
168 191 92
170 194 99
167 191 99
170 193 114
166 189 88
164 188 72
170 194 111
167 190 103
167 190 88
165 189 84
166 189 92
163 186 80
164 188 102
171 195 124
165 188 92
172 195 97
168 191 95
167 190 99
167 191 114
155 177 82
165 189 105
165 187 92
162 185 99
170 193 102
164 187 88
165 188 95
166 189 90
173 195 108
168 190 99
164 187 102
160 182 76
158 181 92
167 189 102
163 186 84
162 183 88
160 182 99
161 182 99
162 183 80
166 188 108
160 181 92
156 178 88
163 183 117
156 178 102
161 181 99
161 183 102
162 184 108
161 183 99
154 176 88
159 181 95
168 189 130
156 178 92
158 179 80
160 181 95
153 175 92
156 177 88
155 176 114
159 180 102
157 178 99
149 169 102
159 180 102
149 169 105
162 183 114
157 178 92
155 175 84
145 166 67
145 164 88
152 172 84
136 156 72
142 163 67
147 167 80
150 170 76
140 159 76
142 162 72
132 152 44
132 151 76
140 158 88
119 137 25
137 155 76
126 145 76
98 121 80
103 126 111
104 127 113
105 128 115
98 122 94
87 113 83
95 121 94
101 125 90
96 122 94
100 126 99
89 115 99
101 127 102
95 122 113
96 122 90
95 122 102
94 119 113
60 94 124
59 93 140
61 96 137
60 95 131
59 93 125
59 94 136
57 90 118
57 90 115
57 90 113
58 93 126
62 94 114
59 92 110
55 88 99
56 88 112
58 91 113
58 92 115
57 90 102
56 89 102
57 91 119
59 93 122
59 93 114
56 89 107
55 88 110
55 88 103
58 91 119
59 93 115
58 91 113
59 93 124
58 91 113
58 92 125
58 91 117
59 93 115
59 93 122
59 92 128
59 93 117
58 92 113
58 91 122
57 90 125
59 94 130
59 93 126
58 92 125
57 90 111
59 93 124
59 93 124
58 92 122
59 93 118
59 94 121
56 89 115
59 93 131
59 93 117
59 93 121
61 95 128
56 89 113
58 91 114
58 92 121
59 93 125
59 93 121
59 93 122
57 91 113
59 92 120
59 94 129
57 90 108
57 90 115
59 93 120
58 92 114
57 90 117
60 94 125
58 92 113
58 91 122
58 92 113
60 94 129
59 92 124
58 92 113
58 93 125
59 93 122
60 95 130
58 92 125
58 92 122
59 92 115
57 91 113
58 91 122
58 91 108
59 93 117
58 92 120
59 94 133
59 93 121
58 92 111
57 91 107
59 93 122
57 91 115
58 92 111
57 91 117
60 95 126
58 92 120
58 91 120
59 93 124
58 92 115
57 91 111
58 92 128
56 90 111
57 90 113
57 90 110
59 93 120
56 89 100
57 91 103
58 92 113
58 91 100
57 90 107
55 88 99
57 91 103
56 88 100
55 87 103
57 91 111
71 98 97
122 138 25
106 120 0
115 131 0
116 131 0
123 139 0
110 125 0
126 141 0
107 123 0
119 135 0
123 139 0
124 139 0
120 136 0
126 144 0
121 138 0
129 145 0
116 134 0
115 132 0
125 142 0
127 145 0
123 139 0
122 139 0
130 147 0
127 146 0
143 161 0
134 152 0
132 149 0
132 150 0
132 149 0
131 148 0
138 156 0
139 158 0
139 156 0
131 149 0
135 154 0
142 161 0
137 156 0
138 157 0
140 158 0
145 164 0
135 153 0
140 160 0
147 166 0
147 166 0
139 158 0
145 163 0
139 159 0
147 165 0
143 161 0
145 164 0
149 168 0
143 162 0
153 170 0
139 158 0
146 165 0
140 159 0
146 165 0
136 154 0
151 170 0
151 171 0
153 173 0
150 169 0
148 166 0
152 171 0
142 162 0
154 174 0
153 172 0
147 164 0
149 166 0
146 166 0
153 174 0
152 169 0
163 183 0
151 170 0
151 170 0
159 178 0
150 168 0
153 174 0
153 174 0
156 177 0
151 169 0
159 178 0
154 173 0
155 173 0
162 182 0
156 174 0
159 179 0
153 173 0
152 172 0
161 180 0
155 176 0
158 177 0
161 181 0
154 173 0
152 171 0
159 178 0
156 176 0
158 177 0
153 172 0
156 176 0
159 179 0
156 174 0
160 178 0
160 178 0
166 185 0
154 172 0
159 176 0
163 182 0
157 176 0
157 175 0
160 180 0
164 184 0
165 187 0
163 184 0
163 183 0
166 188 0
155 175 0
163 184 0
159 179 0
162 181 0
155 175 0
165 185 0
169 190 0
165 185 0
160 183 0
163 183 0
160 180 0
161 181 0
162 183 0
165 186 0
167 186 0
161 183 0
161 182 0
161 181 0
164 184 0
160 179 0
167 187 0
163 185 0
167 187 0
168 189 0
165 186 0
167 188 0
165 185 0
166 187 0
164 185 0
175 198 111
175 197 102
172 197 92
175 198 99
174 196 99
172 195 84
174 197 99
178 201 125
174 197 80
170 194 84
175 198 95
173 196 102
173 196 80
168 191 114
178 200 95
169 193 102
174 198 95
172 196 88
172 195 111
172 196 95
177 200 120
172 195 99
167 190 105
170 194 84
169 192 92
171 194 80
175 198 84
175 199 105
168 192 95
173 196 102
167 190 99
176 199 117
165 188 62
172 195 80
171 194 72
173 197 105
172 195 117
162 185 67
166 190 105
169 192 84
167 191 95
170 194 111
170 194 95
166 188 84
170 193 105
171 194 95
163 187 105
163 187 95
170 194 105
169 193 105
169 191 114
171 195 102
160 184 72
167 191 80
173 196 117
161 185 80
167 191 72
166 189 100
164 188 76
172 195 95
164 187 72
170 193 99
170 194 102
166 190 99
164 187 84
171 194 117
168 191 94
165 188 84
160 184 107
165 187 76
163 187 90
162 185 74
160 183 100
169 192 88
162 184 76
165 188 92
163 186 105
166 189 92
159 181 84
162 184 99
161 183 84
155 177 99
163 185 84
162 186 99
160 182 105
164 187 92
163 186 92
165 187 114
161 183 99
159 181 84
162 184 120
158 180 84
162 183 111
158 179 92
160 181 95
154 177 80
163 185 108
158 180 92
160 182 108
153 174 88
167 188 105
154 176 88
153 173 102
153 173 95
157 179 88
153 174 88
162 182 108
158 179 102
146 167 95
147 167 99
146 166 84
150 171 62
152 172 92
148 169 72
145 165 76
136 155 51
140 159 72
133 153 44
142 161 88
136 155 72
132 151 76
133 154 51
133 152 57
127 145 67
142 161 80
132 149 72
124 143 74
82 107 102
87 113 94
93 117 95
97 121 99
106 130 92
87 113 99
92 118 84
100 124 83
96 121 88
92 118 103
99 125 97
100 125 92
91 116 93
88 114 100
92 119 111
63 96 121
60 95 135
60 95 126
59 93 128
59 94 134
59 93 123
60 94 126
58 92 125
59 93 124
57 91 114
59 92 108
59 91 102
55 88 105
57 90 107
57 91 111
56 89 103
56 89 103
57 90 107
56 89 110
57 90 107
56 90 99
57 90 122
57 90 114
58 92 124
56 89 98
58 91 115
55 88 89
56 89 106
57 91 107
57 91 120
58 92 118
59 93 133
57 90 110
58 92 120
59 93 126
59 93 111
57 91 115
58 92 115
57 91 114
58 92 117
57 90 120
60 94 131
58 91 119
59 93 127
57 91 110
58 93 121
59 92 120
57 91 110
57 90 120
57 91 108
60 94 124
59 93 118
58 91 124
59 93 124
60 95 136
57 91 124
60 95 133
58 91 107
59 93 121
59 93 118
58 92 124
59 92 122
59 93 124
59 93 122
58 92 120
59 93 117
58 92 125
57 90 111
59 93 117
59 93 120
59 93 126
57 91 117
59 93 124
57 90 117
60 94 120
58 92 110
59 93 129
59 93 122
60 95 133
59 93 128
57 91 108
58 92 122
59 93 129
60 94 124
61 95 134
60 94 130
57 91 111
59 92 117
57 90 105
57 90 100
57 91 105
58 91 107
58 92 120
56 89 114
57 90 113
59 93 126
58 92 121
58 93 115
59 93 130
57 90 108
56 89 107
58 91 114
56 89 99
58 92 117
56 88 102
58 91 114
59 93 107
57 89 115
57 90 110
54 85 99
54 85 97
55 88 99
83 103 72
120 137 0
107 123 0
121 138 0
114 131 0
117 131 0
106 123 0
117 133 0
118 136 0
133 149 0
120 137 0
115 131 0
130 148 0
124 141 0
131 148 0
114 131 0
118 134 0
133 150 0
134 153 0
126 143 0
126 142 0
128 145 0
129 147 0
132 149 0
134 153 0
122 139 0
135 152 0
135 151 0
126 143 0
127 145 0
140 157 0
138 156 0
137 155 0
135 152 0
141 158 0
137 156 0
136 153 0
137 155 0
141 160 0
139 158 0
140 158 0
149 165 0
145 164 0
141 159 0
141 161 0
138 157 0
141 159 0
146 165 0
138 155 0
154 173 0
147 165 0
138 154 0
138 157 0
146 165 0
141 159 0
137 156 0
140 160 0
144 163 0
148 168 0
151 168 0
150 168 0
144 162 0
159 179 0
149 168 0
149 165 0
160 180 0
149 170 0
151 170 0
155 173 0
158 178 0
151 170 0
150 169 0
152 171 0
155 175 0
158 178 0
154 172 0
147 167 0
145 163 0
154 171 0
159 179 0
157 179 0
157 178 0
154 172 0
153 169 0
152 171 0
157 175 0
156 175 0
153 174 0
153 173 0
153 173 0
159 179 0
156 176 0
154 174 0
157 176 0
152 172 0
162 183 0
163 185 0
156 176 0
151 171 0
154 173 0
162 180 0
160 180 0
164 185 0
151 171 0
158 178 0
157 176 0
166 187 0
158 179 0
161 179 0
164 185 0
156 175 0
166 185 0
156 175 0
162 182 0
160 179 0
156 178 0
161 180 0
162 182 0
156 174 0
165 183 0
163 182 0
160 180 0
160 180 0
165 183 0
157 177 0
163 185 0
166 185 0
161 181 0
161 181 0
160 182 0
155 174 0
163 184 0
167 187 0
167 188 0
165 186 0
163 184 0
166 187 0
166 184 0
165 185 0
167 188 0
161 182 0
163 184 0
166 188 0
166 186 0
170 192 0
166 186 0
172 196 84
174 197 102
176 199 105
174 198 92
174 198 99
165 189 99
174 197 108
167 190 72
176 199 99
174 197 95
176 199 99
169 193 88
172 195 108
166 190 92
171 195 99
168 191 67
175 198 114
175 198 102
169 191 72
177 200 111
171 195 84
169 191 80
173 196 105
176 199 105
173 196 99
169 194 72
171 195 84
172 195 108
171 195 102
169 192 102
174 197 95
170 194 92
168 192 95
164 188 67
169 193 92
170 193 92
173 197 92
168 192 102
170 193 105
171 195 105
174 197 105
170 193 92
164 188 76
172 195 99
165 189 102
167 190 102
167 190 99
164 187 102
169 193 76
169 192 102
155 177 95
167 190 76
170 193 92
166 189 99
169 192 99
166 189 108
168 191 80
165 187 107
172 195 113
163 186 88
165 188 72
170 193 95
170 193 111
169 193 114
162 186 115
168 191 102
168 191 95
166 189 84
162 185 84
167 190 120
163 186 80
160 182 88
163 186 88
157 181 114
165 188 114
162 185 97
163 186 100
163 186 88
161 183 92
167 190 99
165 187 102
161 183 108
159 182 95
164 186 108
155 179 80
159 181 105
162 184 108
164 186 99
164 186 92
159 181 76
166 188 80
158 180 88
161 182 88
157 178 105
165 186 111
156 177 76
152 173 76
151 173 84
158 179 88
149 171 84
159 180 95
153 174 72
157 177 84
158 179 105
152 173 95
158 179 80
164 184 117
148 168 92
148 168 95
155 174 105
153 173 105
149 170 76
144 165 62
146 166 84
150 170 105
147 167 92
148 169 72
136 155 44
145 164 80
147 166 62
140 160 72
143 162 76
140 159 62
134 154 62
138 156 57
147 165 102
138 157 72
115 134 88
88 111 92
101 125 118
90 117 94
85 113 103
92 118 89
103 127 84
104 128 90
88 114 84
88 115 90
110 135 95
99 123 82
103 129 102
95 120 85
93 118 95
70 102 127
60 95 130
59 94 133
60 95 133
59 93 123
59 93 124
57 90 110
58 91 108
56 89 114
57 90 108
59 93 122
56 89 106
57 90 110
57 90 108
55 88 101
57 90 103
58 91 117
56 88 110
55 88 100
58 91 111
58 91 111
56 88 100
58 91 123
58 91 115
58 91 123
56 89 103
56 89 124
56 90 107
56 89 97
57 90 113
57 90 120
57 91 108
57 91 114
57 91 120
58 92 111
57 90 114
57 91 102
59 93 121
58 93 118
57 90 112
59 92 120
58 92 118
58 92 121
59 93 120
57 91 115
57 91 114
60 94 126
58 91 120
60 93 122
57 91 113
58 92 121
58 92 113
58 91 120
57 91 120
58 93 120
58 91 120
59 94 122
59 94 134
57 90 107
57 90 117
58 92 125
59 93 122
59 92 121
58 92 117
58 91 121
58 92 120
60 95 126
58 92 117
58 91 108
59 94 120
59 93 127
58 93 120
59 92 115
58 92 114
57 90 108
59 93 126
59 93 111
58 92 114
59 94 118
58 91 120
57 91 107
57 91 108
58 92 114
59 93 125
57 90 115
57 90 111
59 93 122
57 90 129
57 91 113
59 93 128
58 91 110
60 94 122
60 94 133
57 90 107
59 93 120
57 91 110
57 91 108
57 90 115
58 91 110
58 91 113
58 91 111
57 91 118
58 92 113
56 88 105
55 87 108
56 89 108
56 89 103
56 89 94
56 88 103
56 88 97
58 88 86
99 118 47
114 130 0
107 123 0
119 134 0
120 135 0
109 124 0
115 131 0
118 134 0
115 129 0
115 133 0
127 143 0
118 136 0
111 126 0
131 147 0
129 148 0
121 138 0
119 137 0
121 139 0
131 149 0
132 151 0
132 149 0
122 138 0
137 155 0
137 155 0
132 150 0
136 155 0
135 153 0
126 142 0
129 147 0
118 134 0
127 144 0
140 157 0
134 153 0
135 154 0
133 151 0
137 157 0
139 156 0
143 161 0
136 155 0
134 151 0
142 160 0
146 167 0
138 158 0
135 153 0
143 162 0
151 171 0
135 153 0
141 161 0
146 166 0
150 169 0
145 165 0
146 164 0
140 156 0
146 165 0
143 161 0
151 169 0
148 168 0
148 166 0
148 167 0
142 160 0
148 167 0
153 172 0
150 170 0
147 166 0
150 170 0
149 167 0
152 171 0
152 171 0
149 170 0
154 176 0
152 171 0
142 158 0
151 170 0
149 169 0
148 165 0
148 170 0
148 166 0
150 171 0
146 164 0
153 173 0
152 171 0
152 171 0
152 172 0
159 179 0
159 178 0
151 170 0
154 174 0
150 172 0
164 184 0
162 181 0
155 175 0
158 177 0
156 176 0
160 182 0
155 175 0
157 177 0
159 180 0
157 176 0
161 181 0
157 178 0
159 179 0
160 180 0
157 176 0
162 182 0
161 182 0
158 177 0
160 181 0
156 176 0
153 174 0
159 178 0
162 182 0
160 180 0
156 174 0
156 176 0
166 185 0
161 181 0
161 181 0
164 185 0
161 181 0
163 183 0
163 184 0
162 182 0
162 182 0
165 186 0
162 181 0
162 181 0
164 184 0
161 179 0
164 186 0
164 185 0
158 177 0
163 182 0
165 186 0
160 180 0
163 184 0
162 180 0
163 182 0
166 188 0
163 183 0
169 190 0
163 182 0
167 187 0
167 190 0
166 187 0
168 191 0
161 183 0
167 188 0
175 198 108
178 200 111
173 198 108
177 201 105
173 196 99
175 199 117
177 199 102
176 199 111
171 195 88
175 198 114
172 195 99
175 199 95
175 199 111
169 193 105
172 196 95
171 195 122
174 197 102
173 197 108
177 200 105
177 200 114
168 192 108
173 196 95
175 198 108
171 194 99
169 193 92
170 192 92
173 197 111
174 199 117
177 201 125
171 194 120
169 193 84
169 193 92
175 198 92
174 198 102
166 189 84
174 198 84
171 195 117
168 192 114
165 188 99
171 195 92
170 193 95
168 191 92
166 190 95
164 187 92
169 192 95
168 192 102
170 194 108
170 193 88
167 191 95
169 192 76
165 189 95
170 194 99
172 196 122
167 191 92
164 188 76
164 186 72
168 191 102
165 189 97
169 193 105
160 184 99
170 193 105
171 194 102
166 189 108
166 190 111
167 191 99
169 192 114
167 190 88
165 188 111
165 189 70
165 189 105
171 194 114
166 188 97
162 183 80
158 181 92
160 182 62
161 183 84
160 182 95
166 189 84
161 184 99
173 196 111
164 186 84
159 181 102
159 181 92
163 185 95
158 180 92
160 183 95
162 184 80
160 181 95
151 172 99
163 184 105
149 170 88
161 182 95
159 179 105
159 180 99
166 188 117
163 185 99
156 177 92
149 171 84
154 176 102
161 182 108
150 170 86
154 175 88
153 174 84
163 183 99
163 184 105
149 170 84
153 172 102
148 168 92
163 183 114
162 182 111
158 178 99
157 175 102
152 172 88
150 170 80
149 169 88
142 161 76
147 168 67
149 168 84
146 166 44
149 170 67
141 161 57
140 158 84
149 168 80
134 152 80
147 164 99
134 153 72
133 151 51
132 149 62
109 131 74
83 109 78
82 109 94
85 110 85
76 103 92
92 118 103
91 117 89
94 120 107
91 116 84
87 114 103
103 127 95
98 123 96
95 120 107
96 122 94
71 103 130
58 91 126
57 90 111
58 92 116
59 93 125
58 92 118
58 91 120
56 89 110
57 91 113
58 91 113
66 96 105
59 90 95
54 86 97
56 89 95
56 88 112
57 90 109
57 90 100
55 87 107
55 87 110
57 90 113
56 89 104
57 90 111
55 88 98
56 89 103
56 89 102
57 89 110
57 90 108
57 91 103
58 92 118
57 90 111
57 90 114
56 89 114
57 90 114
58 92 113
57 90 103
57 91 112
58 92 121
57 90 122
57 90 105
58 92 118
59 93 121
56 89 103
58 91 114
58 92 122
59 93 125
58 91 120
58 92 120
57 90 111
58 91 114
58 92 120
59 93 123
59 93 122
59 93 121
60 95 128
59 93 114
59 93 125
58 91 118
60 94 124
58 92 114
58 92 113
58 91 117
57 92 110
58 92 128
57 91 110
59 93 125
58 92 121
57 91 114
59 92 120
57 91 108
58 91 110
58 92 120
57 91 115
58 92 118
60 93 131
58 91 113
58 92 128
57 91 113
58 92 115
57 91 117
58 92 118
57 91 113
59 94 122
59 93 110
57 91 114
58 92 114
58 91 113
58 91 108
55 88 97
56 89 114
58 92 113
58 92 117
57 91 118
56 88 97
56 89 105
58 92 115
59 93 115
57 90 105
57 90 107
57 90 107
58 91 115
57 90 111
57 90 107
56 88 108
57 90 111
58 92 113
55 87 94
57 90 108
56 89 113
55 87 108
68 93 84
101 116 25
116 130 0
110 125 0
113 129 0
109 125 0
116 132 0
110 127 0
123 141 0
117 133 0
128 145 0
119 133 0
114 131 0
122 138 0
110 127 0
128 144 0
116 133 0
122 139 0
128 148 0
126 144 0
139 156 0
124 141 0
124 141 0
125 145 0
136 154 0
134 153 0
135 153 0
131 149 0
134 152 0
133 150 0
128 146 0
128 146 0
137 156 0
134 151 0
138 157 0
134 152 0
143 161 0
133 150 0
137 154 0
139 157 0
136 156 0
141 160 0
144 163 0
144 161 0
143 161 0
143 161 0
144 162 0
140 161 0
142 159 0
138 156 0
144 162 0
143 161 0
144 165 0
148 166 0
142 161 0
150 168 0
148 167 0
142 160 0
145 163 0
144 161 0
148 168 0
141 161 0
150 170 0
154 174 0
152 173 0
150 170 0
153 170 0
145 164 0
153 174 0
147 166 0
156 175 0
154 173 0
150 168 0
148 167 0
151 170 0
156 177 0
147 166 0
150 170 0
151 171 0
153 172 0
155 173 0
149 169 0
152 173 0
145 165 0
149 167 0
152 171 0
152 173 0
156 178 0
156 176 0
154 172 0
155 174 0
156 174 0
150 169 0
158 179 0
156 177 0
159 178 0
157 177 0
158 178 0
158 180 0
155 173 0
158 179 0
154 174 0
155 174 0
163 182 0
151 171 0
154 174 0
159 179 0
161 179 0
155 175 0
159 178 0
159 180 0
160 180 0
160 181 0
160 178 0
162 184 0
163 184 0
159 180 0
161 180 0
165 186 0
160 178 0
161 182 0
167 187 0
163 182 0
162 185 0
158 180 0
162 182 0
163 185 0
163 185 0
164 185 0
163 183 0
159 181 0
164 185 0
160 181 0
163 183 0
164 183 0
158 179 0
160 180 0
167 187 0
167 189 0
164 185 0
167 187 0
166 185 0
164 184 0
173 193 0
167 189 0
160 180 0
164 183 0
164 185 0
166 186 0
169 192 67
178 201 105
174 198 95
177 199 102
178 201 114
174 198 92
176 199 88
174 197 95
169 192 95
175 198 108
174 198 95
170 194 92
171 194 84
171 195 99
171 195 111
174 197 95
174 198 99
170 193 88
174 197 92
175 198 108
171 195 108
167 191 99
171 195 72
173 196 92
168 192 57
170 194 92
172 197 102
167 191 76
167 190 76
166 190 84
177 200 117
164 187 72
172 196 99
166 190 76
171 194 95
171 194 72
173 197 114
169 192 67
167 191 99
168 191 95
176 199 92
173 196 95
165 188 88
173 197 95
172 195 95
170 194 92
168 192 76
169 194 105
165 186 84
166 190 88
169 191 80
170 194 128
170 194 105
167 190 108
164 188 99
167 191 86
166 189 99
161 184 108
161 184 80
166 189 111
162 186 92
166 189 105
162 185 105
166 188 84
168 190 114
166 188 80
165 188 80
163 186 82
163 186 102
162 185 111
162 186 92
161 184 92
171 193 102
164 187 105
163 186 92
163 186 108
160 184 97
159 182 84
166 189 88
167 190 108
160 183 92
161 184 76
167 189 111
162 185 99
158 181 72
161 183 105
162 183 105
163 186 84
158 179 84
161 184 99
156 178 108
160 181 108
165 186 95
161 182 92
160 182 95
158 179 95
159 180 99
162 184 105
163 183 105
160 180 111
164 185 108
153 173 117
161 181 114
156 177 102
160 180 99
162 182 111
154 174 105
147 167 80
157 176 117
142 162 88
162 182 122
152 172 84
150 170 80
145 165 72
150 170 80
158 177 88
154 174 72
147 167 44
144 163 76
135 155 62
144 163 80
138 157 67
136 155 67
131 149 67
132 150 72
139 157 72
121 139 36
127 146 36
112 129 67
106 128 82
86 112 84
86 113 105
95 120 84
96 120 108
100 125 91
95 121 84
116 141 91
97 123 95
95 121 98
110 134 92
104 127 74
89 116 105
83 112 115
60 94 135
58 91 124
58 92 124
59 93 120
57 91 120
58 92 115
60 94 121
57 90 117
58 92 124
59 91 103
74 102 80
55 88 99
52 82 86
57 90 111
55 87 97
56 88 103
56 90 99
57 90 105
56 88 107
56 88 111
57 90 105
57 91 114
56 89 108
57 91 107
56 90 108
58 91 107
57 90 114
57 91 103
57 90 114
58 92 118
57 90 114
58 91 110
57 90 119
56 89 112
56 89 109
57 90 118
57 90 107
57 91 105
60 94 129
56 89 108
59 93 117
57 90 115
59 93 120
58 92 124
57 90 108
57 91 114
58 91 115
59 92 124
59 93 110
56 90 111
59 93 128
58 92 108
58 91 117
59 93 130
59 93 121
57 90 107
59 94 120
57 91 121
58 93 115
59 93 124
57 91 113
58 91 115
57 90 115
57 90 115
59 93 115
57 91 117
59 93 115
59 93 121
57 90 100
58 92 113
58 92 122
57 90 118
59 93 124
59 93 122
58 92 110
57 90 111
59 93 113
57 91 103
58 92 121
58 92 113
59 93 124
58 92 121
59 93 121
59 93 113
58 92 125
56 89 97
56 89 90
57 90 113
58 91 121
56 90 103
59 92 117
55 87 100
57 91 114
56 90 105
56 89 108
56 88 100
57 90 117
58 92 121
56 89 113
57 90 113
55 87 95
55 88 86
58 92 111
56 89 121
54 86 92
55 87 92
57 88 88
84 105 57
112 128 0
99 114 0
106 121 0
117 133 0
117 134 0
105 119 0
112 128 0
115 132 0
109 124 0
105 120 0
115 130 0
111 127 0
119 135 0
123 141 0
122 141 0
125 142 0
120 138 0
123 139 0
124 141 0
133 151 0
124 142 0
125 143 0
128 145 0
131 150 0
134 153 0
123 140 0
126 144 0
136 156 0
138 155 0
140 158 0
135 153 0
140 160 0
136 155 0
132 148 0
138 157 0
140 158 0
135 152 0
135 154 0
127 144 0
134 153 0
140 158 0
131 150 0
138 157 0
136 155 0
138 155 0
149 166 0
147 166 0
139 159 0
147 166 0
145 162 0
139 159 0
144 163 0
142 162 0
134 152 0
140 158 0
144 163 0
146 164 0
144 164 0
147 165 0
150 169 0
141 159 0
149 169 0
149 168 0
143 161 0
144 161 0
152 171 0
152 170 0
156 174 0
154 172 0
150 168 0
149 169 0
149 168 0
153 171 0
155 176 0
149 169 0
153 171 0
150 172 0
153 173 0
157 177 0
153 174 0
161 181 0
146 166 0
157 175 0
150 171 0
153 171 0
151 171 0
158 177 0
154 174 0
152 171 0
158 180 0
159 179 0
163 183 0
156 177 0
156 175 0
162 181 0
156 175 0
155 175 0
156 175 0
160 179 0
163 182 0
155 176 0
155 173 0
159 179 0
153 173 0
162 182 0
162 183 0
160 182 0
167 187 0
159 179 0
160 181 0
160 179 0
162 181 0
161 182 0
163 182 0
163 184 0
165 187 0
161 184 0
160 181 0
164 184 0
167 187 0
164 186 0
161 182 0
160 181 0
165 183 0
169 190 0
160 179 0
163 184 0
165 185 0
161 182 0
160 178 0
162 182 0
157 177 0
166 188 0
165 185 0
162 183 0
166 185 0
164 184 0
164 184 0
168 189 0
164 182 0
163 183 0
160 181 0
160 181 0
162 184 0
165 187 0
169 189 0
167 189 0
165 186 0
165 187 0
177 201 114
173 196 102
174 198 117
176 199 105
174 196 114
177 200 111
171 195 108
172 196 88
170 194 92
173 197 95
172 194 102
174 197 88
174 197 111
174 197 102
169 193 84
175 199 88
174 197 92
170 192 102
167 191 76
167 191 88
170 193 84
169 193 84
167 190 92
172 195 84
170 193 88
165 190 67
171 195 72
170 194 102
172 196 120
170 193 99
169 192 111
168 192 99
172 195 95
172 196 105
173 196 102
170 193 92
168 192 88
170 193 99
168 191 92
163 187 72
170 193 84
168 191 76
170 193 88
170 193 84
169 192 95
168 191 80
170 194 102
168 191 102
170 193 102
164 187 102
172 195 105
166 190 95
170 194 92
167 190 95
170 194 99
165 188 80
166 190 105
166 189 92
166 190 92
162 186 97
169 192 120
165 189 102
165 189 92
165 188 95
170 194 102
168 190 88
167 191 102
170 193 117
170 193 80
162 185 100
164 187 107
160 183 90
167 190 92
164 187 105
166 189 95
165 188 100
162 185 103
159 182 70
165 188 88
166 190 92
172 193 111
161 183 114
165 186 80
164 187 102
160 182 80
162 184 102
164 186 99
163 185 95
163 184 99
162 184 102
164 186 114
161 182 108
157 179 114
158 180 88
155 177 84
160 182 111
156 177 99
167 188 111
153 174 88
155 176 84
153 175 84
152 173 80
157 178 80
140 162 57
151 173 76
155 176 111
149 169 80
150 170 92
156 176 111
153 173 99
153 173 92
148 168 76
156 176 111
149 168 84
147 165 84
143 164 51
146 167 67
136 156 67
146 166 67
150 169 76
139 158 76
140 159 67
127 146 72
141 160 67
137 156 62
131 149 72
130 148 51
128 147 51
130 147 57
114 132 18
91 114 47
77 103 82
94 119 105
94 118 84
99 123 88
94 119 99
103 127 94
91 118 100
98 124 82
105 129 94
92 116 82
95 120 86
91 116 108
58 92 120
61 95 135
59 93 133
59 93 125
59 93 117
59 93 121
57 90 103
58 92 117
56 89 113
63 94 93
62 93 105
57 90 104
55 87 99
55 88 103
56 89 108
55 88 99
57 90 105
56 89 108
55 88 94
57 90 111
57 90 108
55 87 107
57 90 100
56 89 110
58 92 111
56 89 101
55 87 94
56 89 113
56 89 120
56 88 103
56 89 112
56 88 103
57 91 97
58 91 118
54 85 90
58 92 118
54 86 103
57 90 111
59 93 130
57 90 108
59 93 124
57 90 111
58 92 118
56 90 108
59 93 112
59 93 114
58 92 120
58 92 113
58 92 121
58 91 118
57 90 107
59 93 124
58 92 110
58 92 122
58 92 117
57 91 113
56 89 105
58 92 118
58 92 117
57 90 110
58 92 121
56 89 107
57 91 117
58 91 115
58 92 115
58 91 120
58 91 115
57 90 114
58 91 117
57 91 110
57 90 111
57 90 117
56 89 113
57 90 113
58 91 117
58 92 115
59 93 129
60 94 130
57 90 113
58 92 107
57 90 110
59 93 121
58 92 114
57 90 110
57 91 113
58 91 118
57 90 114
57 90 110
57 90 110
58 91 113
56 89 110
57 90 107
57 90 111
58 91 114
56 89 102
59 93 118
58 91 110
55 88 114
56 89 111
56 90 100
56 88 105
55 87 107
57 90 118
55 87 100
55 87 102
77 98 76
105 120 18
114 131 0
112 128 0
120 136 0
115 132 0
113 129 0
106 122 0
120 136 0
109 125 0
114 131 0
106 124 0
121 137 0
119 138 0
115 132 0
135 151 0
130 146 0
121 138 0
121 138 0
132 150 0
128 146 0
118 137 0
128 147 0
127 144 0
123 141 0
132 150 0
132 152 0
129 147 0
138 156 0
136 154 0
128 148 0
133 152 0
136 156 0
135 153 0
137 155 0
138 156 0
131 151 0
143 162 0
136 153 0
134 153 0
139 157 0
145 164 0
127 144 0
135 153 0
140 158 0
140 159 0
144 164 0
138 158 0
137 154 0
135 154 0
140 160 0
145 166 0
143 162 0
140 158 0
146 164 0
143 162 0
142 162 0
146 164 0
148 169 0
148 167 0
141 160 0
149 168 0
151 171 0
149 169 0
151 170 0
148 168 0
146 165 0
147 169 0
144 164 0
151 170 0
156 175 0
148 166 0
149 168 0
151 169 0
150 168 0
159 180 0
145 163 0
154 175 0
152 173 0
147 166 0
154 173 0
160 179 0
158 177 0
153 171 0
153 172 0
158 178 0
158 177 0
160 181 0
151 172 0
156 176 0
161 181 0
155 175 0
154 174 0
149 168 0
157 177 0
155 176 0
156 175 0
157 176 0
154 174 0
164 183 0
157 177 0
158 178 0
158 178 0
158 178 0
156 175 0
161 181 0
157 177 0
161 183 0
156 175 0
153 172 0
155 175 0
158 180 0
162 181 0
164 184 0
160 181 0
167 187 0
162 181 0
163 183 0
159 179 0
163 182 0
162 181 0
161 182 0
156 175 0
162 183 0
161 181 0
158 178 0
162 181 0
162 181 0
163 183 0
164 184 0
160 180 0
164 184 0
168 188 0
157 179 0
167 188 0
161 181 0
164 185 0
163 183 0
165 186 0
163 184 0
161 181 0
161 180 0
159 181 0
167 188 0
169 189 0
169 191 0
163 185 0
164 186 0
160 182 0
163 183 0
170 191 0
165 187 0
176 199 125
169 193 99
177 200 117
178 200 108
172 195 88
174 197 111
174 197 102
176 200 120
172 195 88
171 195 84
174 198 99
170 194 99
173 196 80
173 196 95
170 194 88
173 197 108
169 192 95
174 197 105
171 195 95
172 195 114
175 198 117
174 197 99
171 194 80
166 190 111
175 198 99
174 197 102
170 193 84
173 196 111
173 197 108
170 195 92
170 193 88
172 195 84
173 197 92
169 192 76
168 191 95
165 189 108
170 194 99
169 192 95
171 195 105
168 191 92
169 192 99
166 190 108
163 187 99
169 193 99
169 192 92
173 197 120
167 189 99
167 190 105
166 189 92
159 183 51
173 197 130
168 191 92
166 189 99
166 189 99
165 189 111
173 196 120
166 189 95
167 190 76
165 188 88
167 190 92
162 185 72
160 183 84
169 193 106
166 190 88
164 187 88
168 191 114
161 185 72
163 186 80
167 190 95
169 192 114
167 190 72
160 182 111
165 188 108
165 188 80
172 195 105
162 185 99
161 184 76
157 179 95
165 187 99
162 185 95
157 180 76
161 183 114
167 189 108
160 182 88
166 189 62
166 189 105
154 177 62
165 187 92
153 175 80
158 180 92
163 186 102
166 188 99
158 179 102
159 180 76
155 177 99
157 178 99
149 170 92
149 170 88
147 168 80
155 176 76
167 188 99
150 170 95
163 184 102
155 176 99
156 176 99
157 178 84
151 171 88
150 171 95
150 170 80
156 176 102
141 162 84
158 177 105
147 167 80
151 170 108
146 165 76
145 164 67
147 167 67
137 156 72
136 154 67
131 149 57
151 169 95
155 175 102
136 155 67
131 151 36
144 164 76
137 156 51
128 146 62
138 157 57
136 154 67
120 139 25
117 137 51
89 114 76
86 111 93
90 115 80
96 121 78
97 123 90
99 123 78
91 116 88
102 126 88
104 128 92
106 129 88
97 122 97
91 117 95
60 93 118
60 95 124
60 95 142
59 93 124
57 91 109
58 92 128
59 93 121
57 91 117
61 92 102
57 90 113
72 100 78
52 84 60
55 87 103
55 87 90
54 87 97
55 87 85
55 88 105
55 88 102
56 88 97
57 89 110
55 87 111
57 90 107
56 89 105
56 89 97
56 89 97
58 92 122
56 90 107
56 89 102
56 89 111
56 89 124
57 90 100
58 91 110
57 91 108
57 91 108
56 90 110
58 91 118
58 91 107
57 90 105
57 91 115
58 92 114
59 93 118
58 92 115
57 91 108
56 88 107
58 92 110
58 92 118
56 88 103
58 92 120
59 93 113
57 90 111
58 91 115
57 90 107
56 89 100
58 92 118
57 90 110
57 91 108
57 91 115
58 92 114
57 91 105
57 90 105
58 91 115
57 91 115
57 91 113
57 90 111
58 91 113
56 89 110
59 93 118
56 89 105
60 94 125
60 94 128
58 92 110
58 91 105
57 91 114
59 93 121
57 91 120
57 90 110
58 92 120
57 90 105
57 90 113
56 89 111
55 87 100
58 91 114
58 91 115
57 90 105
57 90 111
57 91 117
58 91 105
55 88 107
57 90 97
56 89 110
56 89 107
56 89 107
57 91 100
57 89 110
59 93 125
56 89 105
58 91 107
56 89 105
57 90 103
54 85 90
56 89 99
54 86 86
51 81 86
56 86 84
104 121 36
109 123 0
108 124 0
95 110 0
113 129 0
113 130 0
119 135 0
118 135 0
122 138 0
113 130 0
113 130 0
128 145 0
106 123 0
128 145 0
124 141 0
119 137 0
124 142 0
128 144 0
132 150 0
127 145 0
127 145 0
128 147 0
119 136 0
133 150 0
134 154 0
120 136 0
122 140 0
134 153 0
122 142 0
131 145 0
130 148 0
127 145 0
138 157 0
146 165 0
142 161 0
130 149 0
132 151 0
133 153 0
133 152 0
139 158 0
135 154 0
139 157 0
150 168 0
126 145 0
137 155 0
137 155 0
145 165 0
137 157 0
140 159 0
144 161 0
148 167 0
142 161 0
143 162 0
144 163 0
149 169 0
145 164 0
144 164 0
148 164 0
139 157 0
144 161 0
135 151 0
149 169 0
152 173 0
146 164 0
144 163 0
152 172 0
151 170 0
151 172 0
149 169 0
148 166 0
147 167 0
151 169 0
158 178 0
158 178 0
145 166 0
142 161 0
150 170 0
146 165 0
147 165 0
155 175 0
159 179 0
146 165 0
158 177 0
153 172 0
155 175 0
151 170 0
157 176 0
158 179 0
156 175 0
159 182 0
155 175 0
151 171 0
159 178 0
157 175 0
153 174 0
155 176 0
162 182 0
165 184 0
160 178 0
157 177 0
154 172 0
155 174 0
150 170 0
162 182 0
161 182 0
164 186 0
158 180 0
161 180 0
167 188 0
155 176 0
163 184 0
157 178 0
162 182 0
158 178 0
161 182 0
158 178 0
160 180 0
162 183 0
161 182 0
165 187 0
160 181 0
162 182 0
160 179 0
166 184 0
162 183 0
158 179 0
161 181 0
163 184 0
159 179 0
163 183 0
164 185 0
161 182 0
165 185 0
162 182 0
154 175 0
162 181 0
165 186 0
165 185 0
162 182 0
165 185 0
167 188 0
163 185 0
167 189 0
165 187 0
162 184 0
167 189 0
164 187 0
162 184 0
164 184 0
167 187 0
163 184 0
162 182 0
161 179 0
177 200 102
174 197 76
175 199 108
175 198 80
177 200 105
175 198 95
170 193 111
168 192 84
168 192 88
176 199 99
175 198 92
170 193 84
177 199 102
172 196 92
172 195 105
176 198 92
176 199 102
173 197 95
173 197 117
171 194 95
175 198 102
176 200 114
170 193 76
171 195 105
168 192 80
173 196 114
168 191 84
170 193 84
170 194 108
172 196 105
166 191 95
170 194 92
168 192 92
167 191 67
172 197 99
169 193 88
168 191 92
171 194 99
172 195 105
169 191 72
173 196 95
171 194 99
172 196 95
165 189 99
170 194 88
172 195 92
167 190 114
169 192 80
168 191 99
162 186 95
166 189 80
168 192 99
164 186 92
167 190 95
170 193 102
170 193 102
168 191 88
166 189 108
162 186 95
171 194 113
164 187 92
161 184 95
163 187 99
158 181 94
164 187 95
162 187 114
168 191 99
168 191 113
167 190 80
158 181 57
160 183 88
162 185 84
164 187 95
161 184 97
163 186 102
162 185 99
170 192 114
161 183 90
171 194 122
158 180 84
163 185 114
159 181 95
165 188 95
168 190 88
154 176 88
164 186 95
161 183 102
162 184 92
168 190 88
160 182 84
156 178 76
161 183 92
164 186 99
163 184 102
158 179 105
160 180 92
160 181 72
164 185 105
156 177 95
159 180 80
157 179 80
148 169 92
158 179 80
151 173 99
159 179 108
143 163 76
159 181 84
146 166 108
149 169 80
158 177 105
153 173 108
151 171 88
156 176 105
151 171 99
145 165 67
152 171 88
157 176 95
144 162 84
149 168 80
136 156 67
140 161 72
130 148 76
141 159 67
138 155 84
132 152 57
139 158 62
133 152 57
129 148 36
123 142 36
137 156 36
122 142 0
116 135 44
79 105 84
100 125 88
91 116 80
91 115 82
91 116 74
102 126 75
91 116 86
96 123 94
96 121 84
96 121 84
88 114 111
73 104 117
59 92 121
56 89 97
58 91 120
59 93 126
57 90 105
56 89 110
56 89 108
57 90 118
55 88 96
69 96 92
54 85 86
55 87 86
53 85 80
54 85 90
53 84 94
55 87 88
53 85 95
54 86 95
55 87 103
55 88 94
56 89 107
57 89 97
54 86 99
56 89 99
58 91 117
55 87 107
57 90 110
55 88 99
57 91 103
58 91 114
58 91 113
56 89 101
57 90 108
57 91 104
56 89 97
55 87 100
58 91 107
57 90 110
59 93 120
58 92 117
58 91 108
57 91 108
57 90 110
56 90 110
57 91 113
55 88 110
58 91 110
54 87 105
56 89 105
60 94 126
57 91 117
57 90 115
57 90 109
57 90 110
57 90 108
56 89 103
58 91 111
57 90 114
56 90 102
58 92 118
57 90 114
58 92 110
57 91 108
57 91 111
59 93 125
56 89 105
59 92 125
56 88 102
57 90 111
58 91 113
58 91 105
59 93 115
56 89 108
58 91 111
56 90 107
59 92 117
56 90 110
58 92 114
58 92 113
56 89 108
56 88 118
57 90 102
58 91 114
55 87 97
58 92 114
56 89 94
58 91 118
56 89 103
55 88 103
55 87 100
55 88 95
56 88 102
55 87 97
56 88 113
56 89 111
55 87 103
56 89 103
55 87 105
55 86 100
54 85 95
55 86 76
76 97 65
111 127 25
96 109 0
119 134 0
111 127 0
108 124 0
114 130 0
112 127 0
113 131 0
105 121 0
107 123 0
125 142 0
107 125 0
108 124 0
125 144 0
137 154 0
116 135 0
118 134 0
126 143 0
128 145 0
126 143 0
122 141 0
134 153 0
127 146 0
129 148 0
126 143 0
131 149 0
130 147 0
134 153 0
134 151 0
140 158 0
129 147 0
132 149 0
123 141 0
132 150 0
123 141 0
131 148 0
142 158 0
141 159 0
135 154 0
138 157 0
127 147 0
132 150 0
142 162 0
137 153 0
141 161 0
139 156 0
138 156 0
143 160 0
144 162 0
138 157 0
145 162 0
144 162 0
150 170 0
138 157 0
142 162 0
140 160 0
146 167 0
150 169 0
148 168 0
147 168 0
147 168 0
146 164 0
149 168 0
154 173 0
144 161 0
151 172 0
146 165 0
146 163 0
149 169 0
149 171 0
149 168 0
151 170 0
147 166 0
150 171 0
155 174 0
154 172 0
155 176 0
152 172 0
144 163 0
147 164 0
151 170 0
149 169 0
155 175 0
158 176 0
148 166 0
147 166 0
158 178 0
161 182 0
154 175 0
153 173 0
149 170 0
147 166 0
155 177 0
158 179 0
150 170 0
156 174 0
161 183 0
161 183 0
157 179 0
158 178 0
161 182 0
155 174 0
159 180 0
159 179 0
161 181 0
162 181 0
165 186 0
159 178 0
159 179 0
162 182 0
160 179 0
161 181 0
156 175 0
156 177 0
165 185 0
163 184 0
163 181 0
161 181 0
161 182 0
165 186 0
161 183 0
167 190 0
166 187 0
164 184 0
160 180 0
164 186 0
167 187 0
161 181 0
162 183 0
164 186 0
166 186 0
161 180 0
162 182 0
160 180 0
166 187 0
158 178 0
164 185 0
163 183 0
163 185 0
163 184 0
163 184 0
167 189 0
162 184 0
167 188 0
164 184 0
162 183 0
167 189 0
166 187 0
168 190 0
165 186 0
165 187 0
165 186 0
165 187 0
167 187 0
173 196 88
174 198 99
177 199 120
169 191 88
172 195 105
172 196 92
175 198 88
179 202 111
170 193 84
171 194 92
174 198 88
173 197 95
175 198 105
170 194 95
173 196 95
172 195 92
173 196 84
171 194 88
170 194 111
170 194 99
171 194 84
171 194 102
176 199 111
167 191 95
168 192 76
167 190 95
170 193 84
167 191 95
172 195 102
172 196 76
170 194 92
170 194 102
166 189 95
168 191 95
169 193 95
172 196 92
169 192 76
167 191 102
164 189 99
170 194 88
170 194 108
167 191 88
170 193 92
170 194 122
170 195 95
172 195 84
166 190 99
169 193 95
170 193 95
166 189 95
161 185 84
165 188 95
166 190 105
163 186 99
162 185 84
165 188 92
164 187 102
163 186 80
165 188 92
167 191 117
166 190 117
161 184 95
162 185 102
166 189 86
162 186 88
169 191 72
165 189 88
158 180 80
163 185 111
161 183 90
171 195 92
163 186 92
165 188 94
173 195 117
168 190 117
155 177 67
167 190 111
161 184 78
155 176 99
161 184 88
163 185 99
162 185 102
160 182 99
161 183 84
168 191 120
159 181 88
159 181 95
166 188 95
160 182 99
155 176 88
162 184 102
162 183 108
152 174 108
164 186 111
161 182 102
166 188 111
157 177 102
160 182 108
159 181 105
158 179 88
158 179 102
157 178 105
158 178 111
166 188 122
149 170 88
154 175 105
153 173 92
154 174 102
151 172 88
149 169 95
158 179 102
153 173 105
152 171 95
150 169 84
162 181 122
146 166 80
144 164 67
146 166 80
142 161 88
141 160 80
135 155 36
134 152 67
139 159 62
136 154 57
136 155 44
133 153 51
128 147 62
137 155 57
122 141 0
128 146 44
129 147 36
117 135 36
108 128 60
98 122 75
94 120 83
96 120 67
91 116 84
100 125 90
102 126 67
92 118 103
101 125 94
105 128 99
111 135 88
80 108 108
63 95 115
56 89 108
58 91 125
58 91 113
57 90 114
55 88 100
58 92 121
59 91 97
54 86 88
74 99 78
105 122 18
70 94 76
53 84 80
54 87 82
55 87 100
55 87 103
55 87 99
55 88 94
57 90 107
52 83 78
54 86 84
55 87 97
55 88 90
57 90 99
56 89 103
56 89 107
55 88 95
56 88 102
55 87 107
55 87 82
57 89 108
56 89 99
57 89 114
55 88 110
58 91 108
55 87 88
58 91 110
56 89 102
58 91 108
57 91 114
55 87 95
55 88 99
57 90 105
57 90 113
56 89 102
58 91 119
57 90 102
56 90 111
54 87 100
57 90 113
60 94 120
58 92 111
57 90 103
57 90 117
56 89 105
59 92 113
57 91 113
55 88 92
57 90 105
57 90 105
58 92 117
58 92 113
56 89 102
57 90 108
57 91 115
57 90 111
57 90 97
58 92 117
56 89 100
56 90 100
57 90 111
58 91 110
56 89 103
56 90 107
57 90 111
54 87 107
57 90 108
56 88 108
56 89 111
55 87 92
57 90 103
56 90 103
58 91 115
57 90 105
57 90 99
57 90 110
55 88 100
56 88 88
55 87 100
56 89 111
55 87 95
57 90 113
55 87 95
56 89 102
56 89 94
53 84 90
52 83 90
56 88 99
55 85 86
80 104 67
112 129 31
106 122 0
111 127 0
107 123 0
111 127 0
111 126 0
112 128 0
117 134 0
119 132 0
113 128 0
113 130 0
126 144 0
124 141 0
121 138 0
132 148 0
108 125 0
123 140 0
122 140 0
116 133 0
125 142 0
124 140 0
126 143 0
124 141 0
108 126 0
130 148 0
125 141 0
118 135 0
135 153 0
136 156 0
126 142 0
126 146 0
137 155 0
132 149 0
134 152 0
137 154 0
138 157 0
135 153 0
147 167 0
136 154 0
141 160 0
143 162 0
136 156 0
140 161 0
136 152 0
133 152 0
140 159 0
148 167 0
135 153 0
144 163 0
134 151 0
144 164 0
151 169 0
143 162 0
146 165 0
147 167 0
144 164 0
149 168 0
149 168 0
146 165 0
144 164 0
148 168 0
147 167 0
146 164 0
148 168 0
145 166 0
144 162 0
150 169 0
146 165 0
154 175 0
149 170 0
154 175 0
147 166 0
145 164 0
155 176 0
146 164 0
151 171 0
153 172 0
153 173 0
150 170 0
155 177 0
152 171 0
150 171 0
150 171 0
154 172 0
156 176 0
156 175 0
157 177 0
146 167 0
151 173 0
152 173 0
157 177 0
153 174 0
153 173 0
150 168 0
154 173 0
156 176 0
152 171 0
155 176 0
155 176 0
163 184 0
151 169 0
155 175 0
157 177 0
157 180 0
154 174 0
153 171 0
158 178 0
159 179 0
165 186 0
158 178 0
156 177 0
159 179 0
158 178 0
156 176 0
157 178 0
159 180 0
162 184 0
159 180 0
164 184 0
163 185 0
158 179 0
164 186 0
165 186 0
157 178 0
153 172 0
159 180 0
165 187 0
161 181 0
159 179 0
161 182 0
165 186 0
159 181 0
167 189 0
159 181 0
166 186 0
163 184 0
165 186 0
161 181 0
165 187 0
161 182 0
163 184 0
163 183 0
167 190 0
166 186 0
157 178 0
167 188 0
166 187 0
162 183 0
166 187 0
169 189 0
163 183 0
166 187 0
161 181 0
166 186 0
162 183 0
161 183 0
177 200 108
174 198 95
174 197 99
174 197 117
175 198 108
173 196 99
172 196 105
179 202 114
172 195 84
172 195 92
174 198 80
173 196 84
176 199 117
171 195 105
175 198 105
172 195 88
171 194 92
175 198 92
173 197 114
172 195 80
172 195 102
172 195 88
169 192 76
173 196 117
175 200 99
168 192 105
173 197 117
172 195 80
174 198 95
172 195 105
168 191 99
170 193 72
171 194 92
173 197 120
171 194 102
171 194 88
168 192 95
171 195 108
171 195 102
163 187 99
171 195 102
167 191 99
168 191 88
166 190 88
170 193 92
171 194 84
164 187 95
168 193 99
169 192 72
162 186 76
168 192 114
170 194 105
172 195 102
166 190 99
165 189 92
166 189 120
165 188 92
168 191 95
163 186 80
166 189 92
167 191 102
165 189 84
168 192 113
167 191 95
160 183 84
170 194 111
158 182 88
163 186 97
165 189 99
162 184 76
161 184 92
166 189 103
164 187 105
168 190 95
159 182 84
166 189 95
170 193 111
161 183 97
165 187 92
163 185 80
164 187 92
161 184 95
161 183 102
162 185 80
155 177 84
163 185 88
162 185 88
164 186 102
154 176 84
159 180 99
162 185 108
160 182 76
154 176 76
161 183 99
166 187 125
160 182 88
160 181 102
150 171 88
161 182 95
162 183 108
161 181 108
150 171 88
159 180 99
151 173 62
158 178 99
150 170 84
153 173 102
161 181 117
154 174 117
142 162 76
154 174 105
150 170 99
155 174 102
155 174 99
149 168 99
139 158 76
156 176 92
154 173 102
143 163 72
149 169 72
130 150 51
149 167 84
149 169 62
129 149 36
137 155 51
139 156 67
138 156 62
124 143 25
121 140 25
120 138 25
115 134 0
113 130 0
115 132 25
100 119 60
92 118 74
107 129 67
98 121 67
102 126 76
87 114 92
106 130 84
84 110 83
112 134 88
101 125 92
71 100 108
74 103 113
58 92 118
57 90 108
56 89 105
58 91 113
58 91 108
57 90 97
58 89 105
55 87 105
77 102 88
104 121 0
110 127 0
94 112 18
77 100 78
56 87 90
56 88 92
56 89 97
55 87 103
53 85 90
53 85 94
53 84 78
55 86 94
54 87 88
55 87 100
55 87 100
54 87 88
56 89 100
57 91 112
56 88 103
55 88 89
56 90 103
54 86 95
58 91 111
55 87 103
56 89 108
56 88 110
57 90 110
57 90 102
56 90 96
56 88 102
55 88 100
58 92 111
57 90 110
56 89 100
57 90 103
58 91 115
56 89 103
57 90 108
56 88 100
57 90 111
56 88 103
57 90 113
57 90 128
55 87 105
57 90 99
58 91 114
58 92 113
55 87 97
57 90 108
57 90 111
56 88 103
56 89 103
58 91 117
57 91 115
58 91 107
57 90 111
57 90 100
55 88 95
56 89 99
56 89 102
57 91 113
56 89 105
57 90 108
57 91 114
56 89 102
58 91 110
57 90 114
56 89 102
56 89 95
54 87 86
56 88 100
57 90 114
58 91 117
56 88 111
56 88 105
55 87 99
53 85 97
56 89 97
54 86 74
57 90 103
56 90 102
56 89 100
54 86 86
54 87 95
54 86 90
53 84 78
55 87 95
73 96 72
102 119 44
98 113 0
99 114 0
101 117 0
107 122 0
95 111 0
115 130 0
106 122 0
114 130 0
112 129 0
108 124 0
110 126 0
117 133 0
123 141 0
112 130 0
118 136 0
112 128 0
98 114 0
125 141 0
120 137 0
121 138 0
115 133 0
124 142 0
118 135 0
116 134 0
118 135 0
130 149 0
118 136 0
131 148 0
124 140 0
133 152 0
137 154 0
135 152 0
124 142 0
131 149 0
125 143 0
128 146 0
126 146 0
133 151 0
140 160 0
137 156 0
130 148 0
141 159 0
131 149 0
134 151 0
137 155 0
137 155 0
135 154 0
139 158 0
145 165 0
148 166 0
135 154 0
139 158 0
134 152 0
139 159 0
135 153 0
135 155 0
142 162 0
142 162 0
146 163 0
145 165 0
144 161 0
152 173 0
150 170 0
150 170 0
143 164 0
146 165 0
149 168 0
140 161 0
147 166 0
152 173 0
143 165 0
151 171 0
149 168 0
149 169 0
155 175 0
149 169 0
149 168 0
156 176 0
155 176 0
152 173 0
145 165 0
153 171 0
155 175 0
152 171 0
157 179 0
143 161 0
156 177 0
153 172 0
149 169 0
155 176 0
153 172 0
153 171 0
152 172 0
153 174 0
152 171 0
157 178 0
156 176 0
152 172 0
149 168 0
159 179 0
156 177 0
159 180 0
160 180 0
157 177 0
154 175 0
160 180 0
155 175 0
155 176 0
155 175 0
158 177 0
165 186 0
154 175 0
159 179 0
161 181 0
161 183 0
164 184 0
162 183 0
165 183 0
163 185 0
157 177 0
158 179 0
163 183 0
159 180 0
162 182 0
164 185 0
159 181 0
161 180 0
165 185 0
162 183 0
166 187 0
161 183 0
162 184 0
162 183 0
161 181 0
162 182 0
167 188 0
163 183 0
167 188 0
166 187 0
161 181 0
161 181 0
167 186 0
167 186 0
166 188 0
165 186 0
166 185 0
164 185 0
164 183 0
164 185 0
163 185 0
165 186 0
167 189 0
167 188 0
160 180 0
162 182 0
162 182 0
167 188 0
173 197 99
177 200 99
176 199 84
173 196 67
172 196 99
172 196 99
173 197 88
171 194 92
172 195 105
173 196 88
176 199 117
172 195 99
172 195 105
170 194 84
172 194 99
173 197 111
175 197 99
172 195 99
170 194 80
167 190 84
169 192 95
175 197 105
171 195 102
172 195 95
172 196 102
168 192 99
168 192 111
168 191 67
166 190 117
168 192 84
170 194 72
165 189 105
172 195 80
170 194 92
171 195 84
165 187 99
172 195 120
169 192 92
168 191 92
163 186 80
167 191 99
173 196 102
167 191 99
165 189 99
170 194 102
170 193 99
167 190 99
165 188 62
167 191 76
165 189 88
166 189 99
169 193 76
170 192 80
165 188 88
165 188 80
162 186 84
166 189 99
161 184 95
161 184 84
167 190 94
165 189 102
159 182 99
165 188 74
168 190 108
165 186 84
163 186 88
162 184 73
165 189 105
164 187 88
164 186 84
163 186 95
164 187 100
169 192 99
163 186 114
163 186 124
169 193 107
164 186 102
164 187 102
170 192 118
164 187 99
162 184 76
160 182 99
158 181 76
163 185 105
163 185 114
171 193 111
160 181 99
161 183 88
157 179 111
159 181 102
165 186 117
166 188 102
165 187 114
157 179 88
166 187 99
160 181 114
162 183 84
158 179 92
164 186 92
151 173 67
158 181 102
164 185 111
156 177 99
157 177 105
154 174 84
156 175 105
154 174 88
161 181 102
159 178 120
152 171 80
151 170 84
151 172 84
156 175 102
150 169 72
151 171 99
154 174 95
146 165 99
129 148 67
162 181 99
140 157 84
147 165 88
137 155 62
129 147 67
140 160 57
139 157 62
130 149 57
145 164 51
127 146 51
124 143 0
124 142 0
119 138 0
124 142 0
123 141 0
128 145 36
94 116 58
104 127 76
92 116 60
89 115 75
98 123 95
105 128 86
111 133 84
104 128 95
95 119 72
81 107 99
68 99 111
66 98 124
55 87 103
58 91 113
59 92 111
56 89 102
57 90 107
60 90 95
56 88 105
78 104 94
121 138 0
106 122 0
102 118 0
110 128 0
104 121 36
85 106 70
50 80 74
55 86 95
53 84 86
53 85 94
56 88 102
54 86 99
56 88 107
57 91 103
56 89 103
55 88 95
54 86 104
55 88 99
55 88 95
57 90 103
55 87 105
57 91 103
55 87 88
55 87 90
57 90 108
57 90 108
57 91 108
57 90 114
55 88 103
56 88 99
57 91 103
55 88 111
58 91 113
55 88 108
54 86 97
56 89 105
57 91 114
58 91 102
55 88 110
57 90 111
57 90 102
58 91 115
58 91 110
54 85 107
57 91 107
57 90 112
54 87 100
57 90 105
57 90 107
55 88 99
56 89 111
55 88 92
57 91 107
56 90 99
57 91 107
58 91 121
58 91 110
56 89 95
56 89 103
55 88 105
56 89 94
55 88 100
57 90 120
56 90 114
55 87 99
57 91 113
57 90 108
55 87 86
54 87 90
56 88 100
56 89 111
56 89 95
54 86 88
58 91 111
56 89 103
55 87 95
55 86 105
55 87 97
55 88 95
53 85 92
53 84 90
53 84 78
54 86 88
54 86 84
56 87 92
78 99 62
94 110 40
98 113 0
103 118 0
112 126 0
108 123 0
106 122 0
105 120 0
111 127 0
107 125 0
107 123 0
111 128 0
111 128 0
113 129 0
118 134 0
108 126 0
116 133 0
127 143 0
112 129 0
124 142 0
104 120 0
113 132 0
128 144 0
114 132 0
127 144 0
125 143 0
114 130 0
125 144 0
125 144 0
139 156 0
116 134 0
131 150 0
134 152 0
131 150 0
129 148 0
122 142 0
135 153 0
130 146 0
133 151 0
128 145 0
148 167 0
151 171 0
140 158 0
131 152 0
140 159 0
131 151 0
136 155 0
138 158 0
137 155 0
141 160 0
136 156 0
141 160 0
146 166 0
140 159 0
142 162 0
149 167 0
140 160 0
138 156 0
142 160 0
152 171 0
137 157 0
143 163 0
145 164 0
147 166 0
146 167 0
152 172 0
131 151 0
143 162 0
150 171 0
152 171 0
154 175 0
148 168 0
154 176 0
153 173 0
147 167 0
151 171 0
151 170 0
152 172 0
151 171 0
152 171 0
156 177 0
158 179 0
148 168 0
156 175 0
154 175 0
151 173 0
152 173 0
150 169 0
145 164 0
154 175 0
154 175 0
152 172 0
158 179 0
151 170 0
156 177 0
155 174 0
155 176 0
156 175 0
145 165 0
152 172 0
155 175 0
153 172 0
157 178 0
155 177 0
157 179 0
153 174 0
160 182 0
150 171 0
159 180 0
158 179 0
155 175 0
157 178 0
159 178 0
161 181 0
162 183 0
156 175 0
156 175 0
162 181 0
167 187 0
160 180 0
158 177 0
160 181 0
158 179 0
159 179 0
160 180 0
163 183 0
163 184 0
163 183 0
164 184 0
165 187 0
162 182 0
160 180 0
159 179 0
163 184 0
162 184 0
160 180 0
161 180 0
161 182 0
166 188 0
163 184 0
160 181 0
164 184 0
165 185 0
159 179 0
161 181 0
167 189 0
161 182 0
167 188 0
162 182 0
162 182 0
164 185 0
160 181 0
163 183 0
163 184 0
167 188 0
158 178 0
167 188 0
163 184 0
168 190 0
167 188 0
165 187 0
172 196 108
173 196 102
172 196 102
174 196 99
177 200 122
171 194 95
174 197 105
174 197 95
174 198 105
169 194 80
174 196 92
163 187 67
167 189 76
173 197 92
174 198 122
174 198 105
170 194 88
171 194 108
172 195 88
174 198 99
172 196 88
169 193 84
164 188 95
168 192 99
170 194 95
170 193 105
170 194 95
170 194 95
171 195 111
173 196 114
171 194 95
171 195 95
169 193 95
168 191 80
170 193 111
167 190 76
171 194 117
170 193 102
173 196 99
172 195 88
168 192 88
171 194 99
168 192 99
165 189 80
169 193 84
168 192 95
170 194 92
161 184 80
168 192 99
170 194 108
171 195 95
161 185 108
169 193 99
166 189 95
160 183 95
166 188 62
166 190 111
160 184 84
169 192 102
172 195 102
164 187 105
164 187 99
167 190 108
166 189 99
170 193 99
169 192 111
169 193 122
161 184 95
162 185 105
162 186 92
161 184 90
169 192 111
162 185 88
162 184 103
160 184 99
155 178 99
167 189 114
163 186 95
161 184 84
167 190 92
161 183 99
168 191 111
162 184 84
171 194 111
160 181 84
167 188 108
157 179 76
160 182 92
165 187 105
160 181 95
157 178 105
164 186 108
160 182 102
161 183 92
168 190 117
159 180 92
162 183 84
168 189 99
152 174 72
153 174 114
162 183 105
153 175 99
151 171 95
152 173 67
158 178 99
163 183 105
162 183 110
164 184 95
145 165 105
149 169 88
149 170 72
161 181 108
153 171 108
148 167 88
149 170 95
149 169 88
161 180 105
149 170 84
147 166 92
138 158 67
152 170 80
142 161 51
136 155 44
133 152 62
128 148 44
140 160 51
122 138 62
126 144 25
125 145 0
131 150 25
114 133 0
118 137 44
127 146 25
119 136 25
112 129 31
99 122 74
103 127 67
88 111 78
93 117 83
106 129 72
114 135 80
109 130 78
104 127 82
68 98 108
69 99 110
81 109 111
56 89 103
57 90 108
56 89 103
57 91 111
55 88 99
60 93 111
60 90 99
73 97 72
108 125 0
109 127 0
103 120 0
108 126 0
105 122 0
105 121 0
111 128 18
83 104 51
55 82 62
52 83 88
54 86 90
52 83 84
52 83 80
53 84 83
54 86 99
56 89 99
57 90 108
54 86 97
55 88 99
53 85 100
54 87 90
54 85 92
58 92 108
55 88 113
55 87 103
55 88 97
57 90 105
54 86 88
55 88 90
55 87 102
55 87 103
56 88 110
54 87 94
55 88 113
54 86 92
59 92 114
57 91 114
56 89 107
55 87 92
56 88 110
56 90 105
58 91 105
55 87 102
56 89 100
56 89 92
54 87 100
57 90 110
55 87 90
57 90 99
57 90 114
56 89 97
56 89 108
56 89 103
55 88 100
56 89 94
57 90 108
56 89 102
55 88 97
57 90 113
54 87 107
57 90 115
55 88 95
58 91 111
54 86 95
55 88 103
56 89 105
57 90 120
55 87 103
56 89 103
56 89 95
57 90 107
55 88 105
56 88 99
55 88 99
55 87 95
54 85 92
53 85 88
54 86 90
54 85 90
54 86 88
54 86 102
52 84 76
55 84 70
70 93 67
87 103 25
101 117 0
109 124 0
107 123 0
105 120 0
98 112 0
93 109 0
104 120 0
107 123 0
114 130 0
119 135 0
117 134 0
111 126 0
112 127 0
128 144 0
105 120 0
111 129 0
108 124 0
120 137 0
113 130 0
115 133 0
119 135 0
120 135 0
116 133 0
120 137 0
114 132 0
121 139 0
124 144 0
126 145 0
118 134 0
129 146 0
124 142 0
132 150 0
126 143 0
137 155 0
133 150 0
139 159 0
128 148 0
144 162 0
128 144 0
128 145 0
135 153 0
132 151 0
129 147 0
132 151 0
132 150 0
143 163 0
138 156 0
130 149 0
142 160 0
140 160 0
145 165 0
137 156 0
144 163 0
135 155 0
144 165 0
145 162 0
141 160 0
133 151 0
144 164 0
146 165 0
147 168 0
152 171 0
143 161 0
153 173 0
145 166 0
150 170 0
150 169 0
143 163 0
143 163 0
150 168 0
145 164 0
151 171 0
146 168 0
147 167 0
145 163 0
150 170 0
147 169 0
149 168 0
150 171 0
148 168 0
155 176 0
146 166 0
155 176 0
153 172 0
142 163 0
149 170 0
158 176 0
159 180 0
152 172 0
147 166 0
157 177 0
160 182 0
152 172 0
156 175 0
157 176 0
156 176 0
157 178 0
154 172 0
156 177 0
155 175 0
152 172 0
152 172 0
155 177 0
158 179 0
154 174 0
159 181 0
158 177 0
151 169 0
163 185 0
150 170 0
154 175 0
157 174 0
159 179 0
157 178 0
159 180 0
156 176 0
157 179 0
157 177 0
165 185 0
153 173 0
161 181 0
160 182 0
158 180 0
164 186 0
158 178 0
163 184 0
159 180 0
159 178 0
165 185 0
162 183 0
155 177 0
163 182 0
163 183 0
165 186 0
163 185 0
167 189 0
161 182 0
163 185 0
170 190 0
165 186 0
161 181 0
159 179 0
163 184 0
164 185 0
168 189 0
164 183 0
166 188 0
164 186 0
163 184 0
165 187 0
161 181 0
164 185 0
165 186 0
167 188 0
164 185 0
164 184 0
165 186 0
171 191 0
166 187 0
167 190 0
165 188 0
170 194 95
174 196 99
170 194 76
172 195 105
171 194 95
170 193 67
176 198 102
172 195 72
175 198 95
167 190 84
175 198 92
173 196 105
171 195 80
169 193 88
176 199 105
175 198 120
171 194 80
172 195 88
169 193 95
171 194 76
173 196 102
171 195 102
173 196 99
169 192 120
173 198 102
171 194 92
169 193 99
171 195 88
172 196 111
174 197 88
166 190 105
167 191 102
173 196 114
167 190 88
172 195 95
168 191 92
165 188 76
173 197 108
171 195 88
169 193 102
169 193 88
167 189 80
167 190 99
167 190 88
173 196 95
167 191 105
169 193 80
168 192 117
168 191 99
171 195 99
167 190 76
165 189 67
170 192 108
168 192 99
170 193 111
171 195 130
165 190 108
172 195 117
171 194 99
166 189 92
161 184 92
164 187 95
163 186 72
166 189 88
168 192 111
168 191 99
164 188 95
168 191 76
158 181 92
163 185 114
163 186 72
167 190 102
165 188 102
163 185 94
165 187 84
164 188 102
163 186 80
175 198 122
160 183 84
157 179 108
169 192 102
166 188 99
165 187 95
159 181 102
159 181 95
164 186 102
161 183 92
167 189 95
162 184 88
160 182 95
167 190 117
161 182 111
163 185 105
157 178 72
157 179 80
161 183 92
161 183 88
153 174 105
163 184 105
154 175 111
161 182 111
156 177 99
155 176 114
155 175 95
165 185 120
161 181 95
154 174 84
152 173 88
159 179 99
161 180 117
165 185 122
153 173 88
157 176 114
159 178 114
150 169 105
153 172 99
148 166 88
144 163 72
153 171 95
152 171 88
149 169 80
138 158 67
134 153 51
137 156 57
135 154 57
147 167 57
125 144 25
127 147 25
128 147 25
127 146 25
119 137 0
115 134 25
128 146 44
134 153 44
115 131 44
118 135 40
101 124 62
91 115 94
99 124 88
101 125 76
111 135 86
106 129 88
105 129 84
76 104 100
71 101 95
74 102 102
63 95 111
58 91 107
55 87 92
54 86 94
55 88 100
53 84 90
66 93 82
86 106 54
97 114 0
115 133 0
106 124 0
105 122 0
109 126 0
103 119 0
96 111 0
91 108 0
107 123 0
82 103 44
60 87 74
52 82 88
52 83 88
52 84 86
57 90 100
53 84 92
55 88 100
53 85 86
55 88 99
56 89 105
56 89 100
57 90 97
56 89 103
56 88 100
53 85 72
53 85 92
54 86 92
55 88 97
54 86 103
55 87 99
56 89 103
57 90 97
56 88 102
57 90 105
56 89 100
55 87 86
56 90 107
56 89 105
56 88 99
55 88 103
56 89 113
55 88 84
55 87 100
55 88 95
56 89 100
56 89 100
57 89 108
55 87 95
54 86 92
56 88 113
57 91 107
57 90 111
56 89 94
57 90 92
56 89 107
56 88 90
59 92 118
57 90 105
56 89 100
55 87 102
58 92 111
55 87 97
54 85 99
55 88 97
56 88 107
55 88 94
54 87 90
56 89 95
54 86 94
55 88 105
58 91 110
55 88 100
55 88 103
55 87 84
56 89 102
53 84 82
51 83 86
55 87 107
50 80 78
53 85 86
64 90 67
80 99 54
95 109 0
93 110 0
97 112 0
105 121 0
98 115 0
105 121 0
111 127 0
96 114 0
112 129 0
102 120 0
116 134 0
119 136 0
112 129 0
116 135 0
103 119 0
107 124 0
122 140 0
117 134 0
114 130 0
117 136 0
117 135 0
130 147 0
132 150 0
120 136 0
113 131 0
130 149 0
125 143 0
126 142 0
119 137 0
121 138 0
119 136 0
135 151 0
123 141 0
125 142 0
123 140 0
131 149 0
122 140 0
128 147 0
128 147 0
136 153 0
132 150 0
138 159 0
139 159 0
135 154 0
131 150 0
134 151 0
136 154 0
133 151 0
137 157 0
137 154 0
140 160 0
140 159 0
139 159 0
140 160 0
138 159 0
142 160 0
141 160 0
138 158 0
135 154 0
147 166 0
150 170 0
148 169 0
136 155 0
153 172 0
148 167 0
144 163 0
144 164 0
147 165 0
148 167 0
144 165 0
145 165 0
157 175 0
147 168 0
148 168 0
144 163 0
147 167 0
143 163 0
155 173 0
151 170 0
149 168 0
153 173 0
149 168 0
157 178 0
146 166 0
154 173 0
153 171 0
151 171 0
157 177 0
155 176 0
148 166 0
154 174 0
151 173 0
152 173 0
149 170 0
149 170 0
148 167 0
153 173 0
152 173 0
160 182 0
156 175 0
162 182 0
151 173 0
155 176 0
157 176 0
161 181 0
159 179 0
160 181 0
158 179 0
159 181 0
162 182 0
160 179 0
151 173 0
161 181 0
157 176 0
151 169 0
165 187 0
160 180 0
159 181 0
162 182 0
161 181 0
162 182 0
159 179 0
157 178 0
161 181 0
158 179 0
162 184 0
156 176 0
156 177 0
162 183 0
163 184 0
161 183 0
163 186 0
162 183 0
159 179 0
162 182 0
164 184 0
157 177 0
160 181 0
161 181 0
154 174 0
161 182 0
165 186 0
161 182 0
163 184 0
161 183 0
160 180 0
161 181 0
160 181 0
167 187 0
166 188 0
162 182 0
166 187 0
162 183 0
166 186 0
163 185 0
167 189 0
165 186 0
165 186 0
166 189 0
166 187 0
165 186 0
165 187 0
163 186 0
166 187 0
174 197 95
172 195 88
174 197 92
173 196 80
172 195 92
178 200 105
173 196 76
174 198 95
176 198 99
175 198 117
168 192 72
168 192 80
178 201 128
169 192 84
170 193 111
168 191 88
173 196 80
174 198 84
170 193 92
171 195 92
172 195 92
174 197 105
172 195 102
169 193 95
171 194 84
166 189 84
174 198 108
171 194 92
169 193 105
171 194 99
169 192 92
168 192 92
171 195 117
170 194 80
173 196 117
164 188 92
171 194 99
168 192 72
162 186 76
168 192 95
172 196 88
172 195 84
172 195 108
168 191 95
167 190 102
174 197 99
169 192 92
173 197 117
163 186 72
163 187 99
163 187 84
167 190 99
166 189 76
164 187 99
164 188 120
165 187 99
169 193 111
171 194 105
162 186 84
166 190 105
165 188 102
162 185 95
164 187 99
164 186 92
164 186 99
165 188 117
162 186 95
164 187 108
164 187 95
161 183 82
172 195 114
166 188 72
171 194 102
163 186 102
164 187 88
153 176 86
161 183 95
168 191 82
161 184 88
157 180 102
165 187 95
155 178 111
159 182 84
160 183 99
157 178 84
159 181 76
161 183 108
157 180 88
158 179 99
159 182 92
170 191 117
161 183 105
161 183 102
159 181 88
156 177 99
159 181 92
156 178 102
164 186 105
159 180 95
149 170 84
155 176 99
163 184 114
153 173 95
152 172 95
162 182 117
156 177 88
164 184 95
149 168 92
161 179 120
148 167 80
158 179 111
153 173 99
147 167 84
142 162 72
163 182 120
138 158 51
140 158 88
152 172 76
148 168 67
158 177 105
142 161 80
141 160 72
138 157 62
148 169 62
133 153 44
136 157 44
124 143 25
125 144 0
133 153 36
134 154 36
121 140 0
118 136 0
124 143 36
126 142 36
122 140 36
110 128 25
106 123 18
106 128 60
103 127 62
105 129 76
102 126 74
109 130 70
97 118 86
70 97 90
66 96 97
72 100 84
60 89 86
55 87 107
61 92 97
54 86 97
54 86 98
53 84 92
74 98 76
91 114 62
117 135 0
107 124 0
107 125 0
104 120 0
99 116 0
111 128 0
106 122 0
102 120 0
104 121 0
111 128 0
96 112 0
91 110 25
79 102 68
56 86 78
51 82 78
53 83 95
53 84 94
52 84 86
54 85 90
53 84 95
54 86 99
55 88 100
54 86 99
54 85 94
55 87 105
53 86 90
55 88 98
53 85 86
55 87 95
55 87 99
55 87 90
57 90 105
55 87 97
55 88 97
56 89 105
58 91 113
54 86 107
54 86 97
57 90 120
56 89 97
54 85 95
56 89 95
55 88 100
56 89 108
58 91 103
53 85 90
56 89 100
57 90 111
53 84 99
56 89 97
56 89 110
55 88 103
55 87 88
57 90 105
54 87 102
57 89 108
53 84 90
56 89 99
57 90 115
57 90 111
53 84 95
55 87 114
55 88 99
55 87 99
56 89 103
53 85 94
52 84 88
55 87 100
54 85 90
53 84 94
54 85 86
55 87 94
55 88 95
53 85 86
55 87 103
55 88 95
52 83 86
60 88 86
80 102 74
92 110 40
106 120 0
98 111 0
95 111 0
108 124 0
110 125 0
95 111 0
107 124 0
104 119 0
117 132 0
105 124 0
105 120 0
114 132 0
117 134 0
116 135 0
112 128 0
100 116 0
118 136 0
114 130 0
108 125 0
114 130 0
123 140 0
120 137 0
106 122 0
127 146 0
114 131 0
125 142 0
112 131 0
124 142 0
127 144 0
128 144 0
121 139 0
122 140 0
136 154 0
127 144 0
123 142 0
117 135 0
119 137 0
136 154 0
133 151 0
137 155 0
138 157 0
135 156 0
135 154 0
122 141 0
128 143 0
139 158 0
142 161 0
129 148 0
137 156 0
146 163 0
140 159 0
135 153 0
141 160 0
138 158 0
143 162 0
132 152 0
134 152 0
138 158 0
138 159 0
145 163 0
144 164 0
136 157 0
149 170 0
146 165 0
146 167 0
145 164 0
148 167 0
142 163 0
137 156 0
147 167 0
146 164 0
148 169 0
146 166 0
151 171 0
150 171 0
148 168 0
148 167 0
147 166 0
148 166 0
152 174 0
152 170 0
153 173 0
152 171 0
148 168 0
139 158 0
148 169 0
151 171 0
154 174 0
158 177 0
154 175 0
152 172 0
149 171 0
151 171 0
158 177 0
153 174 0
153 172 0
157 177 0
156 174 0
146 165 0
152 172 0
155 176 0
154 174 0
154 174 0
154 173 0
158 179 0
159 180 0
155 173 0
160 181 0
159 180 0
157 178 0
156 178 0
153 173 0
154 175 0
154 174 0
158 179 0
162 183 0
156 176 0
160 179 0
157 177 0
160 181 0
159 180 0
159 180 0
163 183 0
158 179 0
158 177 0
163 184 0
157 178 0
162 182 0
165 187 0
160 180 0
159 180 0
162 181 0
158 181 0
161 181 0
161 183 0
161 181 0
161 183 0
162 181 0
163 185 0
164 186 0
164 184 0
163 182 0
160 180 0
160 180 0
159 179 0
165 186 0
165 185 0
164 186 0
158 179 0
160 180 0
164 187 0
160 182 0
163 184 0
165 187 0
163 186 0
165 186 0
164 185 0
164 185 0
163 184 0
163 185 0
164 186 0
165 185 0
164 186 0
168 189 0
164 184 0
162 183 0
171 195 99
173 195 99
174 197 80
174 197 99
171 195 92
168 191 99
174 198 88
176 198 117
168 192 80
172 195 84
173 196 95
175 199 92
169 193 102
171 193 108
168 192 99
174 198 92
169 193 92
174 197 105
168 191 95
173 197 92
177 201 117
177 200 105
169 192 84
167 191 67
170 193 105
173 197 88
173 196 102
167 191 80
169 193 102
176 199 102
169 192 92
165 188 95
171 195 95
171 194 95
170 194 99
169 193 108
169 193 102
172 196 95
168 192 108
167 190 88
168 191 95
171 195 111
167 190 76
163 186 80
173 197 122
172 195 84
168 192 105
172 196 111
169 193 108
164 187 102
166 189 99
169 193 99
169 192 95
167 191 95
170 194 111
166 190 92
169 193 108
160 183 80
161 183 84
165 188 92
163 186 92
167 190 84
162 186 88
163 187 92
166 188 84
159 182 84
171 194 102
161 183 97
167 190 99
163 186 108
167 191 88
159 182 76
168 191 105
162 185 92
163 186 99
164 187 84
170 192 99
157 179 92
166 188 102
168 191 76
155 177 99
171 194 125
162 184 92
168 190 114
160 183 72
159 181 88
166 188 95
156 178 105
154 176 88
164 186 117
166 187 114
160 182 99
165 186 102
155 176 99
160 180 102
149 171 88
160 181 92
151 173 84
157 179 99
157 178 111
151 172 88
159 180 88
160 179 117
153 175 92
154 174 88
158 179 76
156 177 72
146 166 99
162 182 114
158 178 105
155 175 92
148 167 95
154 174 95
152 172 92
161 181 111
155 175 102
151 170 99
145 165 76
142 161 80
142 160 88
147 167 76
136 156 67
136 155 57
140 159 62
128 148 44
133 152 62
132 151 25
129 149 0
132 151 36
128 147 25
122 141 0
127 146 0
125 144 25
129 147 25
126 144 25
118 136 44
111 129 36
115 133 47
107 130 72
108 130 74
108 129 76
104 125 61
105 128 54
79 104 78
68 96 92
67 95 99
70 98 84
66 96 97
54 86 97
55 86 89
53 84 76
52 83 84
68 91 74
94 114 51
119 137 0
118 136 0
109 127 0
107 124 0
108 126 0
110 127 0
118 134 0
100 117 0
90 107 0
101 118 0
110 125 0
106 122 0
101 116 0
102 118 18
97 115 51
69 90 67
54 84 74
49 79 72
53 84 90
54 86 99
50 80 76
54 86 95
54 86 86
52 83 82
55 87 90
54 86 86
54 86 94
52 83 82
54 85 92
54 86 99
54 85 86
56 88 100
54 85 92
56 89 103
54 86 100
57 89 100
54 86 97
55 88 90
56 88 90
55 87 99
55 88 100
56 88 103
54 86 92
53 85 92
56 89 97
56 89 102
55 87 94
56 89 107
54 86 97
55 87 86
55 88 82
57 90 113
56 89 108
55 87 99
55 88 95
55 88 110
56 89 97
56 88 102
56 89 97
55 87 99
55 87 100
57 90 97
53 84 82
56 88 102
53 84 80
54 86 100
54 86 86
55 87 97
55 87 97
51 81 80
55 88 99
56 89 102
54 86 90
53 85 88
56 87 94
81 105 84
87 104 40
100 116 0
97 113 0
106 120 0
107 122 0
92 108 0
103 120 0
101 116 0
107 124 0
101 118 0
98 113 0
98 113 0
109 125 0
115 132 0
111 127 0
102 118 0
124 143 0
117 135 0
121 139 0
105 121 0
116 134 0
114 132 0
121 139 0
111 129 0
123 140 0
121 137 0
122 139 0
136 155 0
124 143 0
123 141 0
122 139 0
123 141 0
130 150 0
126 144 0
135 154 0
125 143 0
132 148 0
132 150 0
129 148 0
120 136 0
132 151 0
133 150 0
133 152 0
142 161 0
139 159 0
142 162 0
129 146 0
137 155 0
133 152 0
135 152 0
138 157 0
134 153 0
131 149 0
130 149 0
139 159 0
145 164 0
131 150 0
144 164 0
142 162 0
146 166 0
139 159 0
141 160 0
140 160 0
145 164 0
145 163 0
140 159 0
150 169 0
146 165 0
146 165 0
149 169 0
145 164 0
140 160 0
150 171 0
146 167 0
144 165 0
151 171 0
149 169 0
138 155 0
152 172 0
153 173 0
147 167 0
153 174 0
148 168 0
154 174 0
153 170 0
149 169 0
157 177 0
155 176 0
150 172 0
156 177 0
151 169 0
153 173 0
157 176 0
152 172 0
154 175 0
148 168 0
156 176 0
154 174 0
152 174 0
154 174 0
156 176 0
152 173 0
155 175 0
166 186 0
149 169 0
156 175 0
157 177 0
157 176 0
158 179 0
147 168 0
152 171 0
155 176 0
159 180 0
154 173 0
164 185 0
152 171 0
153 173 0
157 180 0
163 185 0
158 179 0
159 178 0
156 176 0
165 186 0
162 183 0
161 183 0
164 183 0
165 186 0
159 181 0
161 182 0
158 177 0
161 182 0
163 184 0
163 185 0
163 184 0
156 177 0
164 186 0
162 183 0
160 179 0
163 185 0
163 185 0
160 181 0
162 182 0
164 186 0
160 182 0
160 181 0
165 186 0
167 189 0
163 184 0
163 183 0
163 184 0
161 181 0
165 187 0
162 184 0
166 186 0
164 186 0
165 187 0
163 185 0
164 186 0
160 182 0
163 182 0
166 187 0
169 192 0
167 188 0
164 184 0
163 183 0
167 189 0
163 187 0
168 188 0
169 191 0
164 185 0
175 199 95
172 195 95
175 198 88
174 196 114
170 194 80
175 198 117
176 199 111
174 198 111
167 190 88
175 199 102
175 198 111
174 197 76
173 196 130
175 199 95
168 192 88
172 196 95
175 199 80
173 196 72
167 191 92
172 196 99
171 194 84
171 195 111
173 196 95
171 193 84
168 191 84
169 192 102
170 193 92
168 192 111
170 193 88
174 198 105
169 193 92
170 193 105
171 194 88
166 190 80
173 195 114
168 191 80
171 194 95
166 190 99
171 194 102
172 196 105
169 193 99
170 194 114
167 190 99
166 190 88
164 187 105
164 187 62
169 193 99
169 193 111
165 189 102
168 191 80
164 187 99
166 190 84
167 190 108
166 189 105
171 195 120
169 192 99
164 187 88
163 186 88
168 192 111
165 189 88
164 187 102
165 188 92
165 189 92
167 189 108
167 190 88
164 187 102
162 184 108
162 186 102
160 183 111
156 178 72
164 187 108
167 190 92
160 182 78
168 190 107
166 189 88
162 185 92
162 186 92
160 183 84
166 189 95
167 190 95
165 188 88
160 182 92
161 184 99
164 185 99
156 178 88
160 182 108
169 191 133
162 184 92
167 188 92
166 188 105
163 184 117
163 184 99
155 176 105
161 182 105
161 183 102
155 176 95
155 177 92
164 185 99
158 178 76
160 181 76
156 176 92
147 168 95
143 162 76
158 179 88
161 181 111
150 170 76
149 169 84
151 171 95
146 167 95
148 169 76
166 187 108
154 175 88
145 163 105
149 168 95
148 167 105
152 171 92
152 172 102
158 176 111
149 168 84
145 164 95
150 169 80
133 152 51
143 163 44
130 150 36
149 168 72
131 151 25
134 154 25
129 150 0
130 150 44
129 148 0
121 139 25
122 139 36
124 142 36
122 140 36
122 138 44
106 123 25
113 129 36
113 129 25
100 120 36
96 120 70
100 124 60
105 127 67
107 130 76
125 144 44
90 112 65
74 101 95
73 101 94
76 103 90
52 83 86
57 88 88
55 88 82
57 87 76
74 97 60
92 113 54
127 145 0
118 136 0
122 141 0
111 128 0
102 120 0
102 120 0
111 129 0
111 126 0
104 122 0
117 134 0
109 126 0
90 106 0
104 120 0
102 118 0
100 115 0
100 114 0
101 117 18
80 99 51
65 88 51
48 77 67
51 81 81
52 83 76
51 82 80
52 83 76
53 84 90
55 87 86
54 85 103
53 85 84
55 88 95
54 86 99
56 88 95
55 88 102
55 88 99
53 85 88
57 91 108
52 83 78
53 84 84
55 88 99
54 87 94
55 87 107
55 87 100
53 84 94
54 87 95
55 86 100
53 84 72
55 87 92
53 85 97
54 86 94
57 90 102
53 85 95
53 85 82
56 88 107
54 85 88
53 85 95
53 85 90
53 85 97
56 88 97
56 88 95
52 83 84
54 87 95
54 85 100
54 86 92
54 86 95
56 88 110
53 84 80
52 83 70
57 90 105
52 84 82
52 83 84
52 83 84
52 83 90
56 84 86
68 91 65
84 101 44
88 104 25
102 117 0
88 104 0
93 109 0
94 108 0
94 109 0
107 123 0
99 116 0
113 129 0
102 117 0
114 131 0
97 114 0
116 133 0
99 115 0
101 118 0
104 120 0
105 122 0
110 128 0
114 130 0
105 122 0
115 132 0
116 134 0
107 124 0
123 142 0
124 142 0
127 145 0
103 122 0
123 142 0
118 136 0
109 126 0
123 141 0
125 143 0
107 125 0
131 150 0
128 145 0
124 142 0
133 150 0
136 154 0
130 150 0
122 141 0
125 144 0
126 146 0
123 143 0
137 156 0
140 160 0
135 157 0
130 147 0
129 147 0
135 154 0
128 145 0
132 153 0
136 154 0
132 153 0
138 157 0
140 160 0
139 159 0
142 161 0
146 167 0
145 165 0
145 165 0
146 164 0
139 159 0
138 157 0
141 159 0
148 167 0
139 157 0
137 158 0
146 165 0
149 171 0
152 174 0
142 161 0
142 163 0
141 162 0
142 160 0
150 171 0
147 166 0
146 167 0
145 165 0
150 168 0
148 167 0
152 172 0
151 172 0
152 172 0
152 171 0
153 173 0
149 169 0
148 166 0
150 169 0
151 173 0
149 167 0
152 171 0
148 167 0
149 169 0
156 175 0
150 169 0
159 180 0
153 173 0
154 173 0
151 172 0
150 170 0
148 167 0
154 175 0
158 178 0
161 182 0
153 173 0
154 175 0
155 175 0
156 174 0
156 176 0
161 183 0
155 175 0
160 180 0
159 179 0
159 181 0
160 180 0
156 175 0
164 184 0
158 179 0
155 176 0
156 178 0
161 183 0
151 171 0
157 177 0
158 180 0
159 178 0
160 180 0
159 180 0
161 183 0
157 178 0
156 176 0
162 182 0
165 186 0
160 181 0
158 178 0
162 182 0
161 181 0
163 183 0
163 184 0
159 180 0
164 185 0
162 183 0
162 182 0
162 185 0
162 183 0
162 184 0
159 180 0
161 183 0
162 182 0
162 183 0
169 190 0
160 182 0
166 189 0
165 186 0
165 187 0
165 187 0
163 184 0
164 187 0
163 185 0
162 184 0
164 185 0
168 188 0
167 188 0
166 188 0
165 186 0
159 180 0
163 184 0
163 186 0
167 189 0
164 184 0
163 184 0
167 189 0
165 187 0
172 195 84
171 194 84
175 199 92
171 195 80
172 195 84
172 195 88
175 197 102
173 195 99
177 199 95
172 195 84
175 198 111
174 196 111
174 197 102
177 199 120
170 193 95
172 196 84
175 198 105
171 195 102
170 192 88
172 196 92
171 195 102
172 195 88
172 196 84
172 196 80
169 193 105
172 196 102
170 194 84
170 194 88
170 194 102
173 198 111
171 194 99
166 189 92
170 193 76
168 191 102
170 194 99
168 192 95
169 192 105
173 197 95
167 189 76
171 194 102
171 195 105
166 189 92
167 191 120
165 188 99
169 192 95
167 190 105
163 186 84
165 189 102
174 196 108
169 192 88
163 186 102
168 191 76
167 190 67
167 190 108
164 187 95
159 183 92
165 188 111
163 186 80
168 191 92
165 189 108
164 187 92
171 194 102
162 185 102
160 183 92
161 184 99
163 187 95
159 182 99
166 188 92
163 185 67
163 187 76
164 187 108
163 184 102
162 185 67
161 183 86
165 188 111
167 189 114
164 187 88
166 189 80
166 188 80
164 186 95
162 185 114
162 185 88
163 186 92
166 188 95
157 180 88
169 191 122
161 183 92
164 186 80
158 180 105
165 187 105
160 182 117
163 184 92
155 177 88
161 182 95
166 187 120
156 178 92
163 185 84
155 176 84
161 182 95
156 177 88
161 181 108
155 176 99
156 176 117
158 178 102
156 177 92
163 183 105
155 176 99
153 173 102
156 177 105
144 165 84
147 166 92
159 177 114
153 173 99
153 173 111
156 175 102
156 175 95
158 177 102
151 170 102
157 176 102
138 158 72
138 158 62
139 158 62
138 156 80
145 165 67
134 154 0
142 163 25
135 154 0
127 147 0
133 153 25
123 142 25
131 151 0
134 153 25
125 144 44
119 137 36
127 147 0
118 136 36
127 145 0
120 138 0
119 136 25
99 118 40
102 125 84
105 128 72
102 124 70
128 148 51
113 132 31
70 95 78
68 95 74
79 103 78
73 102 97
56 86 90
53 84 94
80 102 78
89 108 60
91 109 36
114 132 0
114 133 0
107 126 0
105 123 0
124 141 0
114 131 0
99 115 0
117 134 0
99 116 0
115 132 0
108 124 0
107 124 0
116 132 0
96 113 0
112 128 0
94 110 0
108 124 0
102 118 0
93 108 0
90 106 0
77 94 31
67 87 47
60 86 65
49 79 86
50 80 78
51 81 86
51 82 86
52 83 80
54 86 78
52 83 90
53 84 80
55 88 108
55 87 88
53 84 78
53 84 92
54 86 102
57 90 105
54 86 99
55 88 88
55 88 105
55 87 82
53 85 92
53 84 94
52 83 76
54 86 88
52 84 88
55 87 88
54 85 88
54 85 92
55 88 82
54 85 82
55 88 97
53 85 76
54 86 92
53 85 94
54 86 86
53 84 92
56 89 94
54 86 92
55 87 100
54 86 88
54 86 88
54 86 82
54 86 78
53 84 90
54 85 84
51 82 82
49 78 65
63 91 94
83 103 44
88 106 40
102 117 0
95 110 0
100 116 0
101 116 0
88 104 0
103 119 0
107 123 0
98 115 0
103 118 0
110 125 0
105 119 0
103 119 0
101 116 0
111 126 0
115 132 0
111 129 0
105 121 0
113 129 0
102 117 0
107 123 0
111 129 0
112 129 0
113 131 0
117 135 0
115 130 0
108 126 0
124 140 0
124 142 0
116 134 0
117 133 0
122 139 0
120 138 0
113 131 0
126 145 0
131 148 0
124 142 0
106 122 0
127 144 0
124 142 0
131 150 0
129 147 0
125 144 0
128 147 0
136 154 0
128 147 0
132 150 0
125 145 0
142 162 0
133 153 0
132 152 0
127 146 0
130 148 0
138 158 0
130 148 0
138 155 0
128 149 0
136 155 0
134 154 0
141 159 0
144 163 0
138 157 0
138 159 0
136 158 0
138 157 0
144 163 0
141 161 0
143 162 0
146 166 0
141 162 0
145 165 0
141 161 0
140 159 0
148 168 0
149 169 0
145 164 0
145 165 0
145 164 0
146 165 0
142 163 0
147 168 0
149 168 0
141 161 0
145 164 0
149 168 0
155 176 0
143 163 0
148 168 0
149 167 0
158 178 0
147 170 0
148 167 0
154 175 0
151 171 0
149 169 0
158 179 0
155 175 0
143 162 0
151 173 0
159 180 0
156 176 0
150 171 0
155 176 0
157 178 0
157 178 0
159 180 0
154 175 0
154 173 0
156 175 0
156 177 0
155 176 0
161 181 0
156 177 0
157 178 0
151 172 0
159 181 0
159 179 0
167 188 0
162 183 0
157 179 0
157 179 0
158 179 0
158 178 0
152 171 0
154 174 0
155 175 0
160 181 0
158 178 0
162 184 0
163 184 0
162 183 0
163 182 0
160 181 0
156 177 0
163 184 0
162 183 0
157 178 0
162 184 0
157 177 0
162 183 0
162 183 0
154 173 0
164 185 0
155 176 0
159 180 0
159 180 0
157 177 0
162 184 0
165 186 0
166 188 0
162 184 0
157 177 0
163 183 0
165 187 0
160 180 0
162 184 0
163 182 0
161 182 0
165 186 0
162 183 0
163 186 0
166 187 0
169 191 0
161 182 0
167 187 0
162 184 0
166 186 0
160 183 0
164 183 0
163 185 0
167 190 0
163 183 0
163 185 0
166 187 0
165 186 0
167 189 0
176 200 99
179 202 95
175 199 120
172 195 95
173 197 102
173 196 92
171 194 84
173 196 95
172 195 88
174 197 95
174 197 99
175 198 105
174 197 80
173 196 88
170 193 88
170 193 72
165 188 84
174 198 92
176 199 99
169 193 84
171 193 99
172 196 95
171 195 80
172 196 99
173 196 95
172 195 108
169 193 84
169 192 95
167 190 92
173 196 102
171 194 122
162 186 92
170 193 105
168 192 95
168 190 80
172 195 108
165 189 84
172 195 84
170 194 92
171 195 105
168 192 105
170 194 95
164 188 108
170 193 102
169 193 102
165 189 92
165 188 99
168 191 108
171 194 92
170 193 99
164 187 88
159 182 67
167 190 102
165 188 99
168 191 84
169 192 92
166 189 99
163 187 99
160 183 92
165 189 88
168 192 114
167 190 80
165 187 95
165 187 88
167 190 105
163 186 92
169 191 105
164 186 62
161 185 108
163 186 80
161 185 92
162 185 105
163 186 72
162 184 88
162 184 80
156 179 88
163 186 76
165 187 99
168 190 88
162 185 99
163 186 108
164 186 102
165 188 111
152 175 76
158 179 92
161 184 99
160 182 99
153 174 72
162 184 95
162 184 102
162 184 102
159 180 76
156 178 102
159 181 99
163 184 99
163 184 114
162 183 120
160 182 102
153 175 88
157 178 92
149 170 102
159 180 84
162 182 117
158 178 114
158 178 84
158 179 84
164 184 120
153 174 108
141 162 84
153 173 99
160 180 108
163 183 92
145 164 102
164 182 130
160 180 108
153 172 99
160 178 120
161 179 117
148 168 92
150 170 72
148 168 67
141 160 76
141 160 67
145 164 51
148 169 25
133 153 0
129 148 25
122 142 25
137 158 25
130 149 0
126 144 25
124 142 0
136 155 0
128 146 25
117 135 36
121 138 36
114 130 0
116 135 0
120 139 0
117 135 25
103 124 54
93 116 70
110 131 65
133 151 44
119 137 0
109 126 31
83 107 74
71 96 70
75 100 78
74 99 72
52 81 76
84 104 47
85 106 54
82 99 18
113 131 0
114 133 0
117 135 0
108 125 0
113 130 0
107 125 0
114 131 0
113 129 0
104 121 0
105 121 0
104 122 0
114 132 0
102 118 0
105 121 0
90 106 0
100 116 0
96 111 0
101 117 0
94 109 0
94 109 0
104 120 0
75 92 0
83 99 0
92 106 25
82 100 57
77 98 60
62 87 80
60 88 82
50 80 82
51 81 80
52 83 92
55 86 92
54 86 90
54 86 99
51 81 84
52 83 84
51 81 74
53 85 97
51 82 74
52 84 92
53 84 90
54 86 99
52 83 70
55 87 99
53 84 80
53 85 74
51 82 90
52 83 92
53 85 90
55 86 99
51 81 84
52 83 86
55 87 94
55 87 95
49 78 65
53 84 88
55 87 92
52 83 90
53 84 80
53 85 70
54 86 99
54 85 97
55 87 99
57 86 86
61 86 72
77 98 60
71 88 31
102 117 0
96 111 0
101 117 0
99 114 0
91 106 0
93 109 0
104 119 0
108 125 0
95 111 0
109 125 0
85 102 0
107 124 0
90 106 0
100 114 0
100 115 0
107 123 0
113 129 0
97 113 0
108 125 0
107 123 0
99 116 0
117 134 0
102 120 0
116 132 0
120 137 0
107 125 0
119 137 0
119 136 0
120 136 0
112 128 0
108 124 0
104 122 0
115 132 0
116 135 0
121 138 0
124 143 0
126 145 0
116 134 0
119 136 0
114 133 0
111 130 0
124 143 0
121 139 0
140 158 0
121 139 0
124 140 0
127 146 0
127 144 0
125 144 0
139 157 0
129 149 0
138 158 0
129 148 0
134 153 0
128 146 0
140 159 0
140 160 0
130 147 0
130 150 0
135 154 0
140 159 0
140 159 0
123 143 0
144 165 0
142 161 0
129 150 0
145 166 0
142 163 0
135 156 0
143 163 0
142 163 0
136 155 0
136 157 0
139 159 0
145 163 0
148 168 0
150 169 0
140 161 0
144 165 0
152 172 0
139 159 0
148 167 0
146 164 0
147 166 0
152 172 0
155 175 0
151 171 0
147 168 0
149 169 0
146 167 0
150 171 0
144 164 0
154 174 0
149 169 0
150 170 0
153 173 0
148 167 0
148 167 0
156 177 0
160 182 0
150 171 0
149 169 0
154 175 0
156 177 0
155 174 0
154 173 0
154 175 0
154 174 0
163 184 0
155 176 0
159 178 0
154 175 0
153 173 0
153 173 0
159 182 0
154 175 0
153 175 0
160 181 0
156 177 0
162 183 0
155 175 0
155 176 0
160 181 0
160 178 0
161 182 0
164 185 0
162 183 0
165 187 0
158 178 0
159 180 0
158 178 0
157 178 0
157 178 0
159 180 0
160 182 0
160 181 0
160 180 0
161 181 0
163 184 0
164 186 0
162 182 0
163 184 0
159 181 0
166 188 0
166 188 0
160 181 0
161 180 0
158 180 0
165 185 0
163 184 0
165 185 0
167 188 0
162 183 0
161 181 0
159 180 0
164 185 0
164 185 0
158 180 0
161 183 0
166 187 0
163 184 0
165 187 0
165 187 0
160 181 0
159 181 0
163 184 0
167 189 0
166 188 0
164 186 0
163 186 0
168 189 0
163 183 0
160 179 0
167 189 0
169 189 0
164 185 0
167 187 0
164 187 0
169 190 0
172 196 105
173 195 88
173 197 95
172 195 84
172 195 102
172 195 105
176 199 108
173 196 102
171 195 92
174 197 105
174 197 114
171 195 88
170 193 80
175 199 92
173 197 95
173 196 114
171 194 102
174 197 105
170 194 99
171 195 88
165 190 80
173 198 105
173 196 88
167 191 95
172 196 95
170 194 99
173 196 88
172 196 122
170 194 92
174 197 114
172 195 105
170 194 80
167 190 92
173 197 111
167 191 88
171 195 105
170 193 72
174 199 125
169 192 99
164 187 99
171 195 95
171 195 111
166 190 95
166 190 84
168 191 95
167 190 102
167 191 99
170 193 111
164 188 102
164 187 102
160 183 72
166 188 95
165 188 84
164 188 92
173 196 102
166 190 102
163 186 84
163 186 111
171 194 102
164 188 95
164 187 84
167 189 111
166 189 108
162 185 80
167 190 105
166 188 105
171 194 95
167 190 99
162 185 76
170 193 105
164 187 84
163 186 99
168 191 114
171 194 105
158 180 72
160 183 95
161 184 84
162 184 114
159 182 105
157 180 88
163 185 80
166 188 88
161 183 108
163 186 99
154 177 84
158 181 92
163 185 99
160 181 92
159 181 88
167 188 122
164 186 92
169 191 117
152 174 84
161 184 95
162 184 114
158 179 111
160 180 114
161 182 102
158 180 111
160 181 99
164 184 99
167 187 122
148 168 72
148 168 84
149 170 62
165 185 92
162 182 117
151 171 84
160 181 99
145 164 84
150 170 102
151 171 102
164 184 105
154 174 80
159 178 122
152 171 99
155 175 95
161 180 102
142 162 72
151 172 67
155 175 80
145 165 76
144 163 57
138 158 0
141 161 0
130 150 44
129 150 25
128 149 25
124 143 36
123 143 25
131 150 25
118 135 44
129 148 44
132 151 0
123 140 36
116 135 25
132 151 25
120 139 0
121 139 0
112 128 25
120 137 36
112 130 0
119 137 18
127 148 0
128 147 0
122 139 25
113 130 0
103 123 51
83 103 57
81 102 51
87 103 31
91 108 31
81 98 31
99 116 0
112 130 0
121 140 0
117 134 0
119 136 0
112 130 0
118 135 0
93 111 0
101 117 0
109 127 0
114 131 0
97 113 0
106 123 0
113 130 0
103 119 0
102 118 0
93 107 0
115 132 0
111 127 0
96 112 0
84 99 0
100 117 0
90 106 0
99 115 0
101 118 0
86 102 0
100 113 0
93 109 0
91 107 0
97 112 18
71 89 40
75 95 60
60 82 51
62 88 76
52 81 70
51 82 74
51 81 78
50 81 74
51 82 78
51 82 78
52 82 94
53 84 84
53 84 78
51 82 70
52 83 88
53 84 100
53 84 65
52 82 82
50 80 82
54 85 84
51 82 78
54 85 88
54 86 88
51 82 80
53 84 82
51 81 86
52 82 82
51 82 74
56 85 67
67 93 86
74 92 51
75 97 60
76 96 31
89 105 18
99 114 0
75 90 0
84 97 0
95 109 0
101 116 0
89 103 0
84 99 0
97 112 0
101 116 0
86 101 0
85 100 0
104 120 0
105 121 0
104 120 0
99 114 0
98 113 0
111 127 0
99 114 0
117 133 0
100 116 0
108 126 0
109 124 0
107 123 0
110 126 0
106 124 0
116 133 0
122 138 0
120 137 0
119 137 0
118 137 0
112 129 0
120 139 0
126 143 0
121 140 0
120 137 0
119 138 0
120 138 0
124 142 0
113 131 0
123 141 0
122 140 0
119 138 0
134 152 0
129 148 0
134 155 0
130 149 0
131 151 0
139 158 0
113 131 0
128 146 0
133 150 0
129 147 0
132 152 0
127 145 0
141 159 0
139 160 0
141 161 0
138 158 0
135 155 0
140 159 0
139 160 0
135 154 0
133 152 0
140 159 0
132 150 0
134 154 0
138 158 0
138 158 0
143 163 0
146 167 0
143 162 0
136 155 0
148 168 0
141 159 0
145 164 0
140 160 0
140 159 0
147 167 0
140 160 0
138 156 0
142 164 0
149 169 0
143 163 0
157 178 0
143 163 0
147 167 0
150 168 0
147 166 0
149 170 0
140 160 0
145 164 0
148 167 0
156 177 0
157 178 0
153 174 0
149 170 0
152 171 0
153 173 0
154 172 0
153 172 0
149 168 0
151 171 0
147 167 0
147 167 0
149 168 0
155 177 0
156 178 0
152 173 0
160 181 0
155 176 0
161 182 0
151 171 0
160 180 0
155 174 0
158 178 0
161 182 0
157 176 0
155 176 0
160 182 0
160 180 0
152 171 0
154 174 0
161 179 0
154 175 0
159 180 0
160 181 0
163 185 0
164 184 0
158 181 0
158 179 0
162 184 0
154 175 0
164 185 0
154 173 0
157 178 0
154 176 0
157 177 0
166 187 0
158 180 0
154 175 0
158 179 0
161 181 0
161 184 0
161 182 0
164 186 0
164 184 0
162 184 0
165 186 0
165 186 0
165 187 0
160 182 0
163 184 0
163 184 0
163 184 0
160 181 0
164 185 0
164 186 0
157 177 0
163 182 0
162 184 0
165 187 0
165 186 0
164 186 0
159 180 0
164 186 0
157 178 0
163 185 0
160 182 0
165 188 0
166 188 0
163 186 0
166 187 0
169 190 0
164 184 0
163 183 0
160 183 0
165 187 0
166 188 0
163 185 0
162 184 0
166 187 0
168 190 0
166 188 0
173 196 84
176 198 92
171 195 95
175 198 84
175 198 92
170 193 67
175 198 84
177 200 102
178 202 114
172 196 92
171 194 99
176 199 111
175 198 102
173 197 95
169 192 80
173 196 84
174 197 80
174 198 88
167 191 88
171 194 108
167 191 84
172 195 92
171 193 99
169 193 99
173 197 95
172 196 95
167 191 99
172 195 76
169 192 92
167 190 88
170 194 102
170 193 80
173 195 92
164 187 76
167 191 88
170 194 99
169 193 95
170 193 108
170 194 102
165 188 76
166 190 95
170 194 95
173 197 108
168 192 88
170 193 80
169 193 120
169 193 117
167 190 95
165 188 95
168 192 92
163 186 99
164 188 84
168 191 88
164 187 102
165 189 80
172 195 92
165 189 76
168 190 92
170 194 111
169 192 95
167 191 102
167 191 88
168 191 108
166 189 111
167 191 72
170 192 88
163 187 92
163 186 80
163 185 80
166 190 105
169 192 99
167 190 95
164 186 114
162 186 102
164 186 95
165 188 105
158 179 84
164 186 92
165 188 111
166 189 84
165 188 92
157 180 92
161 184 99
164 186 95
153 174 102
163 185 92
169 191 102
163 185 102
167 189 114
159 181 76
157 179 105
158 179 92
162 183 95
154 175 67
160 180 111
159 180 102
163 185 111
160 181 92
155 175 102
166 188 102
168 189 105
160 181 102
163 183 102
158 179 99
160 181 105
167 187 111
158 178 88
156 177 95
154 174 80
142 163 80
155 174 105
157 178 95
162 182 88
161 180 102
158 178 108
154 173 99
153 172 99
151 171 92
156 175 99
147 165 84
144 164 72
145 165 72
143 162 72
145 166 0
137 158 44
138 158 25
137 157 0
130 149 0
139 160 0
135 155 25
131 150 25
135 155 25
127 145 51
124 142 57
137 156 44
130 148 44
127 144 36
115 133 0
122 139 36
120 137 25
116 133 25
112 130 36
109 126 25
122 141 0
127 146 0
119 137 0
108 124 0
107 123 0
87 101 0
97 113 0
105 120 0
83 99 0
104 120 0
94 111 0
122 140 0
117 136 0
121 139 0
124 141 0
108 126 0
119 137 0
98 116 0
96 114 0
105 122 0
106 123 0
113 131 0
107 124 0
100 117 0
111 128 0
91 106 0
103 119 0
91 109 0
113 129 0
94 111 0
95 111 0
90 106 0
103 119 0
89 106 0
105 122 0
104 120 0
102 118 0
89 103 0
91 107 0
75 90 0
96 111 0
92 107 0
101 115 0
87 101 0
84 97 0
83 97 18
74 89 18
83 100 36
81 98 18
82 100 44
68 87 44
59 81 54
66 86 62
66 89 57
64 87 60
64 85 47
67 88 62
69 91 67
62 85 47
59 85 76
71 92 62
67 87 40
82 102 60
70 89 40
67 85 36
90 105 25
83 98 25
86 100 18
93 108 0
72 87 0
71 86 0
76 93 0
82 98 0
98 113 0
96 111 0
96 110 0
86 100 0
94 109 0
93 107 0
98 113 0
94 110 0
104 119 0
101 116 0
94 109 0
110 126 0
99 116 0
120 135 0
105 120 0
103 120 0
116 132 0
107 123 0
110 126 0
115 130 0
114 131 0
105 121 0
111 128 0
116 134 0
114 131 0
110 127 0
125 142 0
112 128 0
117 135 0
118 135 0
118 136 0
122 140 0
112 131 0
106 123 0
122 139 0
121 140 0
111 127 0
130 149 0
122 140 0
126 144 0
121 138 0
121 140 0
120 138 0
126 145 0
117 133 0
124 143 0
134 154 0
124 144 0
136 155 0
121 140 0
122 140 0
138 157 0
131 150 0
135 153 0
134 153 0
133 153 0
125 142 0
140 157 0
126 144 0
141 160 0
136 155 0
137 157 0
130 150 0
135 154 0
134 153 0
146 166 0
141 161 0
149 169 0
140 160 0
126 145 0
147 166 0
146 166 0
147 168 0
141 162 0
143 164 0
147 167 0
149 170 0
144 165 0
148 166 0
138 159 0
145 166 0
144 163 0
144 164 0
152 172 0
150 170 0
148 167 0
155 176 0
146 166 0
152 173 0
145 166 0
152 173 0
142 160 0
156 176 0
151 171 0
145 164 0
150 171 0
155 175 0
149 167 0
147 167 0
146 166 0
149 169 0
145 165 0
144 165 0
148 167 0
154 175 0
148 167 0
154 176 0
150 170 0
155 177 0
149 168 0
153 172 0
148 170 0
149 169 0
148 169 0
151 171 0
148 168 0
155 175 0
157 177 0
155 173 0
160 181 0
158 179 0
157 177 0
155 176 0
157 178 0
157 178 0
156 177 0
161 181 0
157 176 0
159 179 0
155 174 0
151 171 0
154 174 0
162 183 0
158 178 0
153 174 0
164 184 0
153 174 0
160 183 0
160 181 0
161 182 0
164 186 0
158 178 0
160 182 0
159 179 0
165 187 0
162 183 0
162 183 0
163 184 0
160 181 0
164 184 0
167 188 0
161 183 0
163 185 0
164 186 0
164 185 0
163 183 0
159 181 0
167 190 0
163 183 0
165 187 0
160 182 0
158 180 0
169 189 0
168 190 0
161 182 0
158 180 0
165 187 0
167 189 0
160 182 0
164 185 0
165 188 0
158 179 0
166 188 0
161 183 0
161 182 0
165 185 0
164 186 0
163 185 0
165 188 0
167 188 0
162 184 0
166 187 0
163 185 0
168 188 0
176 199 88
175 198 102
175 198 111
171 195 99
176 200 114
175 198 111
175 198 111
174 196 105
176 199 102
169 191 84
173 196 111
172 196 92
170 194 84
174 197 95
168 192 99
174 197 105
172 195 99
171 194 95
175 198 95
172 196 88
174 197 117
170 193 99
171 195 88
170 194 95
172 195 102
172 195 80
172 195 95
174 198 108
172 195 76
171 195 72
174 197 88
170 193 95
170 194 99
170 194 88
169 192 88
170 194 102
170 194 99
171 194 84
171 194 99
173 197 92
169 191 84
166 190 102
167 191 95
171 194 92
164 188 102
169 192 95
169 192 105
171 194 99
160 183 105
169 193 99
168 192 88
171 195 105
164 187 88
165 188 92
170 194 99
165 189 92
158 181 92
165 188 102
169 191 84
163 187 80
166 189 108
163 187 84
168 191 92
166 190 84
166 190 102
166 190 102
160 184 111
162 184 102
161 185 88
160 184 105
163 186 99
161 183 84
164 187 95
158 180 108
164 186 99
166 187 114
167 190 88
165 188 102
168 191 105
167 190 108
161 183 57
168 190 88
159 181 76
163 185 99
162 183 92
162 184 102
157 180 88
161 183 95
167 188 105
169 191 120
160 182 105
155 177 92
153 175 88
167 189 105
152 173 99
156 178 95
153 175 80
164 185 117
162 183 111
159 181 88
161 183 111
161 182 122
158 179 88
151 172 67
150 171 95
160 181 92
155 176 99
154 174 80
153 173 95
162 182 117
155 174 114
150 170 88
152 172 88
159 177 114
153 173 99
153 172 108
152 171 105
148 168 92
154 173 105
150 168 102
156 176 88
144 164 57
147 166 72
137 157 25
137 158 0
129 148 0
132 153 25
133 153 0
135 155 0
143 162 44
132 152 25
127 146 0
136 155 51
124 143 25
131 149 51
131 149 36
118 136 25
129 147 0
123 141 36
131 148 44
121 139 0
126 144 25
120 139 25
135 154 0
127 145 0
121 141 0
112 129 0
103 118 0
100 115 0
95 111 0
96 111 0
101 117 0
105 122 0
108 125 0
107 126 0
114 132 0
117 135 0
120 139 0
118 137 0
111 128 0
122 139 0
112 131 0
116 133 0
116 135 0
108 125 0
98 117 0
119 137 0
110 127 0
97 114 0
97 115 0
119 135 0
107 123 0
89 104 0
101 117 0
98 115 0
105 121 0
96 112 0
103 118 0
101 115 0
99 114 0
114 129 0
95 111 0
95 111 0
93 110 0
102 118 0
85 101 0
98 112 0
89 103 0
77 90 0
91 104 0
98 113 0
108 122 0
88 102 0
95 110 0
91 105 0
88 102 0
101 115 0
75 90 0
75 89 0
97 111 0
89 103 0
89 103 0
88 101 0
91 105 0
95 109 0
86 100 0
77 93 0
90 104 0
96 111 0
82 96 0
101 117 0
93 107 0
105 120 0
92 107 0
102 117 0
96 110 0
94 109 0
86 101 0
89 105 0
96 111 0
106 121 0
95 110 0
86 100 0
98 113 0
90 105 0
101 117 0
107 124 0
115 131 0
104 120 0
113 131 0
114 131 0
100 116 0
107 123 0
101 117 0
112 129 0
114 132 0
115 131 0
118 135 0
107 124 0
123 142 0
123 140 0
124 142 0
104 122 0
113 130 0
125 144 0
112 130 0
115 133 0
104 122 0
114 133 0
116 134 0
125 144 0
115 132 0
114 132 0
114 132 0
123 141 0
128 147 0
120 138 0
120 138 0
127 146 0
127 146 0
117 134 0
121 137 0
125 143 0
129 150 0
125 144 0
127 146 0
125 143 0
126 145 0
120 140 0
122 139 0
137 157 0
127 146 0
142 162 0
140 160 0
143 163 0
135 155 0
143 164 0
132 152 0
143 162 0
138 158 0
141 161 0
139 159 0
141 161 0
147 169 0
145 164 0
146 167 0
142 161 0
146 167 0
146 166 0
139 159 0
142 162 0
140 159 0
146 166 0
146 166 0
142 160 0
143 163 0
144 167 0
133 153 0
149 167 0
147 167 0
142 163 0
143 163 0
154 175 0
145 166 0
153 175 0
144 165 0
155 175 0
148 168 0
157 177 0
146 166 0
148 168 0
150 170 0
149 171 0
153 173 0
150 171 0
150 172 0
151 172 0
151 171 0
157 177 0
149 170 0
154 176 0
159 179 0
157 178 0
159 179 0
153 172 0
152 174 0
148 169 0
157 179 0
156 177 0
154 175 0
153 175 0
157 178 0
160 182 0
153 174 0
155 176 0
151 172 0
154 175 0
161 183 0
158 178 0
158 179 0
158 180 0
153 175 0
160 180 0
155 177 0
159 179 0
153 174 0
150 171 0
159 178 0
164 183 0
163 184 0
161 182 0
159 179 0
161 182 0
160 182 0
161 183 0
153 174 0
159 179 0
159 180 0
160 180 0
163 184 0
163 186 0
160 179 0
158 179 0
161 182 0
161 181 0
160 182 0
164 187 0
166 187 0
160 182 0
160 181 0
165 186 0
166 187 0
164 184 0
163 183 0
157 179 0
162 184 0
168 190 0
166 188 0
162 183 0
162 185 0
162 184 0
161 182 0
164 184 0
168 189 0
165 186 0
161 183 0
165 186 0
167 187 0
164 186 0
165 186 0
166 188 0
163 185 0
162 184 0
165 187 0
163 185 0
162 182 0
158 179 0
161 183 0
163 185 0
168 189 0
175 197 95
174 198 105
176 200 105
174 198 84
178 201 122
174 197 92
175 198 99
177 200 99
176 198 102
170 193 105
176 199 102
174 198 92
176 200 114
172 196 105
174 197 84
172 194 76
171 194 84
165 189 102
168 191 95
166 190 95
176 199 111
173 197 88
173 197 102
168 191 99
172 195 92
170 194 95
165 188 92
171 195 99
171 195 67
168 192 120
172 196 92
171 195 99
169 192 88
173 196 108
169 193 102
169 193 88
171 194 88
169 193 102
165 188 88
169 192 92
174 198 108
168 190 102
164 188 88
165 189 92
165 187 95
162 186 84
170 194 111
164 187 88
169 193 117
172 196 84
165 188 99
169 192 92
170 194 105
161 184 76
166 189 67
169 192 102
169 193 105
167 190 67
172 195 111
167 190 95
166 189 88
167 189 111
163 186 95
164 188 111
160 183 92
174 197 122
166 189 84
161 183 105
165 188 105
165 187 105
164 186 76
161 184 102
164 187 92
166 189 99
165 187 99
165 188 88
164 187 105
165 189 76
164 186 102
159 181 95
163 186 99
155 178 72
165 187 92
155 176 102
160 183 92
159 182 105
165 186 111
153 174 84
173 195 105
166 188 95
163 184 92
162 184 92
164 185 92
155 176 80
152 174 88
160 181 108
160 182 108
164 185 92
156 176 88
156 176 95
158 179 84
157 179 102
160 180 102
160 180 102
152 173 88
150 169 88
160 180 108
154 174 105
163 184 105
152 171 102
160 181 95
146 165 84
154 172 111
159 178 105
156 176 88
152 170 108
157 176 80
150 170 95
158 177 88
146 166 67
136 155 62
143 163 76
146 166 57
132 153 0
131 152 0
138 159 25
141 161 25
141 161 0
143 164 25
132 151 0
143 164 36
132 152 44
122 141 25
138 158 36
129 148 36
129 149 25
127 146 36
127 147 25
117 134 25
114 132 0
131 149 25
117 137 25
124 143 0
129 150 0
119 138 0
121 139 0
117 135 0
113 129 0
112 130 0
98 114 0
110 126 0
100 117 0
99 115 0
113 131 0
113 132 0
120 139 0
107 125 0
129 148 0
107 125 0
115 133 0
116 134 0
105 122 0
115 132 0
101 118 0
108 126 0
108 126 0
121 139 0
97 114 0
104 120 0
106 123 0
112 129 0
103 120 0
111 129 0
89 104 0
96 113 0
103 118 0
106 122 0
100 116 0
111 127 0
100 116 0
88 105 0
98 115 0
92 110 0
101 116 0
95 111 0
90 105 0
99 114 0
92 108 0
92 106 0
103 120 0
95 109 0
89 105 0
89 104 0
86 100 0
80 95 0
83 97 0
100 115 0
102 117 0
88 102 0
86 99 0
86 101 0
97 112 0
96 111 0
94 109 0
78 94 0
86 100 0
87 101 0
100 114 0
96 110 0
99 114 0
74 88 0
94 110 0
98 114 0
108 123 0
102 117 0
96 112 0
82 96 0
105 121 0
99 115 0
107 122 0
101 115 0
99 116 0
100 116 0
108 126 0
115 131 0
105 121 0
102 119 0
105 121 0
104 121 0
98 115 0
108 126 0
116 134 0
110 127 0
112 128 0
106 122 0
100 117 0
116 135 0
115 134 0
113 129 0
112 128 0
118 135 0
106 124 0
108 124 0
108 126 0
107 125 0
112 129 0
120 136 0
118 133 0
113 130 0
122 141 0
104 123 0
123 141 0
115 132 0
134 153 0
118 136 0
134 153 0
124 143 0
130 149 0
122 141 0
124 140 0
131 148 0
131 149 0
129 147 0
138 156 0
136 155 0
127 147 0
129 149 0
137 156 0
136 157 0
131 149 0
134 152 0
148 168 0
135 154 0
135 154 0
137 156 0
137 154 0
134 154 0
131 150 0
132 152 0
141 162 0
145 166 0
138 158 0
142 162 0
137 156 0
143 163 0
142 163 0
135 155 0
143 161 0
142 162 0
142 160 0
146 166 0
142 163 0
150 171 0
143 163 0
147 167 0
141 162 0
147 168 0
148 166 0
137 157 0
143 164 0
149 169 0
144 165 0
148 168 0
149 169 0
139 159 0
151 171 0
147 167 0
149 169 0
148 169 0
153 174 0
151 172 0
153 174 0
153 173 0
156 177 0
153 172 0
153 175 0
161 183 0
153 173 0
155 175 0
149 170 0
156 177 0
155 175 0
157 178 0
148 168 0
150 170 0
160 182 0
151 172 0
156 176 0
153 174 0
159 181 0
155 174 0
154 174 0
154 176 0
159 180 0
158 178 0
151 170 0
159 178 0
155 175 0
159 181 0
156 177 0
160 181 0
152 174 0
159 180 0
155 176 0
163 184 0
151 173 0
158 179 0
158 180 0
160 182 0
155 177 0
154 175 0
162 184 0
163 184 0
157 178 0
157 178 0
160 182 0
163 185 0
159 179 0
164 186 0
161 183 0
164 186 0
160 181 0
162 183 0
165 187 0
164 185 0
166 187 0
166 187 0
165 186 0
164 186 0
159 181 0
165 187 0
163 184 0
163 185 0
163 184 0
166 189 0
159 181 0
164 186 0
161 181 0
161 182 0
165 187 0
160 182 0
163 184 0
162 183 0
161 183 0
166 187 0
166 188 0
159 181 0
171 193 0
166 187 0
165 187 0
161 181 0
163 186 0
165 188 0
168 189 0
164 185 0
162 183 0
165 188 0
168 190 0
161 184 0
166 188 0
174 197 99
175 198 117
176 199 84
178 201 120
174 198 80
174 197 88
173 196 84
168 192 80
176 200 99
173 197 105
175 198 102
170 193 102
170 193 92
173 196 99
174 197 108
170 193 84
171 194 102
170 193 84
173 196 108
174 198 108
175 198 114
174 198 105
171 194 57
168 192 95
173 197 92
175 198 95
175 198 108
168 191 111
166 190 84
169 192 92
165 190 108
169 193 95
173 197 108
170 194 92
172 195 92
168 191 80
167 190 95
171 195 99
170 193 88
167 191 72
167 190 80
170 193 76
164 188 95
175 199 108
168 191 88
170 193 95
168 192 114
165 189 102
165 188 62
169 193 102
170 193 95
162 186 88
165 189 111
170 193 102
166 189 92
167 190 105
171 194 111
165 187 84
164 186 80
162 187 92
165 187 80
161 184 84
167 190 105
166 189 95
166 190 84
166 188 95
167 190 102
159 181 102
161 183 117
170 193 111
166 189 92
164 187 108
163 186 108
160 183 95
170 193 111
159 181 114
163 185 95
165 187 102
158 181 88
160 183 108
159 181 105
164 187 99
161 183 92
169 191 114
157 179 99
162 184 84
161 183 84
167 188 92
161 182 122
155 177 88
162 184 105
160 181 99
159 181 95
161 182 108
163 184 114
158 180 99
162 184 99
167 188 102
165 186 117
156 177 105
161 183 88
157 178 99
158 179 76
156 178 95
155 175 95
155 177 84
158 178 92
164 184 114
156 177 95
150 170 72
156 174 105
161 181 99
160 179 105
161 180 114
150 169 88
157 177 88
161 180 108
146 165 88
155 174 95
153 171 99
143 161 84
143 164 51
135 156 44
149 169 36
150 171 0
136 157 25
139 159 25
130 149 0
136 156 0
134 154 0
143 164 0
134 153 0
135 155 0
138 157 44
123 143 25
131 150 25
131 150 36
123 142 0
121 140 44
118 137 25
119 138 0
111 130 0
115 133 0
135 154 0
128 146 0
124 144 0
121 138 0
111 128 0
104 120 0
94 112 0
97 115 0
109 126 0
113 130 0
123 141 0
116 134 0
111 130 0
118 137 0
130 148 0
138 156 0
113 132 0
117 135 0
120 138 0
113 130 0
108 126 0
107 124 0
115 133 0
109 127 0
107 124 0
117 133 0
106 123 0
104 120 0
107 125 0
108 125 0
98 115 0
109 126 0
113 130 0
94 111 0
88 102 0
100 116 0
102 118 0
97 113 0
103 120 0
96 111 0
81 98 0
100 116 0
99 116 0
84 100 0
90 106 0
80 97 0
95 111 0
101 117 0
100 116 0
103 119 0
83 97 0
95 110 0
92 108 0
105 121 0
93 108 0
94 109 0
103 118 0
94 110 0
111 125 0
102 118 0
93 108 0
78 92 0
95 109 0
86 101 0
93 107 0
91 108 0
105 121 0
103 119 0
101 116 0
99 115 0
106 122 0
95 110 0
110 126 0
87 103 0
96 112 0
97 114 0
101 117 0
103 119 0
98 115 0
90 106 0
91 108 0
98 114 0
104 120 0
110 127 0
111 129 0
99 116 0
108 125 0
121 139 0
98 115 0
112 130 0
107 122 0
117 132 0
118 135 0
118 135 0
121 138 0
108 125 0
115 133 0
118 136 0
124 142 0
114 132 0
111 131 0
116 135 0
122 140 0
115 133 0
117 133 0
123 140 0
124 142 0
131 149 0
101 118 0
124 142 0
130 148 0
120 139 0
129 149 0
121 139 0
120 139 0
134 154 0
125 144 0
119 139 0
123 141 0
139 158 0
122 141 0
137 156 0
131 150 0
125 145 0
131 151 0
130 149 0
134 153 0
136 154 0
132 151 0
133 152 0
135 155 0
140 160 0
131 150 0
137 156 0
137 156 0
141 161 0
138 156 0
134 154 0
146 164 0
143 163 0
143 162 0
156 176 0
137 158 0
130 149 0
145 165 0
147 166 0
136 156 0
146 165 0
141 161 0
142 163 0
144 165 0
150 171 0
148 168 0
148 169 0
148 169 0
143 162 0
148 168 0
151 170 0
149 169 0
145 163 0
146 166 0
150 172 0
159 180 0
152 170 0
156 178 0
151 171 0
147 165 0
152 172 0
156 178 0
153 175 0
151 171 0
149 171 0
148 168 0
153 174 0
153 174 0
151 171 0
159 180 0
158 179 0
151 171 0
150 172 0
152 172 0
159 181 0
145 166 0
155 176 0
157 177 0
152 174 0
147 168 0
155 177 0
156 176 0
162 184 0
161 183 0
152 173 0
160 181 0
155 175 0
153 172 0
156 176 0
151 172 0
150 170 0
166 187 0
158 179 0
160 182 0
159 180 0
156 177 0
162 182 0
159 179 0
155 177 0
156 177 0
161 180 0
160 182 0
162 183 0
161 180 0
158 179 0
159 180 0
159 181 0
162 183 0
162 184 0
159 180 0
162 183 0
161 181 0
162 183 0
163 184 0
156 177 0
162 184 0
163 184 0
164 185 0
163 185 0
162 183 0
167 188 0
160 182 0
160 182 0
160 181 0
163 184 0
166 187 0
163 184 0
164 186 0
159 181 0
164 185 0
167 190 0
162 183 0
161 182 0
161 183 0
164 187 0
165 187 0
166 187 0
163 185 0
161 183 0
161 182 0
165 188 0
165 184 0
166 188 0
168 190 0
163 184 0
170 193 0
164 185 0
161 182 0
164 185 0
168 189 0
175 197 95
175 198 92
177 200 95
170 194 88
174 197 92
177 200 92
176 199 95
175 198 105
178 201 105
172 196 108
172 196 62
176 199 105
171 194 88
176 199 114
171 195 95
175 198 99
169 193 114
174 198 120
173 197 76
173 195 95
166 190 99
170 193 67
172 196 108
172 195 111
173 197 95
172 196 122
171 195 92
169 193 88
171 195 108
170 194 95
173 196 88
173 197 95
166 190 95
166 190 84
170 194 102
168 191 80
167 190 95
167 191 76
172 196 99
171 194 105
169 193 95
168 192 111
166 190 57
166 189 92
168 192 99
168 191 80
165 188 84
162 186 108
168 191 92
169 193 95
168 190 92
171 194 99
169 192 117
170 192 99
165 189 84
166 188 92
166 188 99
166 189 92
166 189 92
166 189 88
172 195 111
162 186 102
169 193 99
166 189 114
171 193 105
165 187 80
165 187 76
162 184 88
162 185 102
168 192 88
165 188 105
162 184 105
162 185 76
159 182 88
165 187 92
163 185 92
160 182 92
163 185 95
164 187 84
165 187 105
159 181 88
156 177 80
164 187 84
168 190 99
164 187 108
164 187 95
156 178 92
159 181 92
169 190 117
167 189 84
161 183 102
153 174 80
155 176 99
161 183 111
159 181 92
150 171 72
161 183 80
152 173 80
156 176 102
156 177 99
155 176 72
153 175 67
159 179 102
157 178 111
152 173 92
160 181 105
159 180 84
167 186 117
149 169 92
159 180 99
156 176 105
156 176 102
153 173 80
166 185 114
153 173 92
149 168 76
151 170 80
150 170 84
156 175 72
151 170 84
139 160 57
144 163 57
146 167 57
133 152 25
155 176 0
144 165 36
142 162 36
135 155 0
131 152 25
131 152 25
136 156 25
126 146 44
121 141 0
125 144 44
124 142 36
118 138 36
130 149 0
133 152 25
128 147 36
129 147 25
122 139 36
130 149 36
131 150 0
129 150 0
128 148 0
118 134 0
128 148 0
115 131 0
111 128 0
114 131 0
101 118 0
113 131 0
110 128 0
109 127 0
125 144 0
123 142 0
118 137 0
120 138 0
125 144 0
118 136 0
117 136 0
117 135 0
104 120 0
112 129 0
123 141 0
102 120 0
109 127 0
109 126 0
107 124 0
100 118 0
114 132 0
108 124 0
102 119 0
110 128 0
106 123 0
106 123 0
114 131 0
104 121 0
91 108 0
110 127 0
97 113 0
100 116 0
103 119 0
94 110 0
99 116 0
101 117 0
105 121 0
112 128 0
107 123 0
94 110 0
88 104 0
93 108 0
105 122 0
98 113 0
90 106 0
90 105 0
101 116 0
98 114 0
106 122 0
95 110 0
87 102 0
91 105 0
107 123 0
95 109 0
96 111 0
95 109 0
94 109 0
95 111 0
101 116 0
92 108 0
103 119 0
97 112 0
99 116 0
84 100 0
103 120 0
105 120 0
90 107 0
98 115 0
88 105 0
106 122 0
108 125 0
101 117 0
99 115 0
108 124 0
105 122 0
103 120 0
104 120 0
107 124 0
115 132 0
121 138 0
107 124 0
119 136 0
108 123 0
104 121 0
113 129 0
121 138 0
113 130 0
111 129 0
107 125 0
117 134 0
121 137 0
122 141 0
112 131 0
127 145 0
117 134 0
123 141 0
123 141 0
125 143 0
128 147 0
107 125 0
126 145 0
127 145 0
122 141 0
125 143 0
111 129 0
114 133 0
122 140 0
124 145 0
134 153 0
122 140 0
143 162 0
133 153 0
142 163 0
137 157 0
125 144 0
121 140 0
134 153 0
135 153 0
128 147 0
132 151 0
134 153 0
136 155 0
145 164 0
140 160 0
138 159 0
150 171 0
137 158 0
137 157 0
137 156 0
147 166 0
130 150 0
139 159 0
142 162 0
133 154 0
139 159 0
149 170 0
142 164 0
144 164 0
137 158 0
150 171 0
147 167 0
147 169 0
152 172 0
147 167 0
151 172 0
150 169 0
149 169 0
147 166 0
148 167 0
148 170 0
145 165 0
145 165 0
143 163 0
151 171 0
147 166 0
147 166 0
152 172 0
152 173 0
147 168 0
148 169 0
151 171 0
152 173 0
154 175 0
154 174 0
152 172 0
160 180 0
151 170 0
150 171 0
152 172 0
149 169 0
151 172 0
151 173 0
157 178 0
155 176 0
159 179 0
157 179 0
155 176 0
154 176 0
153 176 0
155 174 0
159 180 0
161 181 0
158 180 0
156 176 0
157 179 0
158 178 0
161 183 0
155 178 0
160 180 0
159 181 0
158 178 0
157 178 0
161 182 0
150 171 0
158 179 0
156 177 0
156 177 0
160 181 0
165 187 0
162 182 0
157 179 0
159 181 0
164 186 0
163 185 0
157 178 0
155 176 0
162 184 0
160 182 0
153 174 0
160 181 0
159 181 0
164 183 0
160 181 0
158 178 0
159 180 0
162 184 0
163 185 0
163 184 0
158 179 0
163 185 0
162 184 0
156 178 0
164 186 0
164 185 0
162 184 0
163 185 0
160 183 0
159 179 0
163 184 0
162 181 0
160 182 0
161 182 0
165 187 0
164 186 0
166 187 0
168 190 0
168 189 0
166 187 0
165 187 0
167 188 0
166 187 0
166 188 0
164 185 0
167 188 0
169 191 0
162 182 0
170 192 0
162 184 0
164 185 0
163 186 0
176 198 108
175 199 111
172 195 76
175 198 95
173 196 120
168 192 95
177 201 140
174 197 102
171 195 92
176 199 111
175 198 99
165 189 80
176 199 102
174 197 92
173 197 114
177 200 114
172 195 80
173 197 88
169 193 95
169 191 102
169 192 88
174 197 103
173 197 120
163 187 92
166 189 67
165 188 92
174 197 105
163 187 95
173 197 105
172 196 99
168 192 88
166 190 99
169 192 105
171 194 117
169 192 105
174 198 108
170 194 92
171 194 88
164 187 80
164 187 76
168 191 88
171 194 99
169 193 80
167 191 99
172 195 114
167 191 88
169 192 108
169 192 92
165 189 108
169 193 88
173 196 105
162 186 102
164 187 105
170 193 88
163 186 95
161 186 108
163 187 88
168 191 92
168 191 84
166 189 84
164 186 108
155 177 80
166 190 92
167 189 108
164 186 88
162 185 84
164 187 84
166 189 88
161 184 72
165 188 99
160 182 105
166 188 102
163 187 105
166 188 99
162 184 102
165 187 99
157 180 84
161 183 76
162 184 92
154 176 84
160 181 95
164 186 88
172 195 125
153 176 88
162 183 88
162 183 95
161 183 95
166 188 92
158 180 84
153 175 102
169 191 108
165 187 95
159 180 88
161 181 80
156 177 88
161 182 102
166 186 99
158 180 99
164 185 102
163 184 102
155 176 108
167 187 99
166 185 105
160 180 88
160 179 108
157 178 76
157 177 95
154 174 92
156 175 120
151 172 92
151 171 95
159 179 92
154 175 92
148 167 95
145 165 67
156 175 105
143 162 80
156 176 95
154 174 92
143 164 44
145 166 62
146 167 57
141 161 44
144 165 62
145 166 25
142 163 0
139 159 0
139 159 36
148 168 0
129 149 0
141 161 25
142 162 51
134 154 44
138 157 25
138 156 36
134 153 36
129 148 36
121 139 25
126 145 36
127 146 25
120 139 0
131 150 25
121 140 0
127 145 0
137 156 0
131 150 0
114 131 0
117 135 0
114 131 0
108 125 0
112 129 0
107 124 0
115 132 0
121 140 0
128 147 0
130 149 0
109 129 0
113 131 0
117 136 0
121 139 0
105 122 0
102 121 0
111 128 0
122 139 0
124 143 0
117 136 0
114 132 0
104 122 0
109 126 0
108 124 0
119 136 0
99 117 0
102 118 0
105 122 0
118 135 0
99 117 0
105 123 0
111 128 0
99 116 0
108 125 0
103 120 0
110 128 0
100 117 0
102 119 0
106 122 0
86 103 0
101 117 0
88 105 0
90 107 0
99 114 0
96 112 0
99 115 0
115 132 0
92 108 0
100 116 0
94 110 0
106 122 0
87 102 0
100 116 0
91 107 0
99 116 0
102 118 0
91 107 0
86 101 0
103 117 0
90 106 0
100 116 0
81 98 0
101 117 0
90 108 0
102 117 0
106 123 0
100 116 0
92 109 0
103 118 0
106 122 0
104 120 0
98 116 0
90 106 0
102 119 0
112 129 0
116 132 0
109 127 0
101 117 0
103 120 0
105 123 0
113 130 0
104 121 0
115 132 0
108 125 0
112 130 0
92 108 0
112 130 0
115 131 0
110 127 0
113 130 0
121 139 0
105 123 0
130 149 0
123 142 0
117 134 0
126 144 0
110 128 0
109 126 0
116 134 0
120 139 0
118 137 0
128 147 0
124 141 0
124 143 0
125 144 0
117 136 0
115 134 0
127 146 0
137 156 0
121 139 0
131 150 0
128 146 0
128 147 0
127 145 0
137 156 0
144 163 0
127 147 0
129 147 0
137 156 0
136 155 0
141 162 0
137 157 0
130 151 0
135 155 0
136 156 0
137 158 0
134 152 0
133 153 0
136 155 0
138 157 0
138 159 0
136 156 0
142 162 0
142 163 0
133 153 0
144 164 0
134 154 0
139 159 0
132 152 0
139 159 0
138 157 0
142 160 0
140 159 0
140 160 0
140 160 0
144 163 0
146 165 0
138 158 0
144 164 0
146 167 0
143 163 0
147 167 0
146 167 0
141 162 0
150 171 0
152 173 0
149 170 0
150 170 0
149 170 0
148 168 0
150 172 0
142 162 0
159 179 0
153 174 0
154 176 0
153 174 0
154 173 0
154 177 0
148 170 0
151 171 0
149 171 0
152 172 0
151 173 0
153 174 0
150 171 0
149 169 0
156 178 0
159 181 0
153 175 0
157 178 0
152 173 0
159 180 0
159 179 0
151 172 0
159 181 0
152 173 0
161 182 0
163 184 0
159 180 0
159 179 0
158 179 0
152 173 0
156 176 0
156 177 0
154 174 0
154 175 0
157 177 0
161 182 0
161 182 0
157 180 0
164 186 0
162 183 0
160 181 0
161 183 0
160 180 0
160 182 0
159 182 0
159 181 0
164 187 0
158 180 0
159 181 0
161 182 0
156 176 0
165 187 0
160 182 0
160 180 0
165 187 0
156 176 0
158 178 0
158 179 0
164 186 0
160 182 0
165 186 0
164 185 0
164 183 0
162 184 0
160 181 0
162 184 0
165 187 0
163 185 0
163 184 0
165 187 0
158 180 0
167 189 0
163 184 0
164 186 0
164 186 0
167 187 0
164 185 0
166 188 0
167 189 0
164 185 0
158 180 0
162 182 0
165 187 0
162 184 0
167 188 0
166 189 0
168 189 0
163 185 0
161 182 0
166 188 0
169 189 0
165 186 0
178 200 117
170 192 76
175 197 105
175 198 105
175 199 102
171 194 84
172 195 108
174 198 108
168 191 111
172 194 102
176 199 108
171 194 67
170 193 105
177 200 102
173 196 102
171 194 108
172 195 105
172 196 102
172 195 99
171 195 88
171 194 99
172 196 92
171 195 95
172 195 95
170 193 88
175 199 105
165 189 80
167 191 120
167 190 92
167 190 102
169 192 84
165 188 105
168 191 80
170 194 102
173 197 84
174 198 120
169 192 92
167 191 84
170 193 102
166 189 92
164 187 102
167 191 88
170 193 92
172 195 80
169 192 84
168 192 88
167 191 80
165 189 92
170 194 92
169 192 108
169 191 88
175 197 105
168 191 84
163 186 72
167 191 111
172 196 108
167 190 99
167 190 88
167 190 117
164 187 105
164 186 88
168 190 108
164 187 102
164 187 88
165 188 111
166 189 114
161 184 102
165 187 76
162 185 88
166 189 95
163 187 99
160 182 92
161 183 102
166 188 95
162 184 95
170 192 92
161 183 88
166 189 84
155 178 114
157 180 80
161 183 76
161 184 92
165 186 111
168 190 105
152 175 88
164 186 111
166 188 111
163 184 95
154 176 84
158 179 108
159 180 84
160 182 92
157 179 88
164 186 108
158 180 99
157 179 88
158 179 88
157 178 92
157 178 95
159 180 120
156 177 102
159 180 92
157 178 84
160 181 95
156 176 88
164 183 105
157 178 102
162 182 111
157 177 99
156 176 80
151 171 84
153 174 95
153 173 92
152 173 80
150 171 80
153 173 92
150 169 84
143 163 99
149 169 67
150 171 84
148 168 62
142 162 36
139 159 44
145 165 57
139 160 51
131 152 0
141 161 25
136 156 25
138 158 36
136 156 25
130 150 0
130 151 25
127 147 25
133 154 36
129 149 25
132 153 25
135 154 25
127 147 25
118 135 0
131 151 0
134 154 0
132 151 36
118 138 25
127 146 0
130 149 0
107 126 0
123 143 0
117 135 0
110 128 0
115 133 0
113 131 0
107 124 0
117 136 0
124 143 0
119 139 0
114 132 0
118 137 0
118 137 0
119 137 0
124 142 0
124 143 0
111 130 0
108 126 0
122 141 0
121 140 0
115 133 0
100 119 0
113 131 0
115 133 0
109 126 0
111 129 0
108 127 0
111 129 0
101 118 0
114 131 0
99 116 0
108 125 0
114 132 0
109 127 0
109 125 0
117 134 0
109 125 0
116 133 0
97 114 0
100 116 0
98 114 0
101 117 0
110 127 0
96 112 0
99 115 0
91 107 0
107 123 0
94 112 0
107 123 0
94 110 0
106 122 0
96 111 0
103 119 0
102 118 0
100 117 0
97 113 0
96 112 0
103 118 0
104 121 0
86 101 0
92 107 0
101 117 0
102 120 0
96 113 0
97 113 0
98 114 0
89 105 0
108 125 0
105 122 0
93 110 0
99 115 0
99 115 0
111 128 0
103 119 0
118 135 0
102 119 0
103 119 0
86 102 0
109 128 0
109 127 0
97 115 0
111 128 0
118 135 0
105 123 0
103 120 0
125 144 0
122 139 0
105 122 0
123 139 0
111 129 0
113 131 0
103 121 0
119 136 0
120 138 0
115 132 0
118 136 0
124 141 0
123 140 0
116 134 0
123 142 0
132 151 0
134 153 0
127 146 0
125 143 0
130 149 0
120 138 0
128 147 0
131 150 0
134 155 0
134 152 0
129 148 0
128 147 0
128 146 0
124 143 0
131 150 0
136 156 0
126 145 0
132 152 0
136 155 0
138 157 0
134 155 0
131 151 0
137 157 0
129 149 0
132 151 0
138 157 0
132 151 0
134 155 0
141 161 0
138 158 0
149 170 0
133 153 0
149 167 0
141 161 0
130 149 0
142 162 0
140 160 0
143 164 0
126 146 0
138 157 0
151 171 0
144 163 0
139 157 0
145 165 0
149 169 0
146 166 0
151 170 0
140 160 0
150 170 0
151 170 0
149 170 0
152 172 0
144 166 0
142 162 0
149 170 0
152 174 0
147 168 0
153 173 0
145 165 0
156 176 0
153 174 0
146 166 0
151 171 0
148 166 0
147 169 0
149 170 0
156 176 0
150 171 0
155 176 0
153 173 0
146 166 0
152 172 0
152 173 0
151 172 0
158 180 0
162 184 0
152 172 0
154 176 0
156 176 0
153 174 0
153 173 0
153 175 0
157 177 0
151 172 0
156 177 0
152 173 0
158 180 0
159 179 0
157 177 0
156 178 0
160 182 0
152 173 0
157 180 0
159 180 0
158 180 0
158 180 0
158 181 0
153 174 0
157 178 0
157 176 0
158 181 0
156 177 0
158 178 0
157 177 0
159 180 0
157 179 0
164 185 0
159 179 0
164 186 0
161 182 0
165 187 0
164 186 0
163 186 0
158 179 0
163 185 0
159 180 0
160 182 0
156 177 0
160 180 0
161 182 0
164 187 0
167 188 0
163 186 0
156 178 0
165 187 0
165 186 0
167 189 0
159 180 0
162 183 0
165 188 0
164 186 0
166 186 0
161 182 0
163 184 0
161 184 0
166 187 0
163 183 0
162 183 0
160 181 0
165 187 0
160 181 0
164 186 0
164 185 0
163 184 0
166 188 0
162 184 0
162 184 0
168 190 0
160 183 0
165 188 0
167 189 0
164 186 0
168 189 0
166 188 0
165 187 0
169 192 95
177 199 114
171 194 108
171 195 62
178 201 105
175 198 105
172 196 80
170 193 80
169 192 92
171 194 67
170 193 88
175 199 114
175 198 88
170 192 88
171 194 84
168 191 84
175 198 105
172 196 88
168 192 99
169 193 88
171 194 92
170 193 108
168 191 92
174 197 84
167 190 92
169 193 105
174 197 84
175 199 92
171 194 80
171 195 76
172 196 120
170 194 92
169 192 108
168 191 84
168 191 88
169 192 80
170 194 99
167 190 102
165 188 92
167 190 76
173 197 88
172 195 105
170 193 95
164 188 84
163 186 99
168 191 88
169 191 84
168 192 108
172 195 99
170 193 111
167 190 102
169 193 102
171 194 84
164 186 80
164 187 105
168 190 99
168 191 102
173 195 105
165 187 84
168 191 80
165 188 102
163 186 108
171 194 76
168 191 105
164 187 105
167 190 92
157 180 92
162 185 72
165 187 114
160 182 84
171 194 117
166 189 105
167 190 105
169 191 117
165 188 122
167 189 92
162 184 105
156 178 92
168 190 80
165 187 108
165 188 92
163 185 95
162 184 105
163 185 76
158 180 80
154 177 72
160 182 88
165 186 99
155 177 84
171 193 111
161 183 102
165 187 95
166 188 99
165 187 92
167 188 105
158 179 102
164 185 99
154 174 84
163 184 99
158 180 120
160 182 95
157 179 84
153 173 102
154 175 95
153 174 84
153 174 88
157 177 88
149 169 92
169 189 128
160 180 102
157 177 80
157 177 102
157 177 105
146 166 72
155 175 88
151 171 80
153 173 51
158 179 102
157 178 76
154 174 92
144 164 57
155 175 51
147 167 62
148 169 51
136 157 36
141 163 0
140 161 25
148 168 25
140 161 36
135 156 36
150 171 0
135 155 25
130 151 36
141 161 62
135 154 44
132 151 36
145 166 44
127 146 25
139 159 36
120 138 0
126 145 0
122 142 0
130 150 25
134 155 0
133 153 0
127 147 0
102 120 0
120 137 0
114 132 0
127 145 0
121 137 0
118 136 0
121 139 0
128 147 0
129 148 0
123 142 0
122 141 0
117 136 0
122 141 0
123 143 0
121 140 0
121 139 0
120 139 0
116 133 0
121 140 0
109 128 0
100 119 0
107 124 0
111 130 0
121 139 0
112 130 0
107 124 0
118 136 0
122 140 0
123 140 0
108 126 0
104 122 0
104 121 0
113 131 0
104 120 0
106 123 0
112 129 0
117 135 0
106 123 0
110 128 0
102 119 0
113 130 0
109 126 0
108 124 0
106 122 0
107 124 0
113 130 0
100 116 0
99 116 0
107 123 0
95 112 0
91 107 0
94 110 0
112 128 0
97 113 0
106 123 0
93 110 0
99 115 0
95 112 0
109 126 0
107 124 0
112 130 0
115 133 0
109 125 0
109 125 0
98 114 0
84 100 0
104 120 0
115 131 0
100 117 0
113 131 0
107 124 0
107 124 0
98 115 0
104 121 0
103 120 0
113 131 0
126 144 0
99 117 0
113 130 0
109 127 0
113 131 0
105 122 0
108 126 0
108 127 0
119 135 0
113 131 0
108 126 0
121 138 0
118 134 0
115 134 0
132 150 0
132 150 0
121 140 0
133 152 0
115 133 0
109 125 0
119 138 0
122 142 0
139 158 0
118 137 0
116 135 0
126 146 0
125 144 0
128 146 0
124 144 0
127 146 0
131 149 0
135 154 0
123 144 0
125 144 0
131 150 0
122 141 0
133 153 0
131 151 0
132 151 0
125 143 0
139 159 0
133 153 0
137 155 0
138 158 0
140 159 0
127 146 0
129 149 0
131 150 0
140 161 0
134 154 0
135 156 0
135 155 0
137 155 0
135 154 0
133 153 0
133 152 0
138 157 0
143 164 0
137 158 0
148 169 0
139 158 0
141 163 0
147 165 0
141 161 0
152 172 0
144 164 0
152 174 0
141 161 0
147 169 0
147 168 0
144 166 0
148 169 0
147 167 0
148 168 0
148 168 0
144 165 0
140 160 0
151 172 0
145 166 0
143 165 0
154 175 0
149 170 0
152 173 0
149 170 0
151 173 0
155 175 0
156 178 0
158 178 0
150 171 0
149 171 0
149 170 0
159 179 0
153 175 0
146 166 0
151 171 0
149 170 0
152 174 0
153 175 0
146 166 0
155 175 0
154 175 0
156 178 0
152 174 0
155 179 0
154 175 0
154 175 0
159 181 0
163 185 0
156 176 0
154 176 0
155 178 0
159 179 0
163 185 0
151 171 0
164 185 0
163 183 0
154 176 0
162 184 0
163 185 0
163 183 0
155 175 0
164 186 0
154 176 0
162 183 0
161 182 0
157 180 0
161 182 0
160 181 0
158 179 0
165 188 0
155 177 0
159 180 0
161 182 0
162 186 0
161 183 0
161 182 0
164 184 0
159 181 0
165 186 0
165 186 0
158 182 0
162 183 0
167 188 0
167 188 0
162 184 0
160 181 0
162 185 0
162 183 0
161 183 0
161 183 0
165 187 0
163 185 0
167 189 0
157 179 0
162 183 0
161 184 0
162 183 0
163 185 0
169 191 0
165 187 0
162 184 0
165 186 0
170 192 0
164 186 0
165 186 0
169 192 0
168 190 0
163 185 0
160 181 0
161 183 0
170 191 0
160 182 0
168 190 0
167 190 0
163 185 0
164 184 0
165 187 0
166 187 0
178 201 105
175 198 99
171 193 92
168 191 92
174 197 99
173 196 105
174 197 105
172 195 120
176 200 125
172 195 92
168 192 99
169 192 88
177 200 95
172 195 105
173 197 88
174 198 102
172 196 95
171 194 95
169 193 99
167 190 88
170 194 120
172 195 92
173 196 108
170 193 76
168 191 62
173 196 80
168 191 84
172 195 92
170 192 99
170 194 99
171 194 102
169 193 95
173 196 102
168 191 92
173 196 122
170 193 102
172 196 95
167 190 88
172 195 95
168 192 95
171 195 95
166 190 125
172 196 105
171 193 72
170 193 114
169 192 102
169 192 95
170 193 92
167 190 99
167 190 92
167 190 92
166 190 88
166 188 76
161 184 88
167 189 95
165 189 99
172 194 92
167 189 76
166 188 95
168 191 95
173 195 88
170 193 117
169 192 99
169 192 99
169 192 95
161 183 92
167 191 99
166 189 88
165 189 92
161 184 105
163 186 102
164 187 125
166 189 80
157 179 99
162 185 95
167 189 102
162 184 105
161 183 88
165 187 102
166 189 120
162 185 92
153 175 76
166 189 95
162 183 88
168 189 92
161 183 95
165 187 84
156 178 105
159 181 95
160 182 92
165 185 102
164 186 111
162 183 92
161 183 108
159 180 88
158 179 114
164 184 108
164 185 92
160 181 114
164 184 108
163 183 108
163 184 108
159 180 114
154 175 99
147 167 72
160 180 108
150 169 92
157 177 95
158 179 92
157 176 105
153 173 84
160 180 108
152 173 80
160 180 102
154 174 88
159 179 84
153 172 88
146 165 76
156 177 67
155 175 92
153 172 62
145 166 44
138 158 44
139 159 57
137 158 36
141 161 25
138 157 0
153 174 0
140 160 25
143 164 0
138 158 0
134 154 0
133 153 0
140 160 36
133 152 36
133 152 57
135 154 25
126 146 25
117 136 25
135 155 25
136 154 25
132 151 36
123 143 25
144 164 0
136 155 0
133 151 0
126 144 0
131 149 0
112 130 0
110 128 0
118 134 0
104 122 0
128 146 0
126 146 0
129 149 0
121 140 0
125 144 0
117 135 0
120 139 0
129 147 0
131 151 0
128 148 0
122 142 0
126 144 0
115 134 0
127 145 0
109 129 0
128 147 0
115 134 0
106 123 0
108 125 0
112 130 0
104 121 0
108 125 0
105 124 0
111 129 0
115 134 0
110 126 0
99 116 0
112 129 0
107 125 0
102 121 0
108 125 0
108 124 0
99 117 0
108 126 0
101 117 0
111 129 0
106 122 0
112 129 0
116 133 0
112 128 0
105 121 0
95 112 0
103 119 0
100 116 0
101 119 0
100 116 0
115 132 0
99 116 0
94 111 0
103 120 0
106 122 0
113 129 0
101 117 0
115 131 0
104 120 0
110 127 0
110 126 0
100 116 0
110 127 0
89 107 0
100 116 0
117 135 0
103 120 0
99 117 0
109 126 0
104 121 0
108 125 0
103 120 0
110 127 0
115 133 0
106 125 0
105 122 0
121 138 0
118 136 0
102 120 0
108 126 0
120 138 0
119 136 0
112 129 0
111 129 0
116 134 0
121 139 0
120 138 0
116 133 0
128 146 0
120 138 0
120 140 0
113 131 0
132 152 0
112 130 0
111 128 0
124 142 0
124 143 0
123 141 0
119 138 0
115 134 0
130 150 0
123 141 0
135 154 0
129 148 0
126 146 0
124 143 0
128 147 0
122 141 0
130 149 0
131 149 0
124 144 0
132 151 0
131 151 0
129 149 0
135 155 0
134 153 0
136 155 0
128 148 0
136 154 0
138 157 0
131 151 0
142 162 0
132 151 0
134 155 0
136 157 0
143 163 0
137 157 0
137 157 0
138 159 0
141 162 0
135 156 0
136 157 0
144 164 0
141 163 0
130 149 0
139 161 0
149 171 0
151 173 0
135 156 0
141 161 0
149 168 0
146 166 0
147 169 0
146 166 0
151 172 0
156 178 0
152 172 0
153 173 0
149 169 0
148 169 0
155 174 0
148 169 0
152 173 0
145 164 0
141 162 0
146 167 0
143 164 0
141 163 0
146 166 0
152 172 0
150 171 0
142 162 0
148 168 0
151 172 0
153 175 0
159 181 0
152 173 0
157 179 0
151 173 0
143 163 0
155 176 0
152 173 0
153 172 0
159 182 0
155 176 0
156 177 0
156 179 0
155 176 0
164 186 0
152 172 0
157 179 0
156 177 0
156 177 0
160 180 0
151 171 0
161 183 0
153 175 0
154 175 0
152 174 0
161 183 0
153 172 0
160 181 0
156 178 0
159 181 0
161 182 0
154 175 0
154 174 0
154 175 0
158 179 0
157 179 0
160 179 0
165 187 0
159 181 0
160 180 0
159 179 0
165 187 0
161 183 0
164 186 0
166 186 0
164 187 0
161 184 0
161 183 0
160 180 0
161 183 0
165 185 0
160 183 0
159 181 0
164 186 0
161 183 0
163 185 0
164 185 0
166 187 0
163 185 0
168 190 0
165 186 0
161 183 0
165 187 0
163 185 0
164 186 0
162 182 0
162 184 0
165 186 0
162 183 0
163 183 0
162 183 0
163 184 0
167 189 0
168 189 0
165 186 0
167 190 0
166 190 0
164 185 0
162 184 0
165 188 0
163 186 0
165 187 0
161 182 0
162 183 0
161 182 0
165 187 0
169 191 0
166 187 0
174 197 95
175 197 88
175 197 105
173 197 84
176 199 108
169 192 99
169 192 95
176 198 102
173 195 108
173 196 95
170 194 92
174 197 102
173 197 99
170 193 99
170 194 76
174 197 99
173 196 102
172 195 105
170 193 102
172 195 84
169 193 105
167 190 76
172 195 111
179 202 111
170 193 84
167 191 95
167 190 84
172 195 102
174 196 95
167 191 84
170 193 72
170 194 84
173 196 114
169 193 102
172 195 99
168 191 76
168 192 88
168 190 88
168 191 95
164 186 62
167 190 95
166 189 88
170 194 114
172 195 105
170 193 80
171 195 102
168 191 111
163 186 92
168 191 67
168 191 95
164 187 95
168 192 105
169 192 99
169 194 108
166 189 108
169 191 105
167 191 92
159 182 95
166 190 95
153 176 84
163 185 92
164 186 76
164 187 95
165 187 84
162 185 95
165 188 88
167 191 108
166 188 88
158 180 88
158 180 84
166 188 76
165 188 99
168 190 95
167 190 76
165 187 80
166 188 92
165 187 84
163 186 111
165 187 84
158 179 95
160 183 92
167 189 105
153 175 80
163 185 95
159 181 102
159 181 80
168 190 111
156 178 76
158 179 92
156 178 95
161 182 84
155 177 88
156 178 88
162 183 88
159 180 92
159 180 80
164 186 84
165 186 105
154 175 84
157 180 84
157 178 84
163 183 108
164 185 114
156 177 92
168 188 108
164 185 95
151 172 88
145 166 80
153 174 95
156 176 88
163 183 108
148 169 80
155 176 88
150 170 72
152 173 76
148 168 67
152 173 72
142 163 57
160 181 84
154 175 76
150 170 76
153 172 76
148 170 44
150 170 57
139 161 36
151 173 25
142 163 25
136 155 0
142 162 0
142 162 0
134 154 0
136 156 25
136 157 25
133 153 25
136 156 62
134 155 0
138 158 36
119 138 25
125 146 0
139 159 44
131 150 25
142 162 36
145 166 25
143 163 0
127 147 0
126 146 0
121 139 0
122 140 0
122 140 0
116 135 0
104 124 0
120 139 0
124 144 0
133 152 0
126 145 0
121 140 0
127 146 0
120 139 0
122 143 0
125 144 0
110 130 0
123 141 0
120 138 0
118 137 0
126 146 0
124 142 0
119 138 0
113 132 0
121 139 0
116 133 0
107 126 0
115 132 0
121 139 0
110 128 0
113 131 0
111 128 0
109 127 0
104 123 0
104 122 0
110 128 0
109 127 0
118 136 0
110 128 0
119 137 0
111 129 0
107 125 0
117 134 0
107 125 0
109 125 0
113 130 0
107 125 0
100 116 0
97 113 0
108 125 0
109 127 0
106 124 0
112 130 0
102 119 0
110 127 0
113 130 0
103 121 0
110 127 0
99 114 0
112 129 0
102 118 0
108 125 0
111 128 0
111 128 0
111 127 0
120 136 0
113 131 0
101 118 0
102 119 0
118 135 0
114 131 0
112 129 0
113 132 0
120 138 0
108 127 0
108 125 0
109 128 0
106 123 0
119 136 0
114 132 0
120 137 0
119 137 0
109 128 0
113 131 0
101 118 0
108 124 0
119 139 0
124 143 0
120 137 0
119 135 0
117 135 0
119 136 0
120 138 0
121 139 0
122 142 0
123 141 0
120 138 0
118 137 0
120 138 0
124 143 0
119 137 0
121 141 0
127 146 0
128 148 0
133 150 0
127 145 0
124 142 0
115 134 0
131 151 0
131 150 0
136 153 0
132 151 0
138 157 0
126 146 0
133 152 0
133 153 0
137 158 0
133 153 0
132 151 0
134 153 0
130 150 0
124 142 0
131 151 0
143 163 0
131 151 0
145 166 0
128 147 0
132 153 0
140 161 0
133 153 0
139 160 0
136 157 0
146 166 0
139 159 0
136 156 0
143 164 0
145 167 0
149 170 0
151 172 0
143 165 0
141 161 0
146 167 0
150 171 0
146 167 0
143 163 0
138 159 0
136 156 0
143 163 0
141 161 0
136 156 0
146 165 0
148 169 0
150 169 0
148 170 0
145 166 0
147 167 0
141 162 0
154 176 0
144 166 0
153 172 0
149 170 0
154 175 0
146 167 0
150 170 0
155 176 0
149 170 0
145 163 0
153 174 0
145 166 0
145 164 0
153 174 0
148 168 0
154 175 0
158 180 0
160 182 0
150 172 0
153 174 0
160 180 0
152 173 0
149 170 0
156 177 0
161 182 0
155 176 0
148 169 0
160 181 0
160 182 0
159 181 0
161 182 0
163 184 0
154 176 0
156 177 0
161 182 0
153 174 0
158 178 0
154 176 0
159 182 0
157 177 0
156 178 0
157 178 0
160 180 0
163 184 0
162 184 0
161 183 0
159 179 0
159 179 0
157 179 0
158 180 0
159 180 0
161 183 0
160 181 0
159 181 0
166 188 0
163 184 0
166 189 0
168 191 0
163 185 0
162 185 0
164 186 0
168 189 0
161 183 0
159 180 0
161 182 0
157 178 0
158 180 0
165 188 0
169 189 0
163 185 0
165 186 0
162 183 0
168 191 0
170 193 0
161 181 0
161 184 0
162 184 0
168 190 0
156 179 0
164 187 0
161 184 0
166 188 0
166 186 0
164 186 0
167 189 0
162 186 0
167 188 0
167 188 0
165 187 0
165 188 0
165 186 0
162 184 0
168 188 0
162 184 0
171 191 0
170 193 0
166 188 0
166 188 0
167 188 0
177 201 108
176 199 108
173 196 80
176 199 102
171 195 95
173 196 84
174 197 102
168 191 99
172 195 108
169 192 67
171 194 80
176 199 72
173 197 95
171 194 80
172 196 102
174 197 88
169 192 88
175 199 92
172 196 88
169 192 88
173 197 105
169 192 92
172 195 95
171 194 99
168 191 84
168 191 84
175 198 95
171 194 105
167 191 92
168 191 76
167 190 95
175 198 99
167 191 72
169 192 88
170 193 84
168 191 88
168 191 88
169 192 105
172 195 108
173 197 105
167 189 76
166 189 84
169 193 102
162 186 76
172 194 88
167 191 84
164 188 95
166 188 95
166 188 108
170 193 111
168 191 80
168 190 102
169 192 92
165 188 88
166 189 102
165 189 84
169 192 122
165 188 117
161 184 88
161 184 84
165 187 114
163 185 88
171 194 84
171 194 92
168 190 105
161 184 80
172 194 105
163 185 84
163 186 95
163 185 99
168 191 92
167 189 84
171 193 120
163 186 88
164 187 120
163 185 88
157 179 99
171 193 108
165 188 88
166 188 114
172 194 117
164 185 99
165 186 99
163 186 95
165 186 88
162 184 72
160 183 114
159 180 95
159 180 105
160 183 88
161 181 102
163 185 80
157 178 88
156 178 95
160 182 105
159 180 95
166 187 114
155 176 95
168 189 102
157 178 88
166 188 99
167 187 111
160 181 105
161 182 99
157 177 105
156 175 92
158 179 88
156 176 99
164 184 117
159 179 76
157 177 114
157 177 105
151 173 72
157 176 92
158 178 76
155 176 80
156 175 76
150 171 80
161 181 62
145 165 76
149 169 57
144 165 57
149 168 57
142 163 44
141 162 25
148 169 36
133 153 0
144 164 0
145 165 36
139 160 0
144 164 36
136 157 25
137 157 25
143 164 44
131 151 25
138 158 25
135 155 0
135 156 44
133 154 44
136 156 25
138 159 25
128 148 36
139 160 0
136 156 0
142 163 0
125 144 0
122 142 0
124 143 0
114 133 0
128 147 0
118 138 0
120 138 0
124 143 0
124 144 0
120 140 0
130 150 0
123 142 0
119 138 0
134 153 0
116 134 0
120 139 0
113 133 0
109 128 0
122 140 0
120 138 0
123 142 0
120 138 0
118 138 0
111 130 0
125 143 0
109 127 0
128 146 0
110 129 0
112 129 0
110 128 0
115 133 0
103 120 0
102 120 0
110 127 0
109 127 0
118 136 0
113 131 0
108 126 0
109 127 0
109 126 0
105 122 0
106 125 0
104 120 0
102 120 0
116 133 0
101 118 0
110 127 0
104 122 0
103 122 0
103 120 0
120 137 0
113 132 0
109 126 0
104 122 0
110 128 0
105 122 0
108 125 0
115 132 0
105 122 0
110 128 0
106 123 0
111 128 0
103 120 0
118 137 0
109 125 0
119 136 0
108 125 0
111 127 0
105 121 0
100 118 0
110 127 0
123 141 0
118 135 0
121 137 0
119 137 0
123 141 0
125 144 0
123 140 0
109 127 0
116 135 0
114 132 0
118 136 0
123 141 0
130 148 0
125 143 0
115 133 0
110 129 0
127 145 0
108 127 0
112 130 0
116 135 0
135 154 0
122 140 0
124 143 0
123 143 0
119 138 0
117 136 0
119 137 0
129 148 0
129 149 0
129 148 0
126 144 0
139 160 0
123 143 0
126 145 0
126 146 0
137 156 0
126 145 0
126 145 0
127 146 0
137 156 0
139 158 0
130 149 0
126 146 0
140 161 0
129 149 0
132 152 0
133 152 0
140 159 0
131 151 0
141 160 0
131 152 0
131 150 0
139 160 0
134 155 0
142 162 0
144 165 0
137 157 0
140 160 0
140 160 0
144 165 0
138 159 0
142 163 0
140 160 0
141 160 0
144 165 0
149 171 0
146 167 0
146 165 0
145 165 0
147 167 0
141 162 0
136 157 0
141 162 0
154 174 0
137 158 0
144 165 0
148 169 0
152 172 0
147 167 0
145 166 0
144 164 0
146 166 0
151 171 0
149 171 0
146 168 0
146 165 0
149 170 0
148 168 0
152 170 0
152 174 0
151 172 0
150 172 0
156 176 0
149 170 0
152 173 0
155 177 0
147 168 0
149 171 0
156 178 0
155 177 0
152 173 0
155 177 0
154 174 0
151 172 0
156 176 0
155 175 0
157 178 0
160 180 0
154 175 0
158 179 0
158 178 0
150 171 0
154 174 0
155 177 0
157 179 0
156 176 0
156 176 0
159 178 0
154 176 0
156 178 0
160 182 0
161 183 0
153 173 0
160 180 0
159 181 0
160 181 0
163 184 0
161 183 0
163 185 0
154 174 0
161 183 0
162 184 0
162 185 0
157 178 0
153 172 0
158 179 0
157 178 0
160 181 0
161 182 0
160 181 0
164 185 0
162 185 0
162 184 0
158 179 0
161 183 0
162 184 0
160 180 0
155 177 0
159 180 0
160 182 0
165 187 0
165 186 0
156 177 0
167 188 0
160 182 0
159 180 0
168 189 0
161 184 0
163 184 0
165 185 0
162 186 0
169 190 0
164 187 0
165 188 0
166 188 0
163 185 0
166 188 0
166 188 0
166 188 0
162 182 0
167 190 0
165 187 0
162 183 0
166 187 0
164 184 0
164 186 0
161 183 0
164 185 0
165 187 0
166 188 0
168 190 0
167 187 0
167 190 0
166 188 0
174 196 114
177 200 108
173 196 84
175 198 99
173 196 88
176 198 111
176 199 105
174 197 99
176 199 114
173 196 92
178 200 111
173 197 92
171 194 92
172 194 88
171 194 76
170 193 92
173 196 88
172 196 105
170 193 80
167 190 80
176 199 105
172 195 102
166 190 92
171 194 92
171 195 95
169 192 102
173 196 99
170 194 102
173 197 95
170 193 84
171 194 84
169 192 76
172 195 84
170 193 99
172 195 88
172 195 102
169 191 92
173 196 108
171 194 102
166 189 108
168 192 114
164 188 76
168 191 88
167 189 88
166 190 88
169 192 99
168 191 92
168 190 102
165 188 92
168 190 99
164 187 92
166 189 99
174 197 128
166 188 102
168 190 99
164 187 84
167 190 111
166 189 108
169 192 105
168 192 111
162 185 95
164 187 92
168 191 92
165 188 80
169 192 111
167 190 99
166 189 88
167 189 105
165 188 108
164 185 80
161 183 95
166 189 99
162 185 99
162 186 120
164 187 102
158 179 102
162 184 84
161 184 76
167 189 99
160 182 95
159 181 92
162 184 108
163 186 105
164 186 102
162 184 88
169 190 99
164 185 117
164 186 95
155 178 76
164 186 114
163 184 102
169 191 99
161 181 92
165 186 114
162 182 99
161 183 95
168 189 99
163 184 102
160 180 80
157 178 76
166 186 125
161 182 111
151 172 67
164 185 95
163 184 108
160 180 105
161 182 99
158 177 114
157 178 92
154 175 67
151 172 62
160 181 92
150 171 44
149 169 84
144 166 76
159 179 67
151 170 57
149 168 72
143 164 67
150 171 76
156 176 76
149 169 51
143 163 44
146 166 51
138 159 36
138 158 0
141 161 0
141 163 36
143 163 0
138 159 36
142 163 25
140 161 36
135 155 0
135 156 36
127 148 0
137 157 57
133 153 0
124 144 0
131 151 25
132 152 25
132 152 44
144 163 25
134 154 0
125 145 0
133 154 0
126 145 0
131 151 0
126 145 0
117 136 0
109 129 0
116 135 0
122 141 0
132 152 0
128 148 0
129 148 0
130 148 0
132 151 0
129 148 0
130 149 0
125 144 0
132 151 0
129 148 0
131 150 0
118 136 0
126 144 0
130 148 0
130 149 0
118 137 0
114 133 0
120 138 0
116 134 0
114 132 0
113 131 0
118 136 0
115 133 0
120 138 0
113 132 0
120 139 0
110 128 0
117 135 0
119 137 0
127 145 0
115 134 0
120 137 0
109 127 0
111 129 0
106 124 0
103 120 0
113 131 0
113 131 0
111 128 0
104 121 0
111 129 0
106 124 0
102 119 0
116 134 0
110 128 0
96 113 0
107 124 0
110 126 0
109 127 0
117 134 0
120 138 0
116 134 0
107 125 0
118 135 0
110 129 0
110 128 0
115 132 0
108 127 0
109 127 0
110 127 0
115 134 0
110 128 0
113 131 0
95 111 0
109 127 0
122 141 0
117 135 0
117 135 0
119 137 0
110 129 0
127 145 0
112 131 0
121 140 0
120 137 0
119 137 0
128 147 0
121 140 0
119 137 0
113 131 0
123 142 0
134 152 0
124 141 0
115 132 0
122 141 0
120 139 0
123 142 0
125 143 0
132 151 0
120 137 0
132 150 0
125 143 0
127 147 0
128 147 0
132 150 0
116 134 0
127 146 0
125 144 0
131 149 0
134 151 0
125 143 0
133 152 0
132 152 0
131 150 0
131 150 0
130 149 0
140 160 0
131 151 0
131 150 0
131 151 0
137 156 0
139 160 0
135 157 0
134 154 0
143 164 0
135 155 0
133 153 0
140 160 0
139 160 0
141 161 0
141 160 0
141 162 0
141 161 0
136 156 0
134 154 0
145 165 0
140 160 0
149 171 0
145 165 0
137 157 0
143 163 0
138 157 0
139 158 0
145 167 0
145 166 0
143 164 0
142 162 0
153 174 0
138 158 0
145 166 0
147 167 0
143 165 0
151 172 0
153 174 0
139 159 0
156 175 0
139 160 0
150 172 0
144 163 0
145 165 0
145 166 0
147 168 0
153 176 0
153 174 0
148 169 0
159 179 0
150 173 0
148 170 0
154 174 0
153 173 0
147 168 0
156 177 0
145 165 0
155 178 0
154 176 0
156 178 0
154 175 0
151 171 0
159 179 0
152 173 0
149 171 0
148 169 0
162 183 0
154 174 0
158 179 0
154 176 0
151 172 0
161 183 0
162 183 0
157 179 0
156 177 0
150 172 0
156 178 0
156 179 0
153 173 0
159 180 0
159 180 0
154 173 0
155 176 0
153 175 0
159 180 0
164 187 0
163 185 0
159 181 0
157 177 0
159 181 0
159 180 0
154 175 0
157 177 0
159 181 0
166 188 0
159 181 0
159 179 0
158 178 0
162 185 0
163 187 0
162 184 0
160 182 0
167 188 0
163 185 0
162 183 0
161 183 0
165 186 0
160 181 0
166 189 0
161 182 0
166 188 0
161 183 0
159 180 0
163 184 0
160 183 0
163 185 0
161 183 0
160 182 0
168 190 0
163 186 0
156 177 0
159 181 0
165 187 0
169 190 0
162 184 0
167 190 0
159 181 0
164 186 0
165 186 0
169 191 0
166 188 0
161 182 0
164 184 0
168 188 0
163 186 0
167 189 0
166 188 0
168 190 0
165 188 0
167 190 0
167 189 0
167 189 0
165 187 0
174 197 88
176 199 108
177 199 105
176 199 105
172 194 88
172 195 95
172 195 88
172 195 72
175 199 92
169 193 95
173 197 105
174 198 92
172 195 111
171 194 95
166 189 84
172 195 108
172 195 76
168 193 92
175 198 84
174 197 92
170 194 88
170 193 92
174 198 102
174 197 88
169 193 111
173 195 108
167 190 76
173 197 108
174 197 102
170 194 84
172 195 108
173 196 102
173 195 105
167 191 108
172 196 102
168 191 80
167 190 84
174 197 102
165 188 95
165 188 88
168 192 105
166 190 76
166 189 92
169 192 111
168 192 95
172 195 114
168 192 102
165 189 92
168 192 108
169 193 95
164 188 102
168 191 72
162 186 95
168 192 99
167 190 80
169 191 80
161 183 84
160 182 80
172 195 102
167 189 108
164 187 67
171 194 111
160 183 99
166 188 102
169 190 99
165 188 95
162 185 111
162 186 99
170 193 108
161 184 111
165 187 95
168 191 102
163 186 88
164 187 105
167 190 117
160 182 92
166 188 88
162 185 99
159 181 80
161 183 102
165 188 111
163 185 88
167 189 95
167 188 105
165 187 99
160 181 88
170 191 125
166 188 80
169 190 102
163 184 99
159 181 117
164 185 108
157 178 108
159 181 99
166 186 108
163 183 108
156 177 102
156 178 72
152 173 95
152 172 105
156 178 108
159 180 99
168 188 125
163 184 95
167 187 111
160 181 92
154 175 84
154 174 102
158 180 84
151 172 76
154 175 80
167 188 105
158 179 92
152 172 51
151 172 67
157 178 62
152 172 72
147 168 76
150 170 62
147 167 72
154 174 84
155 176 67
150 170 51
148 168 62
138 159 25
147 168 25
150 171 44
137 159 0
140 160 36
134 154 44
140 160 36
135 156 44
143 163 36
145 165 36
133 154 25
138 159 44
132 153 0
140 160 0
131 150 25
134 153 51
136 157 36
136 157 36
138 159 0
138 160 0
131 150 0
133 152 0
129 149 0
125 144 0
123 141 0
126 145 0
122 141 0
118 137 0
138 158 0
124 144 0
133 154 0
121 141 0
123 142 0
121 140 0
125 144 0
126 146 0
116 135 0
114 134 0
129 147 0
124 143 0
115 133 0
121 140 0
126 145 0
142 160 0
123 143 0
125 143 0
111 131 0
101 120 0
131 150 0
110 130 0
116 135 0
125 145 0
126 144 0
125 143 0
114 132 0
120 139 0
114 131 0
121 139 0
112 131 0
117 134 0
113 130 0
106 123 0
113 132 0
105 123 0
113 131 0
116 134 0
112 130 0
100 118 0
117 135 0
114 132 0
94 113 0
113 130 0
113 131 0
115 133 0
116 134 0
105 122 0
122 139 0
114 132 0
106 125 0
108 126 0
102 120 0
116 133 0
122 140 0
103 122 0
106 123 0
113 132 0
118 137 0
110 128 0
121 139 0
120 138 0
106 124 0
107 125 0
116 133 0
113 131 0
114 131 0
125 143 0
124 143 0
118 136 0
130 149 0
125 145 0
131 150 0
113 133 0
108 127 0
121 139 0
113 131 0
103 119 0
120 138 0
125 143 0
124 142 0
123 140 0
130 149 0
123 143 0
111 130 0
117 136 0
122 142 0
120 139 0
124 143 0
125 145 0
131 151 0
126 146 0
128 147 0
129 147 0
130 149 0
133 152 0
143 162 0
134 154 0
126 145 0
136 155 0
132 153 0
131 151 0
128 147 0
129 149 0
127 147 0
130 149 0
135 155 0
143 163 0
136 156 0
147 166 0
131 150 0
135 156 0
141 162 0
133 154 0
132 150 0
128 149 0
140 160 0
143 162 0
136 156 0
129 149 0
148 169 0
143 163 0
139 160 0
139 160 0
147 167 0
148 168 0
147 168 0
152 173 0
141 163 0
139 160 0
148 169 0
148 168 0
135 156 0
152 173 0
145 165 0
151 172 0
141 161 0
144 165 0
150 170 0
143 163 0
150 171 0
151 171 0
151 170 0
149 171 0
142 164 0
153 173 0
151 173 0
143 165 0
153 174 0
145 167 0
158 180 0
150 170 0
153 174 0
150 171 0
145 165 0
150 172 0
155 177 0
148 169 0
150 171 0
158 180 0
154 175 0
155 177 0
155 178 0
148 170 0
153 173 0
156 176 0
150 172 0
157 178 0
153 174 0
156 176 0
159 180 0
152 174 0
162 184 0
155 177 0
161 183 0
159 177 0
156 179 0
156 177 0
150 172 0
157 178 0
162 181 0
160 181 0
159 179 0
159 181 0
157 178 0
160 181 0
164 187 0
157 180 0
160 182 0
161 181 0
158 180 0
162 183 0
155 176 0
159 181 0
160 183 0
166 186 0
161 185 0
162 184 0
161 183 0
159 181 0
157 178 0
169 191 0
164 187 0
163 184 0
159 179 0
156 177 0
159 181 0
160 180 0
164 185 0
160 181 0
157 179 0
158 177 0
164 186 0
161 181 0
160 182 0
162 183 0
164 187 0
164 185 0
163 184 0
165 187 0
165 187 0
164 184 0
165 187 0
165 187 0
168 190 0
169 190 0
163 187 0
163 185 0
163 185 0
165 187 0
162 183 0
162 185 0
163 185 0
160 181 0
164 186 0
162 184 0
166 188 0
164 187 0
163 185 0
166 188 0
165 187 0
165 187 0
166 190 0
168 190 0
165 187 0
161 183 0
167 190 0
167 189 0
172 195 84
172 195 105
176 198 99
175 198 92
172 193 62
173 196 84
175 198 105
175 197 111
174 197 95
169 192 95
171 194 99
174 197 111
175 198 120
170 194 99
172 196 117
173 196 92
175 198 102
174 197 114
174 197 108
168 191 76
174 197 114
172 196 105
174 197 110
174 198 92
172 195 105
168 192 92
172 194 102
165 188 88
172 195 62
168 192 92
172 196 114
166 188 76
167 190 84
173 196 102
169 192 105
172 194 84
169 192 102
168 193 105
171 194 95
166 190 88
170 193 95
166 189 84
172 196 117
166 189 76
164 188 76
165 188 84
167 189 67
171 193 92
170 193 102
164 187 84
170 193 92
173 196 114
163 186 92
166 189 92
170 193 108
167 190 114
161 184 108
173 196 105
168 192 102
166 188 92
168 191 114
171 194 99
166 188 99
169 191 102
164 187 76
164 188 76
171 194 114
162 185 92
158 180 102
165 187 67
169 191 105
170 190 102
168 192 102
167 188 99
165 187 99
163 185 99
163 186 99
163 186 99
163 185 99
159 181 80
159 181 84
155 177 88
162 183 84
163 186 76
155 176 92
156 177 92
164 186 99
154 175 88
164 186 102
161 183 108
161 183 99
167 188 95
165 186 105
159 180 84
158 180 95
162 182 95
162 184 88
151 172 95
155 175 92
161 182 99
156 178 80
165 185 102
164 184 114
162 182 95
154 174 105
152 173 80
163 184 95
159 179 105
160 182 72
152 173 76
158 179 72
150 170 88
157 178 84
158 179 84
149 170 67
145 167 62
152 174 67
150 171 72
155 177 51
145 166 44
149 169 62
152 174 76
147 168 44
152 173 57
141 160 62
150 171 0
142 163 0
141 162 25
138 159 25
146 165 25
148 170 25
148 169 0
137 156 0
131 152 25
133 152 36
147 169 25
140 162 25
133 153 25
143 163 25
131 152 36
142 162 25
136 156 36
141 163 0
133 154 0
124 143 0
119 141 0
126 146 0
127 146 0
127 147 0
125 145 0
115 133 0
132 152 0
124 142 0
125 145 0
126 145 0
131 150 0
132 153 0
130 151 0
127 147 0
124 144 0
125 144 0
120 141 0
135 154 0
129 148 0
128 146 0
117 137 0
126 146 0
126 146 0
128 148 0
125 144 0
108 127 0
106 123 0
117 136 0
116 135 0
119 137 0
125 144 0
106 124 0
118 137 0
112 130 0
110 128 0
107 125 0
121 140 0
118 136 0
123 142 0
118 135 0
112 130 0
126 144 0
111 129 0
107 126 0
105 122 0
118 135 0
125 142 0
114 132 0
125 143 0
115 134 0
111 130 0
107 124 0
122 140 0
115 133 0
115 133 0
120 138 0
118 136 0
102 119 0
112 130 0
104 121 0
109 126 0
112 130 0
125 144 0
118 136 0
113 130 0
119 137 0
120 138 0
109 127 0
118 136 0
116 134 0
126 146 0
125 145 0
113 131 0
122 143 0
110 130 0
116 134 0
120 138 0
121 139 0
108 126 0
120 139 0
111 130 0
122 141 0
119 137 0
119 138 0
122 139 0
117 136 0
115 134 0
114 132 0
116 136 0
118 137 0
116 135 0
121 140 0
118 137 0
125 144 0
132 153 0
126 145 0
133 153 0
133 152 0
123 143 0
123 141 0
128 148 0
142 161 0
141 159 0
132 152 0
129 150 0
125 143 0
130 148 0
136 157 0
130 150 0
138 157 0
135 155 0
129 148 0
128 148 0
139 158 0
131 151 0
135 155 0
135 155 0
137 159 0
139 158 0
145 164 0
139 159 0
141 161 0
137 157 0
136 155 0
136 155 0
136 156 0
134 153 0
138 158 0
140 160 0
144 164 0
145 165 0
140 158 0
138 158 0
136 157 0
142 163 0
144 165 0
138 159 0
137 157 0
142 162 0
143 164 0
141 161 0
148 169 0
154 176 0
142 163 0
157 179 0
142 162 0
146 167 0
148 168 0
148 169 0
145 166 0
144 164 0
144 166 0
149 169 0
153 173 0
150 170 0
150 171 0
152 172 0
153 175 0
151 172 0
154 174 0
156 176 0
140 160 0
158 178 0
156 178 0
158 177 0
145 164 0
153 175 0
154 175 0
157 179 0
151 172 0
157 178 0
154 176 0
158 180 0
152 172 0
151 173 0
150 170 0
152 173 0
153 173 0
159 180 0
152 173 0
155 176 0
157 179 0
153 173 0
153 173 0
154 175 0
158 177 0
160 181 0
155 177 0
154 176 0
156 178 0
163 186 0
162 184 0
155 176 0
156 178 0
155 176 0
159 180 0
160 182 0
155 176 0
166 189 0
165 186 0
158 181 0
161 182 0
155 176 0
160 182 0
160 181 0
166 188 0
160 182 0
160 181 0
161 183 0
161 182 0
164 186 0
161 184 0
157 179 0
157 178 0
162 182 0
162 184 0
166 188 0
161 183 0
165 187 0
162 184 0
162 184 0
167 188 0
165 186 0
162 185 0
163 184 0
162 183 0
162 186 0
166 188 0
161 183 0
164 183 0
166 186 0
167 188 0
161 182 0
162 184 0
165 187 0
160 183 0
162 185 0
163 184 0
166 188 0
161 183 0
161 184 0
164 184 0
161 184 0
167 189 0
165 188 0
161 183 0
165 187 0
165 186 0
166 187 0
162 182 0
168 190 0
163 186 0
166 187 0
166 189 0
170 193 0
174 197 105
168 190 80
174 197 92
176 199 99
176 199 99
172 195 76
170 192 84
169 193 80
172 195 92
167 190 92
169 193 84
176 199 102
176 199 105
172 195 72
170 193 105
172 195 92
172 194 76
174 197 99
172 195 80
173 196 84
171 194 95
167 191 92
175 198 108
175 197 102
171 195 99
171 194 84
172 195 102
171 195 120
167 191 122
170 193 99
172 194 92
169 193 105
172 194 95
166 190 95
171 194 84
171 194 105
171 194 117
168 190 95
168 191 92
164 187 80
170 192 88
173 196 102
171 194 125
169 192 76
173 196 102
164 187 84
172 195 105
164 187 84
172 197 125
167 190 88
169 192 108
165 189 84
168 190 84
165 189 95
163 186 84
164 188 105
166 189 99
159 182 95
170 193 114
163 185 84
168 190 92
168 190 92
171 195 102
167 190 102
165 188 108
164 187 117
170 193 88
172 194 88
162 183 105
169 191 92
169 192 111
169 191 102
168 190 108
161 183 92
168 190 84
170 191 114
161 183 88
153 175 76
166 188 105
165 187 105
166 187 102
162 183 88
164 186 92
159 180 95
165 187 92
164 185 108
170 192 92
167 188 111
163 184 99
160 183 95
161 184 84
162 184 95
166 187 92
167 187 95
156 177 99
153 174 84
158 179 122
163 184 88
165 185 102
164 186 108
164 185 95
155 176 102
160 181 88
165 186 95
155 176 80
156 176 88
166 186 88
153 174 72
150 171 88
167 188 80
160 182 84
162 182 80
162 183 84
157 178 72
154 175 57
152 173 57
152 172 57
153 172 76
153 172 84
153 173 67
147 167 57
142 163 36
143 164 51
149 170 62
152 173 25
142 163 0
133 153 0
142 164 0
146 168 0
134 155 25
139 161 36
144 164 0
141 162 0
135 156 57
130 149 36
145 166 25
138 159 0
139 158 57
140 160 36
136 157 25
131 152 25
135 155 0
144 163 0
144 165 0
139 158 0
131 151 0
132 150 0
124 143 0
134 154 0
131 151 0
126 145 0
140 159 0
128 147 0
125 145 0
134 154 0
128 148 0
132 153 0
131 150 0
132 152 0
129 149 0
128 148 0
141 162 0
118 137 0
125 145 0
119 139 0
139 158 0
120 140 0
121 140 0
129 148 0
125 143 0
121 141 0
134 152 0
118 136 0
123 142 0
116 134 0
115 133 0
128 147 0
115 134 0
127 145 0
120 138 0
125 144 0
118 136 0
121 140 0
126 143 0
118 136 0
115 133 0
112 131 0
117 136 0
118 136 0
118 136 0
110 128 0
116 135 0
116 135 0
107 126 0
110 128 0
120 139 0
109 128 0
114 132 0
116 134 0
123 142 0
111 128 0
106 125 0
114 133 0
116 134 0
121 138 0
112 131 0
112 130 0
124 142 0
124 143 0
121 139 0
108 125 0
105 123 0
118 136 0
126 144 0
130 149 0
106 124 0
124 143 0
106 124 0
115 134 0
125 143 0
117 136 0
111 130 0
117 136 0
120 139 0
107 126 0
130 150 0
118 136 0
115 134 0
114 135 0
121 140 0
120 138 0
117 136 0
131 150 0
107 126 0
138 156 0
118 138 0
129 148 0
123 142 0
129 149 0
128 147 0
130 148 0
122 142 0
129 148 0
131 148 0
126 146 0
130 149 0
135 156 0
124 144 0
122 142 0
126 145 0
133 152 0
137 156 0
134 154 0
132 152 0
128 147 0
129 150 0
141 161 0
129 150 0
136 157 0
134 154 0
134 155 0
138 159 0
133 153 0
125 146 0
152 171 0
135 155 0
148 168 0
142 163 0
137 157 0
146 167 0
137 158 0
137 158 0
138 159 0
147 167 0
139 159 0
146 167 0
144 165 0
145 164 0
137 157 0
142 163 0
138 158 0
145 167 0
150 168 0
143 163 0
146 168 0
146 166 0
143 164 0
146 166 0
145 165 0
146 166 0
147 169 0
148 169 0
150 172 0
146 166 0
152 173 0
148 170 0
149 170 0
151 172 0
148 169 0
151 173 0
155 178 0
151 173 0
147 167 0
148 169 0
152 174 0
152 173 0
148 168 0
157 179 0
150 171 0
149 170 0
154 174 0
152 174 0
151 174 0
150 171 0
152 173 0
147 167 0
147 168 0
161 184 0
150 172 0
158 179 0
159 181 0
157 179 0
155 176 0
158 179 0
156 178 0
155 176 0
153 173 0
162 182 0
158 181 0
155 177 0
162 182 0
160 180 0
157 178 0
156 179 0
155 177 0
158 179 0
156 179 0
160 181 0
154 175 0
159 181 0
163 184 0
164 184 0
162 183 0
154 177 0
164 185 0
159 180 0
157 180 0
157 179 0
154 175 0
161 183 0
160 181 0
157 179 0
162 184 0
160 181 0
164 185 0
158 180 0
166 189 0
156 176 0
164 186 0
166 187 0
153 174 0
168 189 0
157 181 0
165 188 0
163 184 0
164 187 0
157 179 0
166 187 0
165 186 0
165 187 0
161 184 0
163 185 0
166 189 0
163 184 0
166 188 0
163 185 0
167 187 0
161 182 0
168 191 0
166 189 0
165 187 0
166 188 0
165 187 0
168 189 0
164 185 0
162 184 0
170 193 0
169 191 0
168 190 0
163 185 0
166 187 0
166 189 0
164 188 0
165 187 0
166 189 0
170 191 0
166 188 0
164 185 0
161 182 0
165 187 0
175 197 84
172 195 95
178 200 88
175 198 108
173 196 108
177 199 99
169 192 84
171 194 88
176 198 99
175 197 102
174 197 95
173 196 99
176 199 92
170 193 76
173 196 102
173 197 99
170 193 92
174 197 95
175 198 108
172 196 92
175 198 120
168 192 111
173 197 102
169 192 54
167 191 92
169 192 92
173 195 95
172 195 92
166 189 84
172 196 88
172 195 88
173 197 72
173 196 111
169 191 99
171 193 99
172 195 102
171 194 108
165 187 80
168 191 80
168 192 88
173 195 88
165 188 99
170 192 102
166 189 76
167 189 76
172 195 84
175 197 99
170 193 88
164 187 80
163 185 88
161 184 95
169 191 72
169 192 99
165 188 95
172 195 108
167 191 111
166 189 105
169 192 88
167 189 95
164 187 88
169 191 95
167 189 108
167 190 120
166 189 92
167 190 84
165 188 95
167 189 99
168 190 99
160 182 84
162 184 84
168 191 111
168 190 80
164 186 95
169 192 125
163 185 114
158 179 95
169 190 92
160 183 84
162 184 99
169 191 95
168 190 108
161 183 88
160 183 80
167 189 88
165 187 95
165 187 111
164 186 114
163 185 92
162 183 92
154 175 80
161 183 114
160 180 95
158 179 88
154 175 84
160 181 102
158 179 84
162 183 84
158 179 92
166 188 99
156 178 84
167 188 108
157 178 95
161 181 76
156 177 80
161 180 125
164 185 99
165 186 95
154 175 80
152 173 80
156 177 84
163 184 105
153 174 51
158 180 62
153 174 44
150 171 51
151 172 57
161 182 95
151 171 80
143 164 62
155 176 76
153 172 92
159 179 80
152 173 57
146 167 44
149 170 44
138 159 25
154 175 0
150 171 25
148 169 25
135 155 0
145 165 25
142 163 25
142 162 25
143 164 36
142 162 36
139 159 25
137 156 0
150 172 25
135 155 25
144 164 25
145 166 36
141 162 0
138 159 0
138 159 0
123 143 0
132 151 0
133 153 0
127 147 0
129 150 0
134 155 0
130 150 0
135 154 0
140 159 0
130 149 0
128 147 0
122 141 0
132 152 0
133 152 0
124 144 0
132 153 0
139 158 0
137 156 0
132 152 0
128 147 0
136 155 0
125 145 0
121 141 0
136 155 0
128 147 0
119 137 0
126 145 0
119 139 0
112 131 0
112 131 0
128 147 0
124 143 0
111 128 0
125 143 0
116 136 0
122 141 0
117 137 0
115 134 0
112 130 0
118 137 0
119 137 0
123 142 0
117 135 0
112 130 0
120 138 0
113 132 0
128 146 0
109 127 0
122 141 0
114 133 0
127 145 0
110 129 0
114 132 0
112 131 0
120 140 0
110 128 0
120 139 0
110 127 0
116 135 0
117 134 0
118 136 0
113 131 0
122 140 0
103 122 0
118 136 0
107 126 0
103 121 0
109 127 0
127 145 0
115 134 0
125 144 0
115 134 0
115 134 0
108 127 0
118 135 0
112 130 0
118 137 0
122 139 0
119 138 0
121 140 0
124 144 0
130 148 0
120 138 0
126 145 0
128 145 0
130 149 0
127 147 0
123 142 0
126 147 0
122 142 0
119 138 0
125 144 0
127 148 0
117 136 0
122 141 0
119 138 0
117 137 0
132 152 0
132 151 0
132 152 0
121 141 0
125 143 0
138 157 0
128 148 0
137 157 0
128 148 0
140 159 0
134 154 0
119 138 0
143 163 0
141 161 0
136 156 0
129 148 0
141 162 0
127 148 0
138 158 0
135 154 0
135 156 0
138 158 0
137 158 0
141 161 0
151 173 0
134 154 0
140 161 0
146 168 0
141 161 0
140 159 0
145 166 0
142 162 0
137 156 0
143 164 0
141 161 0
146 167 0
135 156 0
135 157 0
145 165 0
140 161 0
148 169 0
145 166 0
147 169 0
142 163 0
145 164 0
150 171 0
149 170 0
148 168 0
149 170 0
150 171 0
144 166 0
150 171 0
144 165 0
157 179 0
151 172 0
156 176 0
154 176 0
149 170 0
161 182 0
154 173 0
144 167 0
149 170 0
147 168 0
148 169 0
159 180 0
149 170 0
153 174 0
155 176 0
154 174 0
153 172 0
145 167 0
152 173 0
147 168 0
160 182 0
157 177 0
152 172 0
153 174 0
155 175 0
153 176 0
149 167 0
159 182 0
154 174 0
154 176 0
161 183 0
157 179 0
152 175 0
163 186 0
161 183 0
150 172 0
160 182 0
161 183 0
158 181 0
158 178 0
158 178 0
160 182 0
165 188 0
159 181 0
162 184 0
155 176 0
155 175 0
163 186 0
165 187 0
161 183 0
161 182 0
156 178 0
163 185 0
162 183 0
162 184 0
158 180 0
159 181 0
163 184 0
163 186 0
161 182 0
166 186 0
161 183 0
163 185 0
159 182 0
156 178 0
156 177 0
161 182 0
163 185 0
165 186 0
166 189 0
163 187 0
159 181 0
162 184 0
161 182 0
167 190 0
160 180 0
164 185 0
162 183 0
166 188 0
160 183 0
166 188 0
164 186 0
164 186 0
159 179 0
168 189 0
168 191 0
166 189 0
169 191 0
167 188 0
166 188 0
168 189 0
159 181 0
169 191 0
164 185 0
164 186 0
165 186 0
165 188 0
167 190 0
163 184 0
167 189 0
166 186 0
164 186 0
167 190 0
169 192 0
166 189 0
166 188 0
172 194 67
177 200 95
178 200 105
175 198 102
173 196 95
175 197 92
177 199 114
172 195 84
176 199 105
174 197 120
173 196 99
172 195 102
172 195 99
175 198 88
173 195 111
168 191 74
177 200 111
170 193 92
176 199 111
169 192 102
173 196 99
174 198 102
175 198 88
173 196 102
168 192 105
175 198 108
177 199 114
169 192 88
168 192 120
172 195 102
173 196 111
170 193 99
171 194 95
171 193 105
169 192 92
168 191 84
167 190 105
170 194 88
172 194 111
165 189 102
170 193 84
169 193 80
168 191 88
172 195 108
169 191 92
166 189 95
170 192 99
172 195 99
166 189 92
168 191 92
172 195 99
167 192 105
172 194 111
164 186 92
172 194 92
163 186 99
162 185 84
167 190 99
164 187 80
171 194 105
163 185 99
168 191 88
161 183 92
169 191 108
168 191 95
166 190 80
171 194 102
166 189 80
168 191 95
169 191 108
168 190 102
169 191 88
161 184 84
169 191 108
168 190 105
163 185 99
162 185 114
170 192 88
170 192 102
161 182 84
166 187 99
158 180 95
173 195 105
164 185 105
163 185 92
164 186 102
163 185 102
161 182 72
164 185 105
160 181 95
163 185 92
161 182 80
163 184 92
152 173 92
157 180 72
165 185 95
161 182 95
160 181 108
163 184 92
159 181 84
152 173 72
171 192 117
161 182 111
162 182 95
164 185 88
161 183 92
164 185 99
154 175 80
164 186 108
150 171 88
159 179 67
155 177 67
155 176 57
161 182 57
159 179 88
141 162 51
156 176 76
156 176 76
156 177 62
151 171 72
158 178 84
151 171 80
151 172 51
147 168 51
149 171 44
144 165 36
140 162 25
153 174 44
145 167 44
152 173 25
149 170 51
147 168 25
144 165 36
147 168 25
140 161 25
136 157 36
138 159 0
141 163 51
138 158 25
140 162 0
140 160 25
141 162 0
143 165 0
139 160 0
133 154 0
142 163 0
123 143 0
131 152 0
131 152 0
134 155 0
125 145 0
125 146 0
140 160 0
129 149 0
139 160 0
125 145 0
126 146 0
133 152 0
124 143 0
137 156 0
131 151 0
139 160 0
125 145 0
132 151 0
119 139 0
125 144 0
121 139 0
139 159 0
134 154 0
124 143 0
125 144 0
116 135 0
119 138 0
124 144 0
120 139 0
118 138 0
117 135 0
116 134 0
122 141 0
128 147 0
127 146 0
120 140 0
116 136 0
125 144 0
127 147 0
129 148 0
120 140 0
118 138 0
124 144 0
110 129 0
124 142 0
119 137 0
119 138 0
123 143 0
112 130 0
111 130 0
124 142 0
128 148 0
125 142 0
111 129 0
113 131 0
126 145 0
113 131 0
118 136 0
108 127 0
121 140 0
129 148 0
108 126 0
124 143 0
118 138 0
116 135 0
133 151 0
102 121 0
117 135 0
112 131 0
129 147 0
119 137 0
121 139 0
128 147 0
122 139 0
127 147 0
109 128 0
114 134 0
120 138 0
124 143 0
135 154 0
128 148 0
121 140 0
123 143 0
115 133 0
115 134 0
129 147 0
121 140 0
119 137 0
126 145 0
128 148 0
129 148 0
132 152 0
136 157 0
127 148 0
118 138 0
132 151 0
131 150 0
126 147 0
130 149 0
130 149 0
135 156 0
141 160 0
128 147 0
129 150 0
137 157 0
141 161 0
142 163 0
142 161 0
123 142 0
137 157 0
138 159 0
137 157 0
141 162 0
148 169 0
137 157 0
137 157 0
131 150 0
136 157 0
139 160 0
136 157 0
141 161 0
145 166 0
143 164 0
145 167 0
137 158 0
140 161 0
138 159 0
131 150 0
146 167 0
144 165 0
144 164 0
141 163 0
144 165 0
143 162 0
145 168 0
147 168 0
145 166 0
144 165 0
143 163 0
139 159 0
147 166 0
149 169 0
141 163 0
150 170 0
151 172 0
150 171 0
157 179 0
140 161 0
150 171 0
149 170 0
150 171 0
144 164 0
152 175 0
148 170 0
149 169 0
153 174 0
155 176 0
151 172 0
153 174 0
155 176 0
156 176 0
155 177 0
151 172 0
153 173 0
155 175 0
149 170 0
149 170 0
148 169 0
156 178 0
160 181 0
158 178 0
151 173 0
156 177 0
155 177 0
154 175 0
158 178 0
161 183 0
152 173 0
157 179 0
153 175 0
152 173 0
156 177 0
164 187 0
159 182 0
161 182 0
153 175 0
160 180 0
160 181 0
161 182 0
156 175 0
156 177 0
152 174 0
160 181 0
154 175 0
160 181 0
156 178 0
161 184 0
159 180 0
159 181 0
153 174 0
162 184 0
158 180 0
162 182 0
159 181 0
159 180 0
165 187 0
164 187 0
158 180 0
158 180 0
162 184 0
163 186 0
166 188 0
163 186 0
165 187 0
162 184 0
165 187 0
162 185 0
159 181 0
163 185 0
163 185 0
163 185 0
161 183 0
161 183 0
162 184 0
160 180 0
165 188 0
168 191 0
165 187 0
163 186 0
163 186 0
163 184 0
159 182 0
166 188 0
160 183 0
160 182 0
168 191 0
164 183 0
165 187 0
167 189 0
161 183 0
166 187 0
166 188 0
166 187 0
165 187 0
162 185 0
161 181 0
163 184 0
167 189 0
165 187 0
165 187 0
163 187 0
164 185 0
167 189 0
166 189 0
178 201 102
178 200 95
180 204 117
177 199 102
175 197 92
175 199 105
173 196 95
176 199 99
174 197 84
176 199 102
179 202 102
174 196 99
173 196 108
176 198 99
175 198 99
175 198 117
174 198 80
174 196 95
174 196 99
170 193 88
164 188 88
173 196 115
170 194 108
169 192 102
173 196 99
168 191 92
172 196 108
173 196 80
168 192 88
168 191 92
171 194 88
174 197 102
173 196 108
174 198 84
168 191 84
168 191 80
174 197 102
168 192 102
169 193 92
173 196 117
170 192 102
168 190 88
162 185 88
170 193 99
167 190 92
166 190 95
168 192 99
168 191 84
171 194 111
167 190 72
161 184 72
179 202 117
171 193 92
168 191 76
172 195 99
166 188 80
170 193 99
167 189 111
170 193 92
166 189 88
160 183 105
166 189 84
168 190 108
169 190 111
157 180 84
163 186 99
170 193 111
169 191 95
170 193 105
167 190 99
172 194 99
164 186 92
169 191 84
167 189 111
161 182 95
169 191 108
165 186 92
167 190 88
166 189 88
162 185 84
175 197 102
163 185 108
163 185 99
168 190 95
164 185 95
165 187 92
173 194 105
169 190 111
166 186 117
164 185 105
168 189 95
163 183 105
157 179 88
157 178 95
162 183 102
159 181 88
158 179 99
164 184 80
167 187 99
157 177 88
155 176 99
160 180 105
156 177 84
166 187 92
160 181 80
151 172 67
162 183 76
171 191 120
156 177 88
161 181 67
153 174 57
155 177 84
144 165 51
156 178 57
145 165 67
156 176 88
155 175 88
162 182 76
153 174 72
146 167 67
151 172 57
153 174 51
148 168 51
145 166 51
149 170 0
146 167 25
147 167 25
144 166 0
151 171 25
147 167 36
134 155 0
144 165 36
141 160 67
138 158 36
145 166 51
144 165 25
138 159 0
140 161 36
151 172 36
141 163 25
142 164 25
142 163 0
141 161 0
145 167 0
130 150 0
126 147 0
132 152 0
135 154 0
126 147 0
139 160 0
118 138 0
123 143 0
123 143 0
130 149 0
132 153 0
143 163 0
138 158 0
132 152 0
136 156 0
140 160 0
135 154 0
139 160 0
129 147 0
136 156 0
135 153 0
125 144 0
132 151 0
116 136 0
127 146 0
123 143 0
128 147 0
123 141 0
116 135 0
121 141 0
123 143 0
123 141 0
120 139 0
117 136 0
122 140 0
121 139 0
120 138 0
124 143 0
120 138 0
123 142 0
132 152 0
111 130 0
118 138 0
118 137 0
112 130 0
108 127 0
123 142 0
106 125 0
121 140 0
117 136 0
110 129 0
117 136 0
114 133 0
116 135 0
120 139 0
116 135 0
116 135 0
114 133 0
120 138 0
123 141 0
116 134 0
123 142 0
128 147 0
110 130 0
127 147 0
113 132 0
117 136 0
129 148 0
124 142 0
119 138 0
126 145 0
129 148 0
125 144 0
124 144 0
121 140 0
126 145 0
117 136 0
116 135 0
113 133 0
121 142 0
128 147 0
130 150 0
119 139 0
125 146 0
126 145 0
125 144 0
130 150 0
126 147 0
124 142 0
123 142 0
126 146 0
129 149 0
128 147 0
131 152 0
136 154 0
135 153 0
136 156 0
129 149 0
129 149 0
124 143 0
132 152 0
135 155 0
128 148 0
130 148 0
129 148 0
137 157 0
129 150 0
142 162 0
134 155 0
126 146 0
140 160 0
133 153 0
142 162 0
139 158 0
135 156 0
135 154 0
140 160 0
141 161 0
151 171 0
130 150 0
137 158 0
141 161 0
146 168 0
143 164 0
148 169 0
138 158 0
146 167 0
134 156 0
142 162 0
141 162 0
147 167 0
146 166 0
144 164 0
141 160 0
142 163 0
140 161 0
150 172 0
141 163 0
142 163 0
147 168 0
150 170 0
149 169 0
148 169 0
151 173 0
149 170 0
143 164 0
147 167 0
152 172 0
152 173 0
145 166 0
152 174 0
149 169 0
149 170 0
154 175 0
155 177 0
151 173 0
154 175 0
154 175 0
155 177 0
149 171 0
146 167 0
149 172 0
153 176 0
152 173 0
150 172 0
161 182 0
158 181 0
152 173 0
158 178 0
156 177 0
155 177 0
152 174 0
157 179 0
153 172 0
156 179 0
153 173 0
153 175 0
152 174 0
156 176 0
156 178 0
157 177 0
159 180 0
152 173 0
156 177 0
154 176 0
159 180 0
162 182 0
149 171 0
159 181 0
155 175 0
156 177 0
157 180 0
162 184 0
162 184 0
160 182 0
157 179 0
162 184 0
160 182 0
162 185 0
161 182 0
158 179 0
163 185 0
165 186 0
160 181 0
162 183 0
162 183 0
162 182 0
155 177 0
156 177 0
158 179 0
161 182 0
158 180 0
158 180 0
158 180 0
159 181 0
161 183 0
161 185 0
165 188 0
160 181 0
158 180 0
160 182 0
160 182 0
165 186 0
166 188 0
167 188 0
158 180 0
161 183 0
161 184 0
164 186 0
167 188 0
167 191 0
164 186 0
158 180 0
164 186 0
162 184 0
166 188 0
165 187 0
163 185 0
167 191 0
165 187 0
167 189 0
164 186 0
166 188 0
165 188 0
167 189 0
165 186 0
159 181 0
169 191 0
164 186 0
166 189 0
162 184 0
162 184 0
164 185 0
166 187 0
166 188 0
165 188 0
175 198 108
173 196 84
173 197 92
178 201 105
175 198 92
175 198 102
175 199 114
171 194 92
175 198 102
173 196 95
171 194 102
174 196 92
178 200 102
168 190 84
172 196 105
171 195 108
170 193 120
168 191 88
168 192 88
175 197 108
173 196 95
170 193 105
168 191 84
172 196 95
173 196 105
171 194 84
174 197 102
170 193 108
172 195 108
170 194 84
172 195 111
175 198 99
175 198 114
172 194 111
173 195 99
169 192 105
166 190 92
172 195 108
171 194 122
171 194 92
169 192 80
168 191 95
165 188 80
168 191 80
170 193 99
168 191 88
172 194 120
172 194 120
169 192 95
168 191 95
167 190 92
167 189 80
170 194 92
164 186 88
169 192 99
168 191 105
169 192 84
167 190 88
165 187 92
166 189 72
169 192 80
167 190 76
166 189 95
168 190 111
168 190 99
173 195 117
170 191 95
169 192 88
163 186 88
158 181 67
167 189 102
166 187 99
161 184 76
164 186 102
165 188 84
165 187 108
162 185 99
156 177 76
168 190 128
162 183 72
160 182 92
168 189 95
161 182 80
165 187 102
153 174 84
158 180 95
165 187 92
160 182 92
163 184 114
163 184 105
156 178 88
161 182 92
164 186 72
158 180 95
168 189 117
167 188 111
168 188 108
164 185 95
163 184 88
156 177 99
161 181 95
154 175 95
160 180 105
154 175 88
157 178 80
156 176 92
155 176 72
161 181 80
153 173 84
156 179 57
156 176 80
153 175 44
150 172 72
150 171 51
157 179 72
142 164 44
152 173 67
155 175 92
156 178 36
153 174 76
160 181 67
152 172 57
157 178 62
156 177 57
150 171 25
150 172 0
152 174 36
148 169 0
149 170 0
143 164 25
144 164 25
147 169 36
145 166 44
149 170 51
146 168 44
133 154 25
143 164 0
143 164 25
140 161 0
142 163 25
145 167 0
157 179 0
150 172 0
150 172 0
139 160 0
151 172 0
147 167 0
142 163 0
135 156 0
126 146 0
135 155 0
141 161 0
136 156 0
127 147 0
131 151 0
137 156 0
127 148 0
132 152 0
127 146 0
126 147 0
133 152 0
128 148 0
134 153 0
126 146 0
131 151 0
139 159 0
134 154 0
128 149 0
123 142 0
126 146 0
129 148 0
128 147 0
125 144 0
132 150 0
119 139 0
121 139 0
119 140 0
129 149 0
121 140 0
128 148 0
129 148 0
133 152 0
124 142 0
121 141 0
127 146 0
113 130 0
123 142 0
119 138 0
123 142 0
134 153 0
113 131 0
111 130 0
115 134 0
130 148 0
118 137 0
126 145 0
119 138 0
129 148 0
119 137 0
130 148 0
117 136 0
129 148 0
118 137 0
123 143 0
116 136 0
122 141 0
124 144 0
118 138 0
112 131 0
120 137 0
116 135 0
112 131 0
110 130 0
126 144 0
127 147 0
126 145 0
129 148 0
113 133 0
117 137 0
124 144 0
129 148 0
119 138 0
119 138 0
124 143 0
121 139 0
130 149 0
126 145 0
121 141 0
127 145 0
132 152 0
123 143 0
132 151 0
127 146 0
138 158 0
136 155 0
116 134 0
129 149 0
125 145 0
134 154 0
130 150 0
135 156 0
133 154 0
123 142 0
139 157 0
137 156 0
129 147 0
140 160 0
121 142 0
130 151 0
127 145 0
139 160 0
134 154 0
139 160 0
134 155 0
140 160 0
136 157 0
144 163 0
137 157 0
140 161 0
135 155 0
133 153 0
139 159 0
138 158 0
140 161 0
141 161 0
138 159 0
140 163 0
142 162 0
143 163 0
141 162 0
143 162 0
138 158 0
144 165 0
140 161 0
137 158 0
144 164 0
144 166 0
144 166 0
150 170 0
144 165 0
148 169 0
149 171 0
144 165 0
147 168 0
152 174 0
149 171 0
142 164 0
149 169 0
153 176 0
151 172 0
149 170 0
156 176 0
152 174 0
154 176 0
153 174 0
146 167 0
147 168 0
152 173 0
157 179 0
156 176 0
152 173 0
149 171 0
154 176 0
152 174 0
144 165 0
147 167 0
157 179 0
145 167 0
154 176 0
158 179 0
156 177 0
160 179 0
152 173 0
154 176 0
157 178 0
156 177 0
151 172 0
155 176 0
152 173 0
153 175 0
150 173 0
151 173 0
158 181 0
158 179 0
156 178 0
153 175 0
162 184 0
161 183 0
160 181 0
159 181 0
155 177 0
164 186 0
159 181 0
158 179 0
151 173 0
163 184 0
162 184 0
163 185 0
162 184 0
154 176 0
159 181 0
154 177 0
156 177 0
156 178 0
160 181 0
166 188 0
161 182 0
157 179 0
162 186 0
161 183 0
159 183 0
164 187 0
163 185 0
155 176 0
162 185 0
163 186 0
160 182 0
160 181 0
158 179 0
158 179 0
165 186 0
163 185 0
154 176 0
165 187 0
166 188 0
162 184 0
159 181 0
161 184 0
164 186 0
168 192 0
166 187 0
166 188 0
166 189 0
164 187 0
165 186 0
165 189 0
161 183 0
167 189 0
164 186 0
165 188 0
163 184 0
165 188 0
162 185 0
163 186 0
165 188 0
164 187 0
161 182 0
159 180 0
163 185 0
169 191 0
163 185 0
164 187 0
169 191 0
169 191 0
165 186 0
166 189 0
166 188 0
162 184 0
168 190 0
170 192 0
174 197 76
175 198 95
177 200 105
172 194 88
172 196 84
171 194 102
173 196 99
178 200 99
175 198 108
175 198 114
177 200 108
171 194 80
175 199 102
171 194 102
172 196 84
170 193 84
179 201 102
175 198 95
172 196 99
172 195 105
174 197 95
168 192 62
176 198 102
168 191 78
173 196 80
175 197 111
172 195 99
171 195 110
175 198 111
173 195 99
169 193 99
168 190 95
165 188 80
169 192 92
166 189 80
171 195 95
169 193 102
168 191 62
165 188 84
168 190 76
170 193 88
168 192 84
171 194 88
171 195 105
176 200 117
169 193 111
163 185 76
168 191 99
165 188 67
169 193 99
170 193 102
173 196 102
165 188 84
168 190 108
169 192 99
170 193 102
167 189 105
170 192 99
165 187 62
172 195 120
168 190 92
169 192 108
166 188 80
171 194 99
166 188 72
169 191 95
164 187 99
170 192 92
164 186 88
166 189 92
166 189 102
171 193 105
166 188 88
160 183 80
163 185 95
170 193 92
168 190 88
155 177 84
171 193 80
166 187 99
167 189 99
167 189 108
162 184 102
172 194 114
162 183 92
163 185 111
167 188 105
164 186 95
165 186 105
160 182 99
162 183 102
165 187 95
166 188 88
164 185 99
161 182 108
150 171 95
166 186 120
159 181 102
159 180 92
161 181 88
164 184 108
158 179 99
162 184 88
163 183 105
163 184 72
154 174 84
156 177 80
157 178 67
151 172 67
148 169 51
153 174 80
154 176 44
153 173 72
148 170 36
153 174 76
154 174 76
157 178 67
148 170 51
150 172 62
150 170 80
147 168 72
151 172 51
147 168 57
159 181 57
146 167 44
148 168 0
145 166 25
141 163 0
131 152 25
147 169 0
161 183 44
144 166 36
147 168 51
134 156 36
145 166 25
144 165 36
136 155 25
141 161 25
136 157 25
141 162 36
142 163 25
143 163 0
147 168 0
146 168 0
138 159 0
137 158 0
128 150 0
131 151 0
132 151 0
135 155 0
140 160 0
133 154 0
134 155 0
128 149 0
128 148 0
132 152 0
134 154 0
127 148 0
129 149 0
124 143 0
132 151 0
128 149 0
129 148 0
128 147 0
123 143 0
127 148 0
126 145 0
119 139 0
128 148 0
129 149 0
122 142 0
121 142 0
120 140 0
118 138 0
125 145 0
132 152 0
128 148 0
132 151 0
112 132 0
124 143 0
120 140 0
126 145 0
128 148 0
125 144 0
129 149 0
122 141 0
126 146 0
126 144 0
128 148 0
119 137 0
126 145 0
123 141 0
127 148 0
111 130 0
118 137 0
130 150 0
119 138 0
126 145 0
118 137 0
125 144 0
123 141 0
117 135 0
122 142 0
116 135 0
129 147 0
118 138 0
116 135 0
116 135 0
130 151 0
129 147 0
124 145 0
118 136 0
125 145 0
119 138 0
120 139 0
118 137 0
124 143 0
116 136 0
125 145 0
121 141 0
132 152 0
125 145 0
132 151 0
119 138 0
129 148 0
119 140 0
126 146 0
136 155 0
132 152 0
133 154 0
132 151 0
123 142 0
135 154 0
126 147 0
127 147 0
118 137 0
139 159 0
143 163 0
142 161 0
128 148 0
137 157 0
135 156 0
134 154 0
128 148 0
132 152 0
130 149 0
127 147 0
136 155 0
139 158 0
137 157 0
131 151 0
142 160 0
132 152 0
138 159 0
134 154 0
135 156 0
133 153 0
139 161 0
143 163 0
139 159 0
142 163 0
138 158 0
140 161 0
143 163 0
139 159 0
140 160 0
140 161 0
137 156 0
142 163 0
139 159 0
142 164 0
144 164 0
143 164 0
148 168 0
138 160 0
150 172 0
146 167 0
145 165 0
146 166 0
136 157 0
146 166 0
147 166 0
147 167 0
151 172 0
145 165 0
149 170 0
152 173 0
140 161 0
143 163 0
150 171 0
148 169 0
152 172 0
152 173 0
139 160 0
161 183 0
150 171 0
151 171 0
147 170 0
159 181 0
147 169 0
147 168 0
156 177 0
148 169 0
152 175 0
150 172 0
158 181 0
150 172 0
152 173 0
151 172 0
157 178 0
155 176 0
157 179 0
155 177 0
159 180 0
154 175 0
154 176 0
154 176 0
158 180 0
155 177 0
153 175 0
156 178 0
157 179 0
152 173 0
157 179 0
156 178 0
154 176 0
156 178 0
158 180 0
157 180 0
158 180 0
161 183 0
163 186 0
151 173 0
163 185 0
155 179 0
160 182 0
161 184 0
164 187 0
160 182 0
162 184 0
157 178 0
161 185 0
164 186 0
157 179 0
159 181 0
163 184 0
156 178 0
155 177 0
160 182 0
155 177 0
157 178 0
160 182 0
161 183 0
159 181 0
157 180 0
162 184 0
168 190 0
158 179 0
166 187 0
163 184 0
158 179 0
163 186 0
156 177 0
160 183 0
165 187 0
157 179 0
162 184 0
165 188 0
166 188 0
168 188 0
159 181 0
158 179 0
166 188 0
162 185 0
165 187 0
163 184 0
163 185 0
161 183 0
163 184 0
171 194 0
163 186 0
167 189 0
169 191 0
166 189 0
162 183 0
158 180 0
167 189 0
168 189 0
168 191 0
164 186 0
163 186 0
167 190 0
163 185 0
169 191 0
165 186 0
164 186 0
172 194 0
164 186 0
168 190 0
167 189 0
